( G-Code Modified by G-Code Ripper                        )
( by Scorch - 2015 www.scorchworks.com                    )
G90   (set absolute distance mode)
G90.1 (set absolute distance mode for arc centers)
G17   (set active plane to XY)
G21   (set units to mm)
(G-Code Preamble)
(---------------------------------------------------------)
( pcb2gcode 1.1.4 )
( Inches per minute feed rate. )
G94 
( Units == INCHES.             )
( Absolute coordinates.        )
( RPM spindle speed.           )
S6000 
( Spindle on clockwise.        )
M3 
( set maximum deviation from commanded toolpath )
G64 P0.00500 
( dwell for no time -- G64 should not smooth over this point )
G04 P0 
( retract )
G0 Z 1.0000
( rapid move to begin. )
G0 X-49.6824 Y 69.4931
( plunge. )
G1 Z-0.1001 F 100.00
( dwell for no time -- G64 should not smooth over this point )
G04 P0 
G1 X-49.7078
G1 Y 69.4677
G1 X-49.7332
G1 Y 69.4423
G1 X-49.7586
G1 Y 69.4169
G1 X-49.7840
G1 Y 69.3915
G1 X-49.8094
G1 Y 69.3661
G1 X-49.8348
G1 Y 69.3407
G1 X-49.8602
G1 Y 69.3153
G1 X-49.8856
G1 Y 69.2899
G1 X-49.9110
G1 Y 69.2645
G1 X-49.9364
G1 Y 69.2391
G1 X-49.9618
G1 Y 69.2137
G1 X-49.9872
G1 Y 69.1883
G1 X-50.0126
G1 Y 69.1629
G1 X-50.0380
G1 Y 69.1375
G1 X-50.0634
G1 Y 69.1121
G1 X-50.0888
G1 Y 69.0867
G1 X-50.1142
G1 Y 69.0613
G1 X-50.1396
G1 Y 69.0359
G1 X-50.1650
G1 Y 69.0105
G1 X-50.1904
G1 Y 68.9851
G1 X-50.2158
G1 Y 68.9597
G1 X-50.2412
G1 Y 68.9343
G1 X-50.2666
G1 Y 68.9089
G1 X-50.2920
G1 Y 68.8835
G1 X-50.3174
G1 Y 68.8581
G1 X-50.3428
G1 Y 68.8327
G1 X-50.3682
G1 Y 68.8073
G1 X-50.3936
G1 Y 68.7819
G1 X-50.4190
G1 Y 68.7565
G1 X-50.4444
G1 Y 68.7311
G1 X-50.4698
G1 Y 68.7057
G1 X-50.4952
G1 Y 68.6803
G1 X-50.5206
G1 Y 68.6549
G1 X-50.5460
G1 Y 68.6295
G1 X-50.5714
G1 Y 68.6041
G1 X-50.5968
G1 Y 68.5787
G1 X-50.6222
G1 Y 68.5533
G1 X-50.6476
G1 Y 68.5279
G1 X-50.6730
G1 Y 68.5025
G1 X-50.6984
G1 Y 68.4771
G1 X-50.7238
G1 Y 68.4517
G1 X-50.7492
G1 Y 68.4263
G1 X-50.7746
G1 Y 68.4009
G1 X-50.8000
G1 Y 68.3755
G1 X-50.8254
G1 Y 68.3501
G1 X-50.8508
G1 Y 68.3247
G1 X-50.8762
G1 Y 68.2993
G1 X-50.9016
G1 Y 68.2739
G1 X-50.9270
G1 Y 68.2485
G1 X-50.9524
G1 Y 68.2231
G1 X-50.9778
G1 Y 68.1977
G1 X-51.0032
G1 Y 68.1723
G1 X-51.0286
G1 Y 68.1469
G1 X-51.0540
G1 Y 68.1215
G1 X-51.0794
G1 Y 68.0961
G1 X-51.1048
G1 Y 68.0707
G1 X-51.1302
G1 Y 68.0453
G1 X-51.1556
G1 Y 68.0199
G1 X-51.1810
G1 Y 67.9945
G1 X-51.2064
G1 Y 67.9691
G1 X-51.2318
G1 Y 67.9437
G1 X-51.2572
G1 Y 67.9183
G1 X-51.2826
G1 Y 67.8929
G1 X-51.3080
G1 Y 67.8675
G1 X-51.3334
G1 Y 67.8421
G1 X-51.3588
G1 Y 67.8167
G1 X-51.3842
G1 Y 67.7913
G1 X-51.4096
G1 Y 67.7659
G1 X-51.4350
G1 Y 67.7405
G1 X-51.4604
G1 Y 67.7151
G1 X-51.4858
G1 Y 67.6897
G1 X-51.5112
G1 Y 67.6643
G1 X-51.5366
G1 Y 67.6389
G1 X-51.5620
G1 Y 67.6135
G1 X-51.5874
G1 Y 67.5881
G1 X-51.6128
G1 Y 67.5627
G1 X-51.6382
G1 Y 67.5373
G1 X-51.6636
G1 Y 67.5119
G1 X-51.6890
G1 Y 67.4865
G1 X-51.7144
G1 Y 67.4611
G1 X-51.7398
G1 Y 67.4357
G1 X-51.7652
G1 Y 67.4103
G1 X-51.7906
G1 Y 67.3849
G1 X-51.8160
G1 Y 67.3595
G1 X-51.8414
G1 Y 67.3341
G1 X-51.8668
G1 Y 67.3087
G1 X-51.8922
G1 Y 67.2833
G1 X-51.9176
G1 Y 67.2579
G1 X-51.9430
G1 Y 67.2325
G1 X-51.9684
G1 Y 67.2071
G1 X-51.9938
G1 Y 67.1817
G1 X-52.0192
G1 Y 67.1563
G1 X-52.0446
G1 Y 67.1309
G1 X-52.0700
G1 Y 67.1055
G1 X-52.0954
G1 Y 67.0801
G1 X-52.1208
G1 Y 67.0547
G1 X-52.1462
G1 Y 67.0293
G1 X-52.1716
G1 Y 67.0039
G1 X-52.1970
G1 Y 66.9531
G1 X-52.2224
G1 Y 66.9277
G1 X-52.2478
G1 Y 66.8515
G1 X-52.2732
G1 Y 66.2673
G1 X-52.3494
G1 Y 66.2419
G1 X-52.4510
G1 Y 66.2165
G1 X-52.5018
G1 Y 66.1911
G1 X-52.5780
G1 Y 66.1657
G1 X-52.6288
G1 Y 66.1403
G1 X-52.6796
G1 Y 66.1149
G1 X-52.7050
G1 Y 66.0895
G1 X-52.7558
G1 Y 66.0641
G1 X-52.7812
G1 Y 66.0387
G1 X-52.8320
G1 Y 66.0133
G1 X-52.8574
G1 Y 65.9879
G1 X-52.8828
G1 Y 65.9625
G1 X-52.9082
G1 Y 65.9371
G1 X-52.9336
G1 Y 65.9117
G1 X-52.9590
G1 Y 65.8863
G1 X-52.9844
G1 Y 65.8609
G1 X-53.0098
G1 Y 65.8355
G1 X-53.0352
G1 Y 65.7847
G1 X-53.0606
G1 Y 65.7593
G1 X-53.0860
G1 Y 65.7085
G1 X-53.1114
G1 Y 65.6577
G1 X-53.1368
G1 Y 65.6069
G1 X-53.1622
G1 Y 65.5561
G1 X-53.1876
G1 Y 65.4799
G1 X-53.2130
G1 Y 65.3783
G1 X-53.2384
G1 Y 65.2259
G1 X-53.2638
G1 Y 64.3877
G1 X-53.2384
G1 Y 64.2353
G1 X-53.2130
G1 Y 64.1337
G1 X-53.1876
G1 Y 64.0575
G1 X-53.1622
G1 Y 64.0067
G1 X-53.1368
G1 Y 63.9559
G1 X-53.1114
G1 Y 63.9051
G1 X-53.0860
G1 Y 63.8543
G1 X-53.0606
G1 Y 63.8289
G1 X-53.0352
G1 Y 63.7781
G1 X-53.0098
G1 Y 63.7527
G1 X-52.9844
G1 Y 63.7273
G1 X-52.9590
G1 Y 63.7019
G1 X-52.9336
G1 Y 63.6765
G1 X-52.9082
G1 Y 63.6511
G1 X-52.8828
G1 Y 63.6257
G1 X-52.8574
G1 Y 63.6003
G1 X-52.8320
G1 Y 63.5749
G1 X-52.7812
G1 Y 63.5495
G1 X-52.7558
G1 Y 63.5241
G1 X-52.7050
G1 Y 63.4987
G1 X-52.6796
G1 Y 63.4733
G1 X-52.6288
G1 Y 63.4479
G1 X-52.5780
G1 Y 63.4225
G1 X-52.5018
G1 Y 63.3971
G1 X-52.4510
G1 Y 63.3717
G1 X-52.3494
G1 Y 63.3463
G1 X-52.2224
G1 Y 63.3209
G1 X-51.3334
G1 Y 63.3463
G1 X-51.2064
G1 Y 63.3717
G1 X-51.1556
G1 Y 63.3463
G1 X-51.1302
G1 Y 63.3209
G1 X-51.1048
G1 Y 63.2955
G1 X-51.0794
G1 Y 63.2701
G1 X-51.0540
G1 Y 63.2447
G1 X-51.0286
G1 Y 63.2193
G1 X-51.0032
G1 Y 33.7299
G1 X-51.0286
G1 Y 33.7045
G1 X-51.0540
G1 Y 33.6791
G1 X-51.0794
G1 Y 33.6537
G1 X-51.1048
G1 Y 33.6283
G1 X-51.1302
G1 Y 33.6029
G1 X-51.1556
G1 Y 33.5775
G1 X-51.1810
G1 Y 33.5521
G1 X-51.2064
G1 Y 33.5267
G1 X-51.2318
G1 Y 33.5013
G1 X-51.2572
G1 Y 33.4759
G1 X-51.2826
G1 Y 33.4505
G1 X-51.3080
G1 Y 33.4251
G1 X-51.3334
G1 Y 33.3997
G1 X-51.3588
G1 Y 33.3743
G1 X-51.3842
G1 Y 33.3489
G1 X-51.4096
G1 Y 33.3235
G1 X-51.4350
G1 Y 33.2981
G1 X-51.4604
G1 Y 33.2727
G1 X-51.4858
G1 Y 33.2473
G1 X-51.5112
G1 Y 33.2219
G1 X-51.5366
G1 Y 33.1965
G1 X-51.5620
G1 Y 33.1711
G1 X-51.5874
G1 Y 33.0949
G1 X-51.6128
G1 Y 33.0695
G1 X-51.6382
G1 Y 33.0441
G1 X-51.6636
G1 Y 33.0187
G1 X-51.6890
G1 Y 32.9933
G1 X-51.7144
G1 Y 32.9679
G1 X-51.7398
G1 Y 32.9425
G1 X-51.7652
G1 Y 32.9171
G1 X-51.7906
G1 Y 32.8917
G1 X-51.8160
G1 Y 32.8663
G1 X-51.8414
G1 Y 32.8409
G1 X-51.8668
G1 Y 32.8155
G1 X-51.8922
G1 Y 32.7901
G1 X-51.9176
G1 Y 32.7647
G1 X-51.9684
G1 Y 32.7393
G1 X-51.9938
G1 Y 32.7139
G1 X-52.0446
G1 Y 32.6885
G1 X-52.0700
G1 Y 32.6631
G1 X-52.0954
G1 Y 32.6377
G1 X-52.1208
G1 Y 32.6123
G1 X-52.1462
G1 Y 32.5869
G1 X-52.1716
G1 Y 32.5615
G1 X-52.1970
G1 Y 32.5361
G1 X-52.2224
G1 Y 32.5107
G1 X-52.2478
G1 Y 32.4853
G1 X-52.2732
G1 Y 32.4599
G1 X-52.2986
G1 Y 32.4345
G1 X-52.3240
G1 Y 32.4091
G1 X-52.3748
G1 Y 32.3837
G1 X-52.4002
G1 Y 32.3583
G1 X-52.4256
G1 Y 32.3329
G1 X-52.4510
G1 Y 32.3075
G1 X-52.4764
G1 Y 32.2821
G1 X-54.8386
G1 Y 32.3075
G1 X-54.8640
G1 Y 32.3583
G1 X-54.8894
G1 Y 32.3837
G1 X-54.9148
G1 Y 32.4345
G1 X-54.9402
G1 Y 32.4599
G1 X-54.9656
G1 Y 32.5107
G1 X-54.9910
G1 Y 32.5361
G1 X-55.0164
G1 Y 32.5615
G1 X-55.0418
G1 Y 32.5869
G1 X-55.0672
G1 Y 32.6123
G1 X-55.0418
G1 Y 32.6377
G1 X-55.0164
G1 Y 32.6631
G1 X-54.9910
G1 Y 32.6885
G1 X-54.9656
G1 Y 32.7139
G1 X-54.9402
G1 Y 32.7393
G1 X-54.9148
G1 Y 32.7647
G1 X-54.8894
G1 Y 32.7901
G1 X-54.8640
G1 Y 32.8155
G1 X-54.8386
G1 Y 32.8409
G1 X-54.8132
G1 Y 32.8663
G1 X-54.7878
G1 Y 32.8917
G1 X-54.7624
G1 Y 32.9171
G1 X-54.7370
G1 Y 32.9425
G1 X-54.7116
G1 Y 32.9679
G1 X-54.6862
G1 Y 32.9933
G1 X-54.6608
G1 Y 33.0187
G1 X-54.6354
G1 Y 33.0441
G1 X-54.6100
G1 Y 33.0695
G1 X-54.5846
G1 Y 33.0949
G1 X-54.5592
G1 Y 33.1203
G1 X-54.5338
G1 Y 33.1457
G1 X-54.5084
G1 Y 33.1711
G1 X-54.4830
G1 Y 33.1965
G1 X-54.4576
G1 Y 33.2219
G1 X-54.4322
G1 Y 33.2473
G1 X-54.4068
G1 Y 33.2727
G1 X-54.3814
G1 Y 33.2981
G1 X-54.3560
G1 Y 33.3235
G1 X-54.3306
G1 Y 33.3489
G1 X-54.3052
G1 Y 33.3743
G1 X-54.2798
G1 Y 33.3997
G1 X-54.2544
G1 Y 33.4251
G1 X-54.2290
G1 Y 33.4505
G1 X-54.2036
G1 Y 33.4759
G1 X-54.1782
G1 Y 33.5013
G1 X-54.1528
G1 Y 33.5267
G1 X-54.1274
G1 Y 33.5521
G1 X-54.1020
G1 Y 33.5775
G1 X-54.0766
G1 Y 33.6029
G1 X-54.0512
G1 Y 33.6283
G1 X-54.0258
G1 Y 33.6537
G1 X-54.0004
G1 Y 33.6791
G1 X-53.9750
G1 Y 33.7045
G1 X-53.9496
G1 Y 33.7299
G1 X-53.9242
G1 Y 33.7553
G1 X-53.8988
G1 Y 33.7807
G1 X-53.8734
G1 Y 33.8061
G1 X-53.8480
G1 Y 33.8315
G1 X-53.8226
G1 Y 33.8569
G1 X-53.7972
G1 Y 33.8823
G1 X-53.7718
G1 Y 33.9077
G1 X-53.7464
G1 Y 33.9331
G1 X-53.7210
G1 Y 33.9585
G1 X-53.6956
G1 Y 33.9839
G1 X-53.6702
G1 Y 34.0093
G1 X-53.6448
G1 Y 34.0347
G1 X-53.6194
G1 Y 34.0601
G1 X-53.5940
G1 Y 34.1109
G1 X-53.5686
G1 Y 34.1617
G1 X-53.5432
G1 Y 34.1871
G1 X-53.5178
G1 Y 34.2379
G1 X-53.4924
G1 Y 34.2887
G1 X-53.4670
G1 Y 34.3141
G1 X-53.4416
G1 Y 34.3395
G1 X-53.4162
G1 Y 34.3649
G1 X-53.3908
G1 Y 34.3903
G1 X-53.3654
G1 Y 34.4157
G1 X-53.3400
G1 Y 34.4411
G1 X-53.3146
G1 Y 34.4665
G1 X-53.2892
G1 Y 34.4919
G1 X-53.2638
G1 Y 34.5173
G1 X-53.2384
G1 Y 34.5427
G1 X-53.2130
G1 Y 34.5681
G1 X-53.1876
G1 Y 34.5935
G1 X-53.1368
G1 Y 34.6189
G1 X-53.1114
G1 Y 34.6443
G1 X-53.0606
G1 Y 34.6697
G1 X-53.0352
G1 Y 34.6951
G1 X-52.9590
G1 Y 34.7205
G1 X-52.9336
G1 Y 34.7459
G1 X-52.9082
G1 Y 34.7713
G1 X-52.8828
G1 Y 34.7967
G1 X-52.8574
G1 Y 34.8221
G1 X-52.8320
G1 Y 34.8475
G1 X-52.8066
G1 Y 34.8729
G1 X-52.7812
G1 Y 34.8983
G1 X-52.7558
G1 Y 34.9237
G1 X-52.7304
G1 Y 34.9491
G1 X-52.7050
G1 Y 34.9745
G1 X-52.6796
G1 Y 34.9999
G1 X-52.6542
G1 Y 35.0253
G1 X-52.6288
G1 Y 35.0507
G1 X-52.6034
G1 Y 35.0761
G1 X-52.5780
G1 Y 35.1015
G1 X-52.5526
G1 Y 35.1269
G1 X-52.5272
G1 Y 35.1523
G1 X-52.5018
G1 Y 35.1777
G1 X-52.4510
G1 Y 35.2031
G1 X-52.4256
G1 Y 35.2285
G1 X-52.4002
G1 Y 35.2539
G1 X-52.3748
G1 Y 35.2793
G1 X-52.3494
G1 Y 35.3047
G1 X-52.3240
G1 Y 35.3301
G1 X-52.2986
G1 Y 35.3555
G1 X-52.2732
G1 Y 35.3809
G1 X-52.2478
G1 Y 35.4063
G1 X-52.2224
G1 Y 35.4317
G1 X-52.1970
G1 Y 35.4571
G1 X-52.1716
G1 Y 35.4825
G1 X-52.1462
G1 Y 35.5079
G1 X-52.1208
G1 Y 35.5333
G1 X-52.0954
G1 Y 35.5587
G1 X-52.0700
G1 Y 35.5841
G1 X-52.0446
G1 Y 35.6095
G1 X-52.0192
G1 Y 35.6349
G1 X-51.9938
G1 Y 35.6603
G1 X-51.9684
G1 Y 35.7111
G1 X-51.9430
G1 Y 35.7365
G1 X-51.9176
G1 Y 35.8127
G1 X-51.8922
G1 Y 41.4261
G1 X-51.9176
G1 Y 41.5023
G1 X-51.9430
G1 Y 41.5277
G1 X-51.9684
G1 Y 41.5785
G1 X-51.9938
G1 Y 41.6039
G1 X-52.0192
G1 Y 41.6293
G1 X-52.0446
G1 Y 41.6547
G1 X-52.0700
G1 Y 41.6801
G1 X-52.0954
G1 Y 41.7055
G1 X-52.1208
G1 Y 41.7309
G1 X-52.1462
G1 Y 41.7563
G1 X-52.1716
G1 Y 42.3405
G1 X-52.1970
G1 Y 42.4929
G1 X-52.2224
G1 Y 42.5183
G1 X-52.2478
G1 Y 42.5691
G1 X-52.2732
G1 Y 42.6199
G1 X-52.2986
G1 Y 42.6453
G1 X-52.3240
G1 Y 42.6961
G1 X-52.3494
G1 Y 42.7469
G1 X-52.4002
G1 Y 42.7723
G1 X-52.4256
G1 Y 42.7977
G1 X-52.4510
G1 Y 42.8231
G1 X-52.5018
G1 Y 42.8485
G1 X-52.5272
G1 Y 42.8739
G1 X-52.5526
G1 Y 42.8993
G1 X-52.6034
G1 Y 42.9247
G1 X-52.6542
G1 Y 42.9501
G1 X-52.7558
G1 Y 42.9755
G1 X-53.6448
G1 Y 42.9501
G1 X-53.7464
G1 Y 42.9247
G1 X-53.7972
G1 Y 42.8993
G1 X-53.8480
G1 Y 42.8739
G1 X-53.8734
G1 Y 42.8485
G1 X-53.8988
G1 Y 42.8231
G1 X-53.9496
G1 Y 42.7977
G1 X-53.9750
G1 Y 42.7723
G1 X-54.0004
G1 Y 42.7469
G1 X-54.0512
G1 Y 42.6961
G1 X-54.0766
G1 Y 42.6453
G1 X-54.1020
G1 Y 42.6199
G1 X-54.1274
G1 Y 42.5691
G1 X-54.1528
G1 Y 42.5183
G1 X-54.1782
G1 Y 42.4929
G1 X-54.2036
G1 Y 42.3405
G1 X-54.2290
G1 Y 41.5531
G1 X-54.2036
G1 Y 41.4007
G1 X-54.1782
G1 Y 41.3753
G1 X-54.1528
G1 Y 41.3245
G1 X-54.1274
G1 Y 41.2737
G1 X-54.1020
G1 Y 41.2483
G1 X-54.0766
G1 Y 41.1975
G1 X-54.0512
G1 Y 41.1467
G1 X-54.0004
G1 Y 41.1213
G1 X-53.9750
G1 Y 41.0959
G1 X-53.9496
G1 Y 41.0705
G1 X-53.8988
G1 Y 41.0451
G1 X-53.8734
G1 Y 41.0197
G1 X-53.8480
G1 Y 40.9943
G1 X-53.7972
G1 Y 40.9689
G1 X-53.7464
G1 Y 40.9435
G1 X-53.6448
G1 Y 40.9181
G1 X-53.0098
G1 Y 40.8927
G1 X-52.9844
G1 Y 40.8673
G1 X-52.9590
G1 Y 40.8419
G1 X-52.9336
G1 Y 40.8165
G1 X-52.9082
G1 Y 40.7911
G1 X-52.8828
G1 Y 36.4477
G1 X-52.9082
G1 Y 36.4223
G1 X-52.9336
G1 Y 36.3969
G1 X-52.9590
G1 Y 36.3715
G1 X-52.9844
G1 Y 36.3461
G1 X-53.0098
G1 Y 36.3207
G1 X-53.0352
G1 Y 36.2953
G1 X-53.0606
G1 Y 36.2699
G1 X-53.0860
G1 Y 36.2445
G1 X-53.1114
G1 Y 36.2191
G1 X-53.1368
G1 Y 36.1937
G1 X-53.1622
G1 Y 36.1683
G1 X-53.1876
G1 Y 36.1429
G1 X-53.2130
G1 Y 36.1175
G1 X-53.2384
G1 Y 36.0921
G1 X-53.2638
G1 Y 36.0667
G1 X-53.2892
G1 Y 36.0413
G1 X-53.3146
G1 Y 36.0159
G1 X-53.3400
G1 Y 35.9905
G1 X-53.3654
G1 Y 35.9651
G1 X-53.3908
G1 Y 35.9397
G1 X-53.4162
G1 Y 35.9143
G1 X-53.4416
G1 Y 35.8889
G1 X-53.4670
G1 Y 35.8635
G1 X-53.4924
G1 Y 35.8381
G1 X-53.5178
G1 Y 35.8127
G1 X-53.5432
G1 Y 35.7873
G1 X-53.5686
G1 Y 35.7619
G1 X-53.5940
G1 Y 35.7365
G1 X-53.6194
G1 Y 35.7111
G1 X-53.6448
G1 Y 35.6857
G1 X-53.6702
G1 Y 35.6603
G1 X-53.6956
G1 Y 35.6349
G1 X-53.7210
G1 Y 35.6095
G1 X-53.7464
G1 Y 35.5841
G1 X-53.7718
G1 Y 35.5587
G1 X-53.7972
G1 Y 35.5333
G1 X-53.8226
G1 Y 35.5079
G1 X-53.8480
G1 Y 35.4825
G1 X-53.8734
G1 Y 35.4571
G1 X-53.8988
G1 Y 35.4317
G1 X-53.9242
G1 Y 35.4063
G1 X-53.9496
G1 Y 35.3809
G1 X-53.9750
G1 Y 35.3555
G1 X-54.0004
G1 Y 35.3301
G1 X-54.0258
G1 Y 35.3047
G1 X-54.0512
G1 Y 35.2793
G1 X-54.0766
G1 Y 35.2539
G1 X-54.1020
G1 Y 35.2285
G1 X-54.1274
G1 Y 35.2031
G1 X-54.1528
G1 Y 35.1777
G1 X-54.1782
G1 Y 35.1523
G1 X-54.2036
G1 Y 35.1269
G1 X-54.2290
G1 Y 35.1015
G1 X-54.2544
G1 Y 35.0761
G1 X-54.2798
G1 Y 35.0507
G1 X-54.3052
G1 Y 35.0253
G1 X-54.3306
G1 Y 34.9999
G1 X-54.3560
G1 Y 34.9745
G1 X-54.3814
G1 Y 34.9491
G1 X-54.4068
G1 Y 34.9237
G1 X-54.4322
G1 Y 34.8983
G1 X-54.4576
G1 Y 34.8729
G1 X-54.4830
G1 Y 34.8475
G1 X-54.5084
G1 Y 34.8221
G1 X-54.5338
G1 Y 34.7967
G1 X-54.5592
G1 Y 34.7713
G1 X-54.5846
G1 Y 34.7459
G1 X-54.6100
G1 Y 34.7205
G1 X-54.6354
G1 Y 34.6951
G1 X-54.6608
G1 Y 34.6697
G1 X-54.6862
G1 Y 34.6443
G1 X-54.7116
G1 Y 34.6189
G1 X-54.7370
G1 Y 34.5935
G1 X-54.7624
G1 Y 34.5681
G1 X-54.7878
G1 Y 34.5427
G1 X-54.8132
G1 Y 34.5173
G1 X-54.8386
G1 Y 34.4919
G1 X-54.8640
G1 Y 34.4665
G1 X-54.8894
G1 Y 34.4411
G1 X-54.9148
G1 Y 34.4157
G1 X-54.9402
G1 Y 34.3903
G1 X-54.9656
G1 Y 34.3649
G1 X-54.9910
G1 Y 34.3395
G1 X-55.0164
G1 Y 34.3141
G1 X-55.0418
G1 Y 34.2887
G1 X-55.0672
G1 Y 34.2633
G1 X-55.0926
G1 Y 34.2379
G1 X-55.1180
G1 Y 34.2125
G1 X-55.1434
G1 Y 34.1871
G1 X-55.1688
G1 Y 34.1617
G1 X-55.1942
G1 Y 34.1363
G1 X-55.2196
G1 Y 34.1109
G1 X-55.2450
G1 Y 35.2539
G1 X-55.2704
G1 Y 35.3301
G1 X-55.2958
G1 Y 35.3555
G1 X-55.3212
G1 Y 35.4063
G1 X-55.3466
G1 Y 35.4317
G1 X-55.3720
G1 Y 35.4571
G1 X-55.3974
G1 Y 35.4825
G1 X-55.4228
G1 Y 35.5079
G1 X-55.4482
G1 Y 35.5333
G1 X-55.4736
G1 Y 35.5587
G1 X-55.4990
G1 Y 35.5841
G1 X-55.5244
G1 Y 35.6095
G1 X-55.5498
G1 Y 35.6349
G1 X-55.5752
G1 Y 35.6603
G1 X-55.6006
G1 Y 35.6857
G1 X-55.6260
G1 Y 35.7111
G1 X-55.6514
G1 Y 35.7365
G1 X-55.6768
G1 Y 35.7619
G1 X-55.7022
G1 Y 35.7873
G1 X-55.7276
G1 Y 35.8127
G1 X-55.7530
G1 Y 35.8381
G1 X-55.7784
G1 Y 35.8635
G1 X-55.8038
G1 Y 35.8889
G1 X-55.8292
G1 Y 35.9143
G1 X-55.8546
G1 Y 35.9397
G1 X-55.8800
G1 Y 35.9651
G1 X-55.9054
G1 Y 35.9905
G1 X-55.9308
G1 Y 36.0159
G1 X-55.9562
G1 Y 36.0667
G1 X-55.9816
G1 Y 36.0921
G1 X-56.0070
G1 Y 36.1175
G1 X-56.0324
G1 Y 36.1429
G1 X-56.0578
G1 Y 36.1683
G1 X-56.1086
G1 Y 36.1937
G1 X-56.1594
G1 Y 36.2191
G1 X-60.3758
G1 Y 36.1937
G1 X-60.4266
G1 Y 36.1683
G1 X-60.4774
G1 Y 36.1429
G1 X-60.5028
G1 Y 36.1175
G1 X-60.5282
G1 Y 36.0921
G1 X-60.5536
G1 Y 36.0667
G1 X-60.5790
G1 Y 36.0413
G1 X-60.6044
G1 Y 36.0159
G1 X-60.6298
G1 Y 35.9905
G1 X-60.6552
G1 Y 35.9651
G1 X-60.6806
G1 Y 35.9397
G1 X-60.7060
G1 Y 35.9143
G1 X-60.7314
G1 Y 35.8889
G1 X-60.7568
G1 Y 35.8635
G1 X-60.7822
G1 Y 35.8381
G1 X-60.8076
G1 Y 35.8127
G1 X-60.8330
G1 Y 35.7873
G1 X-60.8584
G1 Y 35.7619
G1 X-60.8838
G1 Y 35.7365
G1 X-60.9092
G1 Y 35.7111
G1 X-60.9346
G1 Y 35.6857
G1 X-60.9600
G1 Y 35.6603
G1 X-60.9854
G1 Y 35.6349
G1 X-61.0108
G1 Y 35.6095
G1 X-61.0362
G1 Y 35.5841
G1 X-61.0616
G1 Y 35.5587
G1 X-61.0870
G1 Y 35.5333
G1 X-61.1124
G1 Y 35.5079
G1 X-61.1378
G1 Y 35.4825
G1 X-61.1632
G1 Y 35.4571
G1 X-61.1886
G1 Y 35.4317
G1 X-61.2140
G1 Y 35.4063
G1 X-61.2394
G1 Y 35.3809
G1 X-61.2648
G1 Y 35.3555
G1 X-61.2902
G1 Y 35.3301
G1 X-61.3156
G1 Y 35.3047
G1 X-61.3410
G1 Y 35.2793
G1 X-61.3664
G1 Y 35.2539
G1 X-61.3918
G1 Y 35.2285
G1 X-61.4172
G1 Y 35.2031
G1 X-61.4426
G1 Y 35.1777
G1 X-61.4680
G1 Y 35.1523
G1 X-61.4934
G1 Y 35.1015
G1 X-61.5188
G1 Y 35.0761
G1 X-61.5442
G1 Y 34.9999
G1 X-61.5696
G1 Y 33.2727
G1 X-61.5950
G1 Y 33.2473
G1 X-61.6204
G1 Y 33.2219
G1 X-61.6458
G1 Y 33.1965
G1 X-61.6712
G1 Y 33.1711
G1 X-61.6966
G1 Y 33.1457
G1 X-61.7220
G1 Y 33.1203
G1 X-61.7474
G1 Y 33.0949
G1 X-61.7728
G1 Y 33.0695
G1 X-61.7982
G1 Y 33.0441
G1 X-61.8236
G1 Y 33.0187
G1 X-61.8490
G1 Y 32.9933
G1 X-61.8744
G1 Y 32.9679
G1 X-61.8998
G1 Y 32.9425
G1 X-61.9252
G1 Y 32.9171
G1 X-61.9506
G1 Y 32.8917
G1 X-61.9760
G1 Y 32.8663
G1 X-62.0014
G1 Y 32.8409
G1 X-62.0268
G1 Y 32.8155
G1 X-62.0522
G1 Y 32.7901
G1 X-62.0776
G1 Y 32.7647
G1 X-62.1030
G1 Y 32.7393
G1 X-62.1284
G1 Y 32.7139
G1 X-62.1538
G1 Y 32.6885
G1 X-62.1792
G1 Y 32.6631
G1 X-62.2046
G1 Y 32.6377
G1 X-62.2300
G1 Y 32.6123
G1 X-62.2554
G1 Y 32.5869
G1 X-62.2808
G1 Y 32.5615
G1 X-62.3062
G1 Y 32.5361
G1 X-62.3316
G1 Y 32.5107
G1 X-62.3570
G1 Y 32.4853
G1 X-62.3824
G1 Y 32.4599
G1 X-62.4078
G1 Y 32.4345
G1 X-62.4332
G1 Y 32.4091
G1 X-62.4586
G1 Y 32.3837
G1 X-62.4840
G1 Y 32.3583
G1 X-62.5094
G1 Y 32.3329
G1 X-62.5348
G1 Y 32.3075
G1 X-62.5602
G1 Y 32.2821
G1 X-62.5856
G1 Y 32.2567
G1 X-62.6110
G1 Y 32.2313
G1 X-62.6364
G1 Y 32.2059
G1 X-62.6618
G1 Y 32.1805
G1 X-62.6872
G1 Y 32.1551
G1 X-62.7126
G1 Y 32.1297
G1 X-62.7380
G1 Y 32.1043
G1 X-62.7634
G1 Y 32.0789
G1 X-62.7888
G1 Y 32.0535
G1 X-62.8142
G1 Y 32.0281
G1 X-65.9384
G1 Y 32.0535
G1 X-65.9638
G1 Y 32.0789
G1 X-65.9892
G1 Y 32.1043
G1 X-66.0146
G1 Y 32.1297
G1 X-66.0400
G1 Y 32.1551
G1 X-66.0654
G1 Y 32.1805
G1 X-66.0908
G1 Y 32.2059
G1 X-66.1162
G1 Y 32.2313
G1 X-66.1416
G1 Y 32.2567
G1 X-66.1670
G1 Y 32.2821
G1 X-66.1924
G1 Y 32.3075
G1 X-66.2178
G1 Y 32.3329
G1 X-66.2432
G1 Y 32.3583
G1 X-66.2686
G1 Y 32.3837
G1 X-66.2940
G1 Y 32.4091
G1 X-66.3194
G1 Y 32.4345
G1 X-66.3448
G1 Y 32.4599
G1 X-66.3702
G1 Y 32.4853
G1 X-66.3956
G1 Y 32.5107
G1 X-66.4210
G1 Y 32.5361
G1 X-66.4464
G1 Y 32.5615
G1 X-66.4718
G1 Y 32.5869
G1 X-66.4972
G1 Y 32.6123
G1 X-66.5226
G1 Y 32.6377
G1 X-66.5480
G1 Y 39.1909
G1 X-66.5226
G1 Y 39.2163
G1 X-66.4972
G1 Y 39.2417
G1 X-66.4718
G1 Y 39.2671
G1 X-66.4464
G1 Y 39.2925
G1 X-66.4210
G1 Y 39.3179
G1 X-66.3956
G1 Y 39.3433
G1 X-66.3702
G1 Y 39.3687
G1 X-66.3448
G1 Y 39.3941
G1 X-66.3194
G1 Y 39.4195
G1 X-66.2940
G1 Y 39.4449
G1 X-66.2686
G1 Y 39.4703
G1 X-66.2432
G1 Y 39.4957
G1 X-66.2178
G1 Y 39.5211
G1 X-66.1924
G1 Y 39.5465
G1 X-66.1670
G1 Y 39.5719
G1 X-66.1416
G1 Y 39.5973
G1 X-66.1162
G1 Y 39.6227
G1 X-66.0908
G1 Y 39.6481
G1 X-66.0654
G1 Y 39.6735
G1 X-66.0400
G1 Y 39.6989
G1 X-66.0146
G1 Y 39.7243
G1 X-65.9892
G1 Y 39.7497
G1 X-65.9638
G1 Y 39.7751
G1 X-65.9384
G1 Y 39.8005
G1 X-65.9130
G1 Y 39.8259
G1 X-65.8876
G1 Y 39.8513
G1 X-65.8622
G1 Y 39.8767
G1 X-65.8368
G1 Y 39.9021
G1 X-65.8114
G1 Y 39.9275
G1 X-65.7860
G1 Y 39.9529
G1 X-65.7606
G1 Y 39.9783
G1 X-65.7352
G1 Y 40.0037
G1 X-65.7098
G1 Y 40.0291
G1 X-65.6844
G1 Y 40.0545
G1 X-65.6590
G1 Y 40.0799
G1 X-65.6336
G1 Y 40.1053
G1 X-65.6082
G1 Y 40.1307
G1 X-65.5828
G1 Y 40.1561
G1 X-65.5574
G1 Y 40.1815
G1 X-65.5320
G1 Y 40.2069
G1 X-65.5066
G1 Y 40.2323
G1 X-65.4812
G1 Y 40.2577
G1 X-65.4558
G1 Y 40.2831
G1 X-65.4304
G1 Y 40.3085
G1 X-65.4050
G1 Y 40.3339
G1 X-65.3796
G1 Y 40.3593
G1 X-65.3542
G1 Y 40.3847
G1 X-65.3288
G1 Y 40.4101
G1 X-65.3034
G1 Y 40.4355
G1 X-65.2780
G1 Y 40.4609
G1 X-65.2526
G1 Y 40.4863
G1 X-65.2272
G1 Y 40.5117
G1 X-65.2018
G1 Y 40.5371
G1 X-65.1764
G1 Y 40.5625
G1 X-65.1510
G1 Y 40.5879
G1 X-65.1256
G1 Y 40.6133
G1 X-65.1002
G1 Y 40.6387
G1 X-65.0748
G1 Y 40.6641
G1 X-65.0494
G1 Y 40.6895
G1 X-65.0240
G1 Y 40.7149
G1 X-64.9986
G1 Y 40.7403
G1 X-64.9732
G1 Y 40.7657
G1 X-64.9478
G1 Y 40.7911
G1 X-64.9224
G1 Y 40.8165
G1 X-64.8970
G1 Y 40.8419
G1 X-64.8716
G1 Y 40.8673
G1 X-64.8462
G1 Y 40.8927
G1 X-64.8208
G1 Y 40.9181
G1 X-64.1858
G1 Y 40.9435
G1 X-64.0842
G1 Y 40.9689
G1 X-64.0334
G1 Y 40.9943
G1 X-63.9826
G1 Y 41.0197
G1 X-63.9572
G1 Y 41.0451
G1 X-63.9318
G1 Y 41.0705
G1 X-63.8810
G1 Y 41.0959
G1 X-63.8556
G1 Y 41.1213
G1 X-63.8302
G1 Y 41.1467
G1 X-63.7794
G1 Y 41.1975
G1 X-63.7540
G1 Y 41.2483
G1 X-63.7286
G1 Y 41.2737
G1 X-63.7032
G1 Y 41.3245
G1 X-63.6778
G1 Y 41.3753
G1 X-63.6524
G1 Y 41.4007
G1 X-63.6270
G1 Y 41.5531
G1 X-63.6016
G1 Y 42.3405
G1 X-63.6270
G1 Y 42.4929
G1 X-63.6524
G1 Y 42.5183
G1 X-63.6778
G1 Y 42.5691
G1 X-63.7032
G1 Y 42.6199
G1 X-63.7286
G1 Y 42.6453
G1 X-63.7540
G1 Y 42.6961
G1 X-63.7794
G1 Y 42.7469
G1 X-63.8302
G1 Y 42.7723
G1 X-63.8556
G1 Y 42.7977
G1 X-63.8810
G1 Y 42.8231
G1 X-63.9318
G1 Y 42.8485
G1 X-63.9572
G1 Y 42.8739
G1 X-63.9826
G1 Y 42.8993
G1 X-64.0334
G1 Y 42.9247
G1 X-64.0842
G1 Y 42.9501
G1 X-64.1858
G1 Y 42.9755
G1 X-65.0748
G1 Y 42.9501
G1 X-65.1764
G1 Y 42.9247
G1 X-65.2272
G1 Y 42.8993
G1 X-65.2780
G1 Y 42.8739
G1 X-65.3034
G1 Y 42.8485
G1 X-65.3288
G1 Y 42.8231
G1 X-65.3796
G1 Y 42.7977
G1 X-65.4050
G1 Y 42.7723
G1 X-65.4304
G1 Y 42.7469
G1 X-65.4812
G1 Y 42.6961
G1 X-65.5066
G1 Y 42.6453
G1 X-65.5320
G1 Y 42.6199
G1 X-65.5574
G1 Y 42.5691
G1 X-65.5828
G1 Y 42.5183
G1 X-65.6082
G1 Y 42.4929
G1 X-65.6336
G1 Y 42.3913
G1 X-65.6590
G1 Y 42.3659
G1 X-65.6844
G1 Y 42.3405
G1 X-65.7098
G1 Y 42.3151
G1 X-65.7352
G1 Y 42.2389
G1 X-65.7606
G1 Y 41.6547
G1 X-65.7860
G1 Y 41.6293
G1 X-65.8114
G1 Y 41.6039
G1 X-65.8368
G1 Y 41.5785
G1 X-65.8622
G1 Y 41.5531
G1 X-65.8876
G1 Y 41.5277
G1 X-65.9130
G1 Y 41.5023
G1 X-65.9384
G1 Y 41.4769
G1 X-65.9638
G1 Y 41.4515
G1 X-65.9892
G1 Y 41.4261
G1 X-66.0146
G1 Y 41.4007
G1 X-66.0400
G1 Y 41.3753
G1 X-66.0654
G1 Y 41.3499
G1 X-66.0908
G1 Y 41.3245
G1 X-66.1162
G1 Y 41.2991
G1 X-66.1416
G1 Y 41.2737
G1 X-66.1670
G1 Y 41.2483
G1 X-66.1924
G1 Y 41.2229
G1 X-66.2178
G1 Y 41.1975
G1 X-66.2432
G1 Y 41.1721
G1 X-66.2686
G1 Y 41.1467
G1 X-66.2940
G1 Y 41.1213
G1 X-66.3194
G1 Y 41.0959
G1 X-66.3448
G1 Y 41.0705
G1 X-66.3702
G1 Y 41.0451
G1 X-66.3956
G1 Y 41.0197
G1 X-66.4210
G1 Y 40.9943
G1 X-66.4464
G1 Y 40.9689
G1 X-66.4718
G1 Y 40.9435
G1 X-66.4972
G1 Y 40.9181
G1 X-66.5226
G1 Y 40.8927
G1 X-66.5480
G1 Y 40.8673
G1 X-66.5734
G1 Y 40.8419
G1 X-66.5988
G1 Y 40.8165
G1 X-66.6242
G1 Y 40.7911
G1 X-66.6496
G1 Y 40.7657
G1 X-66.6750
G1 Y 40.7403
G1 X-66.7004
G1 Y 40.7149
G1 X-66.7258
G1 Y 40.6895
G1 X-66.7512
G1 Y 40.6641
G1 X-66.7766
G1 Y 40.6387
G1 X-66.8020
G1 Y 40.6133
G1 X-66.8274
G1 Y 40.5879
G1 X-66.8528
G1 Y 40.5625
G1 X-66.8782
G1 Y 40.5371
G1 X-66.9036
G1 Y 40.5117
G1 X-66.9290
G1 Y 40.4863
G1 X-66.9544
G1 Y 40.4609
G1 X-66.9798
G1 Y 40.4355
G1 X-67.0052
G1 Y 40.4101
G1 X-67.0306
G1 Y 40.3847
G1 X-67.0560
G1 Y 40.3593
G1 X-67.0814
G1 Y 40.3339
G1 X-67.1068
G1 Y 40.3085
G1 X-67.1322
G1 Y 40.2831
G1 X-67.1576
G1 Y 40.2577
G1 X-67.1830
G1 Y 40.2323
G1 X-67.2084
G1 Y 40.2069
G1 X-67.2338
G1 Y 40.1815
G1 X-67.2592
G1 Y 40.1561
G1 X-67.2846
G1 Y 40.1307
G1 X-67.3100
G1 Y 40.1053
G1 X-67.3354
G1 Y 40.0799
G1 X-67.3608
G1 Y 40.0545
G1 X-67.3862
G1 Y 40.0291
G1 X-72.5424
G1 Y 40.0545
G1 X-72.5678
G1 Y 40.0799
G1 X-72.5932
G1 Y 40.1053
G1 X-72.6186
G1 Y 40.1307
G1 X-72.6440
G1 Y 40.1561
G1 X-72.6694
G1 Y 40.1815
G1 X-72.6948
G1 Y 40.2069
G1 X-72.7202
G1 Y 40.2323
G1 X-72.7456
G1 Y 40.2577
G1 X-72.7710
G1 Y 40.2831
G1 X-72.7964
G1 Y 40.3085
G1 X-72.8218
G1 Y 40.3339
G1 X-72.8472
G1 Y 40.3593
G1 X-72.8726
G1 Y 40.3847
G1 X-72.8980
G1 Y 40.4101
G1 X-72.9234
G1 Y 40.4355
G1 X-72.9488
G1 Y 40.4609
G1 X-72.9742
G1 Y 40.4863
G1 X-72.9996
G1 Y 40.5117
G1 X-73.0250
G1 Y 40.5371
G1 X-73.0504
G1 Y 40.5625
G1 X-73.0758
G1 Y 40.5879
G1 X-73.1012
G1 Y 40.6133
G1 X-73.1266
G1 Y 40.6387
G1 X-73.1520
G1 Y 40.6641
G1 X-73.1774
G1 Y 40.6895
G1 X-73.2028
G1 Y 40.7149
G1 X-73.2282
G1 Y 40.7403
G1 X-73.2536
G1 Y 40.7657
G1 X-73.2790
G1 Y 40.7911
G1 X-73.3044
G1 Y 40.8165
G1 X-73.3298
G1 Y 40.8419
G1 X-73.3552
G1 Y 40.8673
G1 X-73.3806
G1 Y 40.8927
G1 X-73.4060
G1 Y 40.9181
G1 X-73.4314
G1 Y 40.9435
G1 X-73.4568
G1 Y 40.9689
G1 X-73.4822
G1 Y 40.9943
G1 X-73.5076
G1 Y 41.0197
G1 X-73.5330
G1 Y 41.0451
G1 X-73.5584
G1 Y 41.0705
G1 X-73.5838
G1 Y 41.0959
G1 X-73.6092
G1 Y 41.1213
G1 X-73.6346
G1 Y 41.1467
G1 X-73.6600
G1 Y 41.1721
G1 X-73.6854
G1 Y 41.1975
G1 X-73.7108
G1 Y 41.2229
G1 X-73.7362
G1 Y 41.2483
G1 X-73.7616
G1 Y 41.2737
G1 X-73.7870
G1 Y 41.2991
G1 X-73.8124
G1 Y 41.3245
G1 X-73.8378
G1 Y 41.3499
G1 X-73.8632
G1 Y 41.3753
G1 X-73.8886
G1 Y 41.4007
G1 X-73.9140
G1 Y 41.4261
G1 X-73.9394
G1 Y 41.4515
G1 X-73.9648
G1 Y 41.4769
G1 X-73.9902
G1 Y 41.5023
G1 X-74.0156
G1 Y 41.5277
G1 X-74.0410
G1 Y 41.5531
G1 X-74.0664
G1 Y 41.5785
G1 X-74.0918
G1 Y 41.6039
G1 X-74.1172
G1 Y 41.6293
G1 X-74.1426
G1 Y 41.6547
G1 X-74.1680
G1 Y 41.6801
G1 X-74.1934
G1 Y 41.7055
G1 X-74.2188
G1 Y 41.7309
G1 X-74.2442
G1 Y 41.7563
G1 X-74.2696
G1 Y 41.7817
G1 X-74.2950
G1 Y 41.8071
G1 X-74.3204
G1 Y 41.8325
G1 X-74.3458
G1 Y 41.8579
G1 X-74.3712
G1 Y 41.8833
G1 X-74.3966
G1 Y 41.9087
G1 X-74.4220
G1 Y 41.9341
G1 X-74.4474
G1 Y 41.9595
G1 X-74.4728
G1 Y 41.9849
G1 X-74.4982
G1 Y 42.0103
G1 X-74.5236
G1 Y 42.0357
G1 X-74.5490
G1 Y 42.0611
G1 X-74.5744
G1 Y 42.0865
G1 X-74.5998
G1 Y 42.1119
G1 X-74.6252
G1 Y 42.1373
G1 X-74.6506
G1 Y 42.1627
G1 X-74.6760
G1 Y 42.1881
G1 X-74.7014
G1 Y 42.2135
G1 X-74.7268
G1 Y 42.2389
G1 X-74.7522
G1 Y 42.2643
G1 X-74.7776
G1 Y 42.2897
G1 X-74.8030
G1 Y 42.3151
G1 X-74.8284
G1 Y 42.3405
G1 X-74.8538
G1 Y 42.3659
G1 X-74.8792
G1 Y 42.3913
G1 X-74.9300
G1 Y 42.4167
G1 X-74.9808
G1 Y 42.4421
G1 X-75.4380
G1 Y 42.4929
G1 X-75.4634
G1 Y 42.5183
G1 X-75.4888
G1 Y 42.5691
G1 X-75.5142
G1 Y 42.6199
G1 X-75.5396
G1 Y 42.6453
G1 X-75.5650
G1 Y 42.6961
G1 X-75.5904
G1 Y 42.7469
G1 X-75.6412
G1 Y 42.7723
G1 X-75.6666
G1 Y 42.7977
G1 X-75.6920
G1 Y 42.8231
G1 X-75.7428
G1 Y 42.8485
G1 X-75.7682
G1 Y 42.8739
G1 X-75.7936
G1 Y 42.8993
G1 X-75.8444
G1 Y 42.9247
G1 X-75.8952
G1 Y 42.9501
G1 X-75.9968
G1 Y 42.9755
G1 X-76.8858
G1 Y 42.9501
G1 X-76.9874
G1 Y 42.9247
G1 X-77.0382
G1 Y 42.8993
G1 X-77.0890
G1 Y 42.8739
G1 X-77.1144
G1 Y 42.8485
G1 X-77.1398
G1 Y 42.8231
G1 X-77.1906
G1 Y 42.7977
G1 X-77.2160
G1 Y 42.7723
G1 X-77.2414
G1 Y 42.7469
G1 X-77.2922
G1 Y 42.6961
G1 X-77.3176
G1 Y 42.6453
G1 X-77.3430
G1 Y 42.6199
G1 X-77.3684
G1 Y 42.5691
G1 X-77.3938
G1 Y 42.5183
G1 X-77.4192
G1 Y 42.4929
G1 X-77.4446
G1 Y 42.3405
G1 X-77.4700
G1 Y 41.5531
G1 X-77.4446
G1 Y 41.4007
G1 X-77.4192
G1 Y 41.3753
G1 X-77.3938
G1 Y 41.3245
G1 X-77.3684
G1 Y 41.2737
G1 X-77.3430
G1 Y 41.2483
G1 X-77.3176
G1 Y 41.1975
G1 X-77.2922
G1 Y 41.1467
G1 X-77.2414
G1 Y 41.1213
G1 X-77.2160
G1 Y 41.0959
G1 X-77.1906
G1 Y 41.0705
G1 X-77.1398
G1 Y 41.0451
G1 X-77.1144
G1 Y 41.0197
G1 X-77.0890
G1 Y 40.9943
G1 X-77.0382
G1 Y 40.9689
G1 X-76.9874
G1 Y 40.9435
G1 X-76.8858
G1 Y 40.9181
G1 X-75.9968
G1 Y 40.9435
G1 X-75.8952
G1 Y 40.9689
G1 X-75.8444
G1 Y 40.9943
G1 X-75.7936
G1 Y 41.0197
G1 X-75.7682
G1 Y 41.0451
G1 X-75.7428
G1 Y 41.0705
G1 X-75.6920
G1 Y 41.0959
G1 X-75.6666
G1 Y 41.1213
G1 X-75.6412
G1 Y 41.1467
G1 X-75.5904
G1 Y 41.1975
G1 X-75.5650
G1 Y 41.2483
G1 X-75.5396
G1 Y 41.2737
G1 X-75.5142
G1 Y 41.2991
G1 X-75.4888
G1 Y 41.2737
G1 X-75.4634
G1 Y 41.2483
G1 X-75.4380
G1 Y 41.2229
G1 X-75.4126
G1 Y 41.1975
G1 X-75.3872
G1 Y 41.1721
G1 X-75.3618
G1 Y 41.1467
G1 X-75.3364
G1 Y 41.1213
G1 X-75.3110
G1 Y 41.0959
G1 X-75.2856
G1 Y 41.0705
G1 X-75.2602
G1 Y 41.0451
G1 X-75.2348
G1 Y 41.0197
G1 X-75.2094
G1 Y 40.9943
G1 X-75.1840
G1 Y 40.9689
G1 X-75.1586
G1 Y 40.9435
G1 X-75.1332
G1 Y 40.9181
G1 X-75.1078
G1 Y 40.8927
G1 X-75.0824
G1 Y 40.8673
G1 X-75.0570
G1 Y 40.8419
G1 X-75.0316
G1 Y 40.8165
G1 X-75.0062
G1 Y 40.7911
G1 X-74.9808
G1 Y 40.7657
G1 X-74.9554
G1 Y 40.7403
G1 X-74.9300
G1 Y 40.7149
G1 X-74.9046
G1 Y 40.6895
G1 X-74.8792
G1 Y 40.6641
G1 X-74.8538
G1 Y 40.6387
G1 X-74.8284
G1 Y 40.6133
G1 X-74.8030
G1 Y 40.5879
G1 X-74.7776
G1 Y 40.5625
G1 X-74.7522
G1 Y 40.5371
G1 X-74.7268
G1 Y 40.5117
G1 X-74.7014
G1 Y 40.4863
G1 X-74.6760
G1 Y 40.4609
G1 X-74.6506
G1 Y 40.4355
G1 X-74.6252
G1 Y 40.4101
G1 X-74.5998
G1 Y 40.3847
G1 X-74.5744
G1 Y 40.3593
G1 X-74.5490
G1 Y 40.3339
G1 X-74.5236
G1 Y 40.3085
G1 X-74.4982
G1 Y 40.2831
G1 X-74.4728
G1 Y 40.2577
G1 X-74.4474
G1 Y 40.2323
G1 X-74.4220
G1 Y 40.2069
G1 X-74.3966
G1 Y 40.1815
G1 X-74.3712
G1 Y 40.1561
G1 X-74.3458
G1 Y 40.1307
G1 X-74.3204
G1 Y 40.1053
G1 X-74.2950
G1 Y 40.0799
G1 X-74.2696
G1 Y 40.0545
G1 X-74.2442
G1 Y 40.0291
G1 X-74.2188
G1 Y 40.0037
G1 X-74.1934
G1 Y 39.9783
G1 X-74.1680
G1 Y 39.9529
G1 X-74.1426
G1 Y 39.9275
G1 X-74.1172
G1 Y 39.9021
G1 X-74.0918
G1 Y 39.8767
G1 X-74.0664
G1 Y 39.8513
G1 X-74.0410
G1 Y 39.8259
G1 X-74.0156
G1 Y 39.8005
G1 X-73.9902
G1 Y 39.7751
G1 X-73.9648
G1 Y 39.7497
G1 X-73.9394
G1 Y 39.7243
G1 X-73.9140
G1 Y 39.6989
G1 X-73.8886
G1 Y 39.6735
G1 X-73.8632
G1 Y 39.6481
G1 X-73.8378
G1 Y 39.6227
G1 X-73.8124
G1 Y 39.5973
G1 X-73.7870
G1 Y 39.5719
G1 X-73.7616
G1 Y 39.5465
G1 X-73.7362
G1 Y 39.5211
G1 X-73.7108
G1 Y 39.4957
G1 X-73.6854
G1 Y 39.4703
G1 X-73.6600
G1 Y 39.4449
G1 X-73.6346
G1 Y 39.4195
G1 X-73.6092
G1 Y 39.3941
G1 X-73.5838
G1 Y 39.3687
G1 X-73.5584
G1 Y 39.3433
G1 X-73.5330
G1 Y 39.3179
G1 X-73.5076
G1 Y 39.2925
G1 X-73.4822
G1 Y 39.2671
G1 X-73.4568
G1 Y 39.2417
G1 X-73.4314
G1 Y 39.2163
G1 X-73.4060
G1 Y 39.1909
G1 X-73.3806
G1 Y 39.1655
G1 X-73.3552
G1 Y 39.1401
G1 X-73.3298
G1 Y 39.1147
G1 X-73.3044
G1 Y 39.0893
G1 X-73.2536
G1 Y 39.0639
G1 X-73.2028
G1 Y 39.0385
G1 X-67.5386
G1 Y 32.0027
G1 X-67.5132
G1 Y 31.9265
G1 X-67.4878
G1 Y 31.9011
G1 X-67.4624
G1 Y 31.8503
G1 X-67.4370
G1 Y 31.8249
G1 X-67.4116
G1 Y 31.7995
G1 X-67.3862
G1 Y 31.7741
G1 X-67.3608
G1 Y 31.7487
G1 X-67.3354
G1 Y 31.7233
G1 X-67.3100
G1 Y 31.6979
G1 X-67.2846
G1 Y 31.6725
G1 X-67.2592
G1 Y 31.6471
G1 X-67.2338
G1 Y 31.6217
G1 X-67.2084
G1 Y 31.5963
G1 X-67.1830
G1 Y 31.5709
G1 X-67.1576
G1 Y 31.5455
G1 X-67.1322
G1 Y 31.5201
G1 X-67.1068
G1 Y 31.4947
G1 X-67.0814
G1 Y 31.4693
G1 X-67.0560
G1 Y 31.4439
G1 X-67.0306
G1 Y 31.4185
G1 X-67.0052
G1 Y 31.3931
G1 X-66.9798
G1 Y 31.3677
G1 X-66.9544
G1 Y 31.3423
G1 X-66.9290
G1 Y 31.3169
G1 X-66.9036
G1 Y 31.2915
G1 X-66.8782
G1 Y 31.2661
G1 X-66.8528
G1 Y 31.2407
G1 X-66.8274
G1 Y 31.2153
G1 X-66.8020
G1 Y 31.1899
G1 X-66.7766
G1 Y 31.1645
G1 X-66.7512
G1 Y 31.1391
G1 X-66.7258
G1 Y 31.1137
G1 X-66.7004
G1 Y 31.0883
G1 X-66.6496
G1 Y 31.0629
G1 X-66.5988
G1 Y 31.0375
G1 X-62.1538
G1 Y 31.0629
G1 X-62.1030
G1 Y 31.0883
G1 X-62.0522
G1 Y 31.1137
G1 X-62.0268
G1 Y 31.1391
G1 X-62.0014
G1 Y 31.1645
G1 X-61.9760
G1 Y 31.1899
G1 X-61.9506
G1 Y 31.2153
G1 X-61.9252
G1 Y 31.2407
G1 X-61.8998
G1 Y 31.2661
G1 X-61.8744
G1 Y 31.2915
G1 X-61.8490
G1 Y 31.3169
G1 X-61.8236
G1 Y 31.3423
G1 X-61.7982
G1 Y 31.3677
G1 X-61.7728
G1 Y 31.3931
G1 X-61.7474
G1 Y 31.4185
G1 X-61.7220
G1 Y 31.4439
G1 X-61.6966
G1 Y 31.4693
G1 X-61.6712
G1 Y 31.4947
G1 X-61.6458
G1 Y 31.5201
G1 X-61.6204
G1 Y 31.5455
G1 X-61.5950
G1 Y 31.5709
G1 X-61.5696
G1 Y 31.5963
G1 X-61.5442
G1 Y 31.6217
G1 X-61.5188
G1 Y 31.6471
G1 X-61.4934
G1 Y 31.6725
G1 X-61.4680
G1 Y 31.6979
G1 X-61.4426
G1 Y 31.7233
G1 X-61.4172
G1 Y 31.7487
G1 X-61.3918
G1 Y 31.7741
G1 X-61.3664
G1 Y 31.7995
G1 X-61.3410
G1 Y 31.8249
G1 X-61.3156
G1 Y 31.8503
G1 X-61.2902
G1 Y 31.8757
G1 X-61.2648
G1 Y 31.9011
G1 X-61.2394
G1 Y 31.9265
G1 X-61.2140
G1 Y 31.9519
G1 X-61.1886
G1 Y 31.9773
G1 X-61.1632
G1 Y 32.0027
G1 X-61.1378
G1 Y 32.0281
G1 X-61.1124
G1 Y 32.0535
G1 X-61.0870
G1 Y 32.0789
G1 X-61.0616
G1 Y 32.1043
G1 X-61.0362
G1 Y 32.1297
G1 X-61.0108
G1 Y 32.1551
G1 X-60.9854
G1 Y 32.1805
G1 X-60.9600
G1 Y 32.2059
G1 X-60.9346
G1 Y 32.2313
G1 X-60.9092
G1 Y 32.2567
G1 X-60.8838
G1 Y 32.2821
G1 X-60.8584
G1 Y 32.3075
G1 X-60.8330
G1 Y 32.3329
G1 X-60.8076
G1 Y 32.3583
G1 X-60.7822
G1 Y 32.3837
G1 X-60.7568
G1 Y 32.4091
G1 X-60.7314
G1 Y 32.4345
G1 X-60.7060
G1 Y 32.4599
G1 X-60.6806
G1 Y 32.4853
G1 X-60.6552
G1 Y 32.5361
G1 X-60.6298
G1 Y 32.5615
G1 X-60.6044
G1 Y 32.6377
G1 X-60.5790
G1 Y 34.3649
G1 X-60.5536
G1 Y 34.3903
G1 X-60.5282
G1 Y 34.4157
G1 X-60.5028
G1 Y 34.4411
G1 X-60.4774
G1 Y 34.4665
G1 X-60.4520
G1 Y 34.4919
G1 X-60.4266
G1 Y 34.5173
G1 X-60.4012
G1 Y 34.5427
G1 X-60.3758
G1 Y 34.5681
G1 X-60.3504
G1 Y 34.5935
G1 X-60.3250
G1 Y 34.6189
G1 X-60.2996
G1 Y 34.6443
G1 X-60.2742
G1 Y 34.6697
G1 X-60.2488
G1 Y 34.6951
G1 X-60.2234
G1 Y 34.7205
G1 X-60.1980
G1 Y 34.7459
G1 X-60.1726
G1 Y 34.7713
G1 X-60.1472
G1 Y 34.7967
G1 X-60.1218
G1 Y 34.8221
G1 X-60.0964
G1 Y 34.8475
G1 X-60.0710
G1 Y 34.8729
G1 X-60.0456
G1 Y 34.8983
G1 X-60.0202
G1 Y 34.9237
G1 X-59.9948
G1 Y 34.9491
G1 X-59.9694
G1 Y 34.9745
G1 X-59.9440
G1 Y 34.9999
G1 X-59.9186
G1 Y 35.0253
G1 X-59.8932
G1 Y 35.0507
G1 X-59.8678
G1 Y 35.0761
G1 X-59.8424
G1 Y 35.1015
G1 X-59.8170
G1 Y 35.1269
G1 X-59.7916
G1 Y 35.1523
G1 X-59.7662
G1 Y 35.1777
G1 X-59.7408
G1 Y 35.2031
G1 X-59.7154
G1 Y 35.2285
G1 X-56.8198
G1 Y 35.2031
G1 X-56.7944
G1 Y 35.1777
G1 X-56.7690
G1 Y 35.1523
G1 X-56.7436
G1 Y 35.1269
G1 X-56.7182
G1 Y 35.1015
G1 X-56.6928
G1 Y 35.0761
G1 X-56.6674
G1 Y 35.0507
G1 X-56.6420
G1 Y 35.0253
G1 X-56.6166
G1 Y 34.9999
G1 X-56.5912
G1 Y 34.9745
G1 X-56.5658
G1 Y 34.9491
G1 X-56.5404
G1 Y 34.9237
G1 X-56.5150
G1 Y 34.8983
G1 X-56.4896
G1 Y 34.8729
G1 X-56.4642
G1 Y 34.8475
G1 X-56.4388
G1 Y 34.8221
G1 X-56.4134
G1 Y 34.7967
G1 X-56.3880
G1 Y 34.7713
G1 X-56.3626
G1 Y 34.7459
G1 X-56.3372
G1 Y 34.7205
G1 X-56.3118
G1 Y 34.6951
G1 X-56.2864
G1 Y 34.6697
G1 X-56.2610
G1 Y 34.6189
G1 X-56.2356
G1 Y 32.6885
G1 X-56.2610
G1 Y 32.6631
G1 X-56.2864
G1 Y 32.6377
G1 X-56.3372
G1 Y 32.6123
G1 X-56.3880
G1 Y 32.5869
G1 X-56.4388
G1 Y 32.5615
G1 X-56.4642
G1 Y 32.5361
G1 X-56.4896
G1 Y 32.5107
G1 X-56.5150
G1 Y 32.4599
G1 X-56.5404
G1 Y 32.4345
G1 X-56.5658
G1 Y 32.3837
G1 X-56.5912
G1 Y 32.3583
G1 X-56.6166
G1 Y 32.2821
G1 X-56.6420
G1 Y 32.1551
G1 X-56.6674
G1 Y 31.4185
G1 X-56.6420
G1 Y 31.2915
G1 X-56.6166
G1 Y 31.2153
G1 X-56.5912
G1 Y 31.1899
G1 X-56.5658
G1 Y 31.1391
G1 X-56.5404
G1 Y 31.1137
G1 X-56.5150
G1 Y 31.0629
G1 X-56.4896
G1 Y 31.0375
G1 X-56.4642
G1 Y 31.0121
G1 X-56.4388
G1 Y 30.9867
G1 X-56.3880
G1 Y 30.9613
G1 X-56.3372
G1 Y 30.9359
G1 X-56.2864
G1 Y 30.9105
G1 X-56.2610
G1 Y 30.8851
G1 X-56.1340
G1 Y 30.8597
G1 X-55.3466
G1 Y 30.8851
G1 X-55.2196
G1 Y 30.9105
G1 X-55.1942
G1 Y 30.9359
G1 X-55.1434
G1 Y 30.9613
G1 X-55.0926
G1 Y 30.9867
G1 X-55.0418
G1 Y 31.0121
G1 X-55.0164
G1 Y 31.0375
G1 X-54.9910
G1 Y 31.0629
G1 X-54.9656
G1 Y 31.1137
G1 X-54.9402
G1 Y 31.1391
G1 X-54.9148
G1 Y 31.1899
G1 X-54.8894
G1 Y 31.2153
G1 X-54.8640
G1 Y 31.2661
G1 X-54.8386
G1 Y 31.2915
G1 X-51.8160
G1 Y 31.3169
G1 X-51.7652
G1 Y 31.3423
G1 X-51.7144
G1 Y 31.3677
G1 X-51.6890
G1 Y 31.3931
G1 X-51.6636
G1 Y 31.4185
G1 X-51.6382
G1 Y 31.4439
G1 X-51.6128
G1 Y 31.4693
G1 X-51.5874
G1 Y 31.4947
G1 X-51.5620
G1 Y 31.5201
G1 X-51.5366
G1 Y 31.5455
G1 X-51.5112
G1 Y 31.5709
G1 X-51.4858
G1 Y 31.5963
G1 X-51.4604
G1 Y 31.6217
G1 X-51.4350
G1 Y 31.6471
G1 X-51.4096
G1 Y 31.6725
G1 X-51.3842
G1 Y 31.6979
G1 X-51.3588
G1 Y 31.7233
G1 X-51.3334
G1 Y 31.7487
G1 X-51.3080
G1 Y 31.7741
G1 X-51.2826
G1 Y 31.7995
G1 X-51.2572
G1 Y 31.8249
G1 X-51.2318
G1 Y 31.8503
G1 X-51.2064
G1 Y 31.8757
G1 X-51.1810
G1 Y 31.9011
G1 X-51.1556
G1 Y 31.9265
G1 X-51.1302
G1 Y 31.9519
G1 X-51.1048
G1 Y 31.9773
G1 X-51.0794
G1 Y 32.0027
G1 X-51.0540
G1 Y 32.0281
G1 X-51.0286
G1 Y 32.0535
G1 X-51.0032
G1 Y 32.0789
G1 X-50.9778
G1 Y 32.1043
G1 X-50.9524
G1 Y 32.1297
G1 X-50.9270
G1 Y 32.1551
G1 X-50.9016
G1 Y 32.1805
G1 X-50.8762
G1 Y 32.2059
G1 X-50.8508
G1 Y 32.2313
G1 X-50.8254
G1 Y 32.2567
G1 X-50.8000
G1 Y 32.2821
G1 X-50.7746
G1 Y 32.3075
G1 X-50.7492
G1 Y 32.3329
G1 X-50.7238
G1 Y 32.3583
G1 X-50.6984
G1 Y 32.3837
G1 X-50.6730
G1 Y 32.4091
G1 X-50.6476
G1 Y 32.4345
G1 X-50.6222
G1 Y 32.4599
G1 X-50.5968
G1 Y 32.4853
G1 X-50.5714
G1 Y 32.5107
G1 X-50.5460
G1 Y 32.5361
G1 X-50.5206
G1 Y 32.5615
G1 X-50.4952
G1 Y 32.5869
G1 X-50.4698
G1 Y 32.6123
G1 X-50.4444
G1 Y 32.6377
G1 X-50.4190
G1 Y 32.6631
G1 X-50.3936
G1 Y 32.6885
G1 X-50.3682
G1 Y 32.7139
G1 X-50.3428
G1 Y 32.7393
G1 X-50.2920
G1 Y 32.7647
G1 X-50.2666
G1 Y 32.7901
G1 X-50.2412
G1 Y 32.8155
G1 X-50.2158
G1 Y 32.8409
G1 X-50.1904
G1 Y 32.8663
G1 X-50.1650
G1 Y 32.8917
G1 X-50.1396
G1 Y 32.9171
G1 X-50.1142
G1 Y 32.9425
G1 X-50.0888
G1 Y 32.9933
G1 X-50.0634
G1 Y 33.0187
G1 X-50.0380
G1 Y 33.0949
G1 X-50.0126
G1 Y 63.8543
G1 X-50.0380
G1 Y 63.9305
G1 X-50.0634
G1 Y 63.9559
G1 X-50.0888
G1 Y 64.0067
G1 X-50.1142
G1 Y 64.0321
G1 X-50.1396
G1 Y 64.0575
G1 X-50.1650
G1 Y 64.0829
G1 X-50.1904
G1 Y 64.1083
G1 X-50.2158
G1 Y 64.1337
G1 X-50.2412
G1 Y 64.1591
G1 X-50.2920
G1 Y 64.1845
G1 X-50.3174
G1 Y 64.2099
G1 X-50.3428
G1 Y 64.2353
G1 X-50.3174
G1 Y 64.3877
G1 X-50.2920
G1 Y 65.2259
G1 X-50.3174
G1 Y 65.3783
G1 X-50.3428
G1 Y 65.4799
G1 X-50.3682
G1 Y 65.5561
G1 X-50.3936
G1 Y 65.6069
G1 X-50.4190
G1 Y 65.6577
G1 X-50.4444
G1 Y 65.7085
G1 X-50.4698
G1 Y 65.7593
G1 X-50.4952
G1 Y 65.7847
G1 X-50.5206
G1 Y 65.8355
G1 X-50.5460
G1 Y 65.8609
G1 X-50.5714
G1 Y 65.8863
G1 X-50.5968
G1 Y 65.9117
G1 X-50.6222
G1 Y 65.9371
G1 X-50.6476
G1 Y 65.9625
G1 X-50.6730
G1 Y 65.9879
G1 X-50.6984
G1 Y 66.0133
G1 X-50.7238
G1 Y 66.0387
G1 X-50.7746
G1 Y 66.0641
G1 X-50.8000
G1 Y 66.0895
G1 X-50.8508
G1 Y 66.1149
G1 X-50.8762
G1 Y 66.1403
G1 X-50.9270
G1 Y 66.1657
G1 X-50.9778
G1 Y 66.1911
G1 X-51.0540
G1 Y 66.2165
G1 X-51.1048
G1 Y 66.2419
G1 X-51.2064
G1 Y 66.2673
G1 Y 66.2927
G1 X-51.1810
G1 Y 66.3181
G1 X-51.1556
G1 Y 66.3435
G1 X-51.1302
G1 Y 66.3689
G1 X-51.1048
G1 Y 66.3943
G1 X-51.0794
G1 Y 66.4197
G1 X-51.0540
G1 Y 66.4451
G1 X-51.0286
G1 Y 66.4705
G1 X-51.0032
G1 Y 66.4959
G1 X-50.9778
G1 Y 66.5213
G1 X-50.9524
G1 Y 66.5467
G1 X-50.9270
G1 Y 66.5721
G1 X-50.9016
G1 Y 66.5975
G1 X-50.8762
G1 Y 66.6229
G1 X-50.8508
G1 Y 66.6483
G1 X-50.8254
G1 Y 66.6737
G1 X-50.8000
G1 Y 66.6991
G1 X-50.7746
G1 Y 66.7245
G1 X-50.7492
G1 Y 66.7499
G1 X-50.7238
G1 Y 66.7753
G1 X-50.6984
G1 Y 66.8007
G1 X-50.6730
G1 Y 66.8261
G1 X-50.6476
G1 Y 66.8515
G1 X-50.6222
G1 Y 66.8769
G1 X-50.5968
G1 Y 66.9023
G1 X-50.5714
G1 Y 66.9277
G1 X-50.5460
G1 Y 66.9531
G1 X-50.5206
G1 Y 66.9785
G1 X-50.4952
G1 Y 67.0039
G1 X-50.4698
G1 Y 67.0293
G1 X-50.4444
G1 Y 67.0547
G1 X-50.4190
G1 Y 67.0801
G1 X-50.3936
G1 Y 67.1055
G1 X-50.3682
G1 Y 67.1309
G1 X-50.3428
G1 Y 67.1563
G1 X-50.3174
G1 Y 67.1817
G1 X-50.2920
G1 Y 67.2071
G1 X-50.2666
G1 Y 67.2325
G1 X-50.2412
G1 Y 67.2579
G1 X-50.2158
G1 Y 67.2833
G1 X-50.1904
G1 Y 67.3087
G1 X-50.1650
G1 Y 67.3341
G1 X-50.1396
G1 Y 67.3595
G1 X-50.1142
G1 Y 67.3849
G1 X-50.0888
G1 Y 67.4103
G1 X-50.0634
G1 Y 67.4357
G1 X-50.0380
G1 Y 67.4611
G1 X-50.0126
G1 Y 67.4865
G1 X-49.9872
G1 Y 67.5119
G1 X-49.9618
G1 Y 67.5373
G1 X-49.9364
G1 Y 67.5627
G1 X-49.9110
G1 Y 67.5881
G1 X-49.8856
G1 Y 67.6135
G1 X-49.8602
G1 Y 67.6389
G1 X-49.8348
G1 Y 67.6643
G1 X-49.8094
G1 Y 67.6897
G1 X-49.7840
G1 Y 67.7151
G1 X-49.7586
G1 Y 67.7405
G1 X-49.7332
G1 Y 67.7659
G1 X-49.7078
G1 Y 67.7913
G1 X-49.6824
G1 Y 67.8167
G1 X-49.6570
G1 Y 67.8421
G1 X-49.6316
G1 Y 67.8675
G1 X-49.6062
G1 Y 67.8929
G1 X-49.5808
G1 Y 67.9183
G1 X-49.5554
G1 Y 67.9437
G1 X-49.5300
G1 Y 67.9691
G1 X-49.5046
G1 Y 67.9945
G1 X-49.4792
G1 Y 68.0199
G1 X-49.4538
G1 Y 68.0453
G1 X-49.4284
G1 Y 68.0707
G1 X-49.4030
G1 Y 68.0961
G1 X-49.3776
G1 Y 68.1215
G1 X-49.3522
G1 Y 68.1469
G1 X-49.3268
G1 Y 68.1723
G1 X-49.3014
G1 Y 68.1977
G1 X-49.2760
G1 Y 68.2231
G1 X-49.2506
G1 Y 68.2485
G1 X-49.2252
G1 Y 68.2739
G1 X-49.1998
G1 Y 68.2993
G1 X-49.1744
G1 Y 68.3247
G1 X-49.1490
G1 Y 68.3501
G1 X-49.1236
G1 Y 68.3755
G1 X-49.0982
G1 Y 68.4009
G1 X-49.0728
G1 Y 68.4263
G1 X-49.0474
G1 Y 68.4517
G1 X-49.0220
G1 Y 68.4771
G1 X-48.9966
G1 Y 68.5025
G1 X-48.9712
G1 Y 68.5279
G1 X-48.9458
G1 Y 68.5533
G1 X-48.9204
G1 Y 68.5787
G1 X-48.8950
G1 Y 68.6041
G1 X-48.8696
G1 Y 68.6295
G1 X-48.8442
G1 Y 68.6549
G1 X-48.8188
G1 Y 68.6803
G1 X-48.7934
G1 Y 68.7057
G1 X-48.7680
G1 Y 68.7311
G1 X-48.7426
G1 Y 68.7565
G1 X-5.8420
G1 Y 68.7311
G1 X-5.8166
G1 Y 68.7057
G1 X-5.7912
G1 Y 68.6803
G1 X-5.7658
G1 Y 68.6549
G1 X-5.7404
G1 Y 68.6295
G1 X-5.7150
G1 Y 68.6041
G1 X-5.6896
G1 Y 68.5787
G1 X-5.6642
G1 Y 68.5533
G1 X-5.6388
G1 Y 68.5279
G1 X-5.6134
G1 Y 68.5025
G1 X-5.5880
G1 Y 68.4771
G1 X-5.5626
G1 Y 68.4517
G1 X-5.5372
G1 Y 68.4263
G1 X-5.5118
G1 Y 68.4009
G1 X-5.4864
G1 Y 68.3755
G1 X-5.4610
G1 Y 68.3501
G1 X-5.4356
G1 Y 68.3247
G1 X-5.4102
G1 Y 68.2993
G1 X-5.3848
G1 Y 68.2739
G1 X-5.3594
G1 Y 68.2485
G1 X-5.3340
G1 Y 68.2231
G1 X-5.3086
G1 Y 68.1977
G1 X-5.2832
G1 Y 68.1723
G1 X-5.2578
G1 Y 68.1469
G1 X-5.2324
G1 Y 68.1215
G1 X-5.1562
G1 Y 68.0961
G1 X-5.0800
G1 Y 68.0707
G1 X-5.0546
G1 Y 68.0453
G1 X-5.0292
G1 Y 68.0199
G1 X-4.9784
G1 Y 67.9945
G1 X-4.9530
G1 Y 67.9691
G1 X-4.9276
G1 Y 67.9437
G1 X-4.9022
G1 Y 67.9183
G1 X-4.8768
G1 Y 67.8929
G1 X-4.8514
G1 Y 67.8675
G1 X-4.8260
G1 Y 67.8421
G1 X-4.8006
G1 Y 67.8167
G1 X-4.7752
G1 Y 67.7913
G1 X-4.7498
G1 Y 67.7659
G1 X-4.7244
G1 Y 67.7405
G1 X-4.6990
G1 Y 67.7151
G1 X-4.6736
G1 Y 67.6897
G1 X-4.6482
G1 Y 67.6643
G1 X-4.6228
G1 Y 67.6389
G1 X-4.5974
G1 Y 67.6135
G1 X-4.5720
G1 Y 67.5881
G1 X-4.5466
G1 Y 67.5627
G1 X-4.5212
G1 Y 67.5373
G1 X-4.4958
G1 Y 67.5119
G1 X-4.4704
G1 Y 67.4865
G1 X-4.4450
G1 Y 67.4611
G1 X-4.4196
G1 Y 67.4357
G1 X-4.3942
G1 Y 67.4103
G1 X-4.3688
G1 Y 67.3849
G1 X-4.3180
G1 Y 67.3595
G1 X-4.2672
G1 Y 67.3341
G1 X-4.1656
G1 Y 67.3087
G1 X-3.0988
G1 Y 67.2833
G1 X-3.0226
G1 Y 67.2579
G1 X-2.9464
G1 Y 67.2325
G1 X-2.9210
G1 Y 67.2071
G1 X-2.8702
G1 Y 67.1817
G1 X-2.8194
G1 Y 67.1563
G1 X-2.7940
G1 Y 67.1309
G1 X-2.7686
G1 Y 67.1055
G1 X-2.7432
G1 Y 67.0801
G1 X-2.7178
G1 Y 67.0547
G1 X-2.6924
G1 Y 67.0293
G1 X-2.6670
G1 Y 67.0039
G1 X-2.6416
G1 Y 66.9785
G1 X-2.6162
G1 Y 66.9531
G1 X-2.5908
G1 Y 66.9277
G1 X-2.5654
G1 Y 66.9023
G1 X-2.5400
G1 Y 66.8769
G1 X-2.5146
G1 Y 66.8515
G1 X-2.4892
G1 Y 66.8261
G1 X-2.4638
G1 Y 66.8007
G1 X-2.4384
G1 Y 66.7753
G1 X-2.4130
G1 Y 66.7499
G1 X-2.3876
G1 Y 66.7245
G1 X-2.3622
G1 Y 66.6991
G1 X-2.3368
G1 Y 66.6737
G1 X-2.3114
G1 Y 66.6483
G1 X-2.2860
G1 Y 66.6229
G1 X-2.2606
G1 Y 66.5975
G1 X-2.2352
G1 Y 66.5721
G1 X-2.2098
G1 Y 66.5467
G1 X-2.1844
G1 Y 66.5213
G1 X-2.1590
G1 Y 66.4959
G1 X-2.1336
G1 Y 66.4705
G1 X-2.1082
G1 Y 66.4451
G1 X-2.0828
G1 Y 66.4197
G1 X-2.0574
G1 Y 66.3943
G1 X-2.0320
G1 Y 66.3689
G1 X-2.0066
G1 Y 66.3435
G1 X-1.9812
G1 Y 66.3181
G1 X-1.9558
G1 Y 66.2927
G1 X-1.9304
G1 Y 66.2673
G1 X-1.9050
G1 Y 66.2419
G1 X-1.8796
G1 Y 66.2165
G1 X-1.8542
G1 Y 66.1911
G1 X-1.8288
G1 Y 66.1657
G1 X-1.8034
G1 Y 66.1403
G1 X-1.7780
G1 Y 66.0895
G1 X-1.7526
G1 Y 66.0641
G1 X-1.7272
G1 Y 66.0133
G1 X-1.7018
G1 Y 65.9879
G1 X-1.6764
G1 Y 65.9117
G1 X-1.6510
G1 Y 65.8355
G1 X-1.6256
G1 Y 63.7781
G1 X-1.6510
G1 Y 63.7019
G1 X-1.6764
G1 Y 63.6257
G1 X-1.7018
G1 Y 63.6003
G1 X-1.7272
G1 Y 63.5495
G1 X-1.7526
G1 Y 63.5241
G1 X-1.7780
G1 Y 63.4733
G1 X-1.8034
G1 Y 63.4479
G1 X-1.8288
G1 Y 63.4225
G1 X-1.8542
G1 Y 63.3971
G1 X-1.8796
G1 Y 63.3717
G1 X-1.9050
G1 Y 63.3463
G1 X-1.9304
G1 Y 63.3209
G1 X-1.9558
G1 Y 63.2955
G1 X-1.9812
G1 Y 63.2701
G1 X-2.0066
G1 Y 63.2447
G1 X-2.0320
G1 Y 63.1939
G1 X-2.0574
G1 Y 63.1431
G1 X-2.0828
G1 Y 63.0669
G1 X-2.1082
G1 Y 57.6821
G1 X-2.1336
G1 Y 57.6567
G1 X-2.1590
G1 Y 57.6313
G1 X-2.1844
G1 Y 57.6059
G1 X-2.2098
G1 Y 57.5805
G1 X-2.2352
G1 Y 57.5551
G1 X-2.2606
G1 Y 57.5297
G1 X-2.2860
G1 Y 57.5043
G1 X-2.3114
G1 Y 57.4789
G1 X-2.3368
G1 Y 57.4535
G1 X-2.3622
G1 Y 57.4281
G1 X-2.3876
G1 Y 57.4027
G1 X-2.4130
G1 Y 57.3773
G1 X-2.4384
G1 Y 57.3519
G1 X-2.4638
G1 Y 57.3265
G1 X-2.4892
G1 Y 57.3011
G1 X-2.5146
G1 Y 57.2757
G1 X-2.5400
G1 Y 57.2503
G1 X-2.5654
G1 Y 57.2249
G1 X-2.5908
G1 Y 57.1995
G1 X-2.6162
G1 Y 57.1741
G1 X-2.6416
G1 Y 57.1487
G1 X-2.6670
G1 Y 57.1233
G1 X-2.6924
G1 Y 57.0979
G1 X-2.7178
G1 Y 57.0725
G1 X-2.7432
G1 Y 57.0471
G1 X-2.7686
G1 Y 57.0217
G1 X-2.7940
G1 Y 56.9963
G1 X-2.8194
G1 Y 56.9709
G1 X-2.8448
G1 Y 56.9455
G1 X-2.8702
G1 Y 56.9201
G1 X-2.8956
G1 Y 56.8947
G1 X-2.9210
G1 Y 56.8693
G1 X-2.9464
G1 Y 56.8439
G1 X-2.9718
G1 Y 56.8185
G1 X-2.9972
G1 Y 56.7931
G1 X-3.0226
G1 Y 56.7677
G1 X-3.0480
G1 Y 56.7423
G1 X-3.0734
G1 Y 56.7169
G1 X-3.0988
G1 Y 56.6915
G1 X-3.1242
G1 Y 56.6661
G1 X-3.1496
G1 Y 56.6407
G1 X-3.1750
G1 Y 56.6153
G1 X-3.2004
G1 Y 56.5645
G1 X-3.2258
G1 Y 56.5391
G1 X-3.2512
G1 Y 56.4629
G1 X-3.2766
G1 Y 32.0535
G1 X-3.2512
G1 Y 31.9773
G1 X-3.2258
G1 Y 31.9519
G1 X-3.2004
G1 Y 31.8757
G1 X-3.1750
G1 Y 31.8503
G1 X-3.1496
G1 Y 31.7995
G1 X-3.1242
G1 Y 31.7741
G1 X-3.0988
G1 Y 31.6979
G1 X-3.0734
G1 Y 31.6217
G1 X-3.0480
G1 Y 31.5963
G1 X-3.0226
G1 Y 28.9293
G1 X-3.0480
G1 Y 28.9039
G1 X-3.0734
G1 Y 28.8785
G1 X-3.0988
G1 Y 28.8531
G1 X-3.1242
G1 Y 28.8277
G1 X-3.1496
G1 Y 28.7769
G1 X-3.1750
G1 Y 28.7515
G1 X-3.2004
G1 Y 28.7261
G1 X-3.2258
G1 Y 28.7007
G1 X-3.2512
G1 Y 28.6753
G1 X-3.2766
G1 Y 28.6499
G1 X-3.3020
G1 Y 28.6245
G1 X-3.3274
G1 Y 28.5991
G1 X-3.3528
G1 Y 28.5737
G1 X-3.3782
G1 Y 28.5483
G1 X-3.4036
G1 Y 28.5229
G1 X-3.4290
G1 Y 28.4975
G1 X-3.4544
G1 Y 28.4721
G1 X-3.4798
G1 Y 28.4467
G1 X-3.5052
G1 Y 28.4213
G1 X-3.5306
G1 Y 28.3959
G1 X-3.5560
G1 Y 28.3705
G1 X-3.5814
G1 Y 28.3451
G1 X-3.6068
G1 Y 28.3197
G1 X-3.6322
G1 Y 28.2943
G1 X-3.6576
G1 Y 28.2689
G1 X-3.6830
G1 Y 28.2435
G1 X-3.7084
G1 Y 28.2181
G1 X-3.7338
G1 Y 28.1927
G1 X-3.7592
G1 Y 28.1673
G1 X-3.7846
G1 Y 28.1419
G1 X-3.8100
G1 Y 28.1165
G1 X-3.8354
G1 Y 28.0911
G1 X-3.8608
G1 Y 28.0657
G1 X-3.8862
G1 Y 28.0403
G1 X-3.9116
G1 Y 28.0149
G1 X-3.9370
G1 Y 27.9895
G1 X-3.9624
G1 Y 27.9641
G1 X-3.9878
G1 Y 27.9387
G1 X-4.0132
G1 Y 27.9133
G1 X-4.0386
G1 Y 27.8879
G1 X-4.0640
G1 Y 27.8625
G1 X-4.0894
G1 Y 27.8371
G1 X-4.1148
G1 Y 27.8117
G1 X-4.1402
G1 Y 27.7863
G1 X-4.1656
G1 Y 27.7609
G1 X-4.1910
G1 Y 27.7355
G1 X-4.2164
G1 Y 27.7101
G1 X-4.2418
G1 Y 27.6847
G1 X-19.4310
G1 Y 27.6593
G1 X-19.5072
G1 Y 27.6339
G1 X-19.5580
G1 Y 27.6085
G1 X-19.6088
G1 Y 27.5831
G1 X-19.6342
G1 Y 27.5577
G1 X-19.6596
G1 Y 27.5323
G1 X-19.6850
G1 Y 27.5069
G1 X-19.7104
G1 Y 27.4815
G1 X-19.7358
G1 Y 27.4561
G1 X-19.7612
G1 Y 27.4307
G1 X-19.7866
G1 Y 27.4053
G1 X-19.8120
G1 Y 27.3799
G1 X-19.8374
G1 Y 27.3545
G1 X-19.8628
G1 Y 27.3291
G1 X-19.8882
G1 Y 27.3037
G1 X-19.9136
G1 Y 27.2783
G1 X-19.9390
G1 Y 27.2529
G1 X-19.9644
G1 Y 27.2275
G1 X-19.9898
G1 Y 27.2021
G1 X-20.0152
G1 Y 27.1767
G1 X-20.0406
G1 Y 27.1513
G1 X-20.0660
G1 Y 27.1259
G1 X-20.0914
G1 Y 27.1005
G1 X-20.1168
G1 Y 27.0751
G1 X-20.1422
G1 Y 27.0497
G1 X-20.1676
G1 Y 27.0243
G1 X-20.1930
G1 Y 26.9989
G1 X-20.2184
G1 Y 26.9735
G1 X-20.2438
G1 Y 26.9481
G1 X-20.2692
G1 Y 26.9227
G1 X-20.2946
G1 Y 26.8973
G1 X-20.3200
G1 Y 26.8719
G1 X-20.3454
G1 Y 26.8465
G1 X-20.3708
G1 Y 26.8211
G1 X-20.3962
G1 Y 26.7957
G1 X-20.4216
G1 Y 26.7703
G1 X-20.4470
G1 Y 26.7449
G1 X-20.4724
G1 Y 26.7195
G1 X-20.4978
G1 Y 26.6941
G1 X-20.5232
G1 Y 26.6687
G1 X-20.5486
G1 Y 26.6433
G1 X-20.5740
G1 Y 26.6179
G1 X-20.5994
G1 Y 26.5925
G1 X-20.6248
G1 Y 26.5671
G1 X-20.6502
G1 Y 26.5417
G1 X-20.6756
G1 Y 26.5163
G1 X-20.7010
G1 Y 26.4909
G1 X-20.7264
G1 Y 26.4655
G1 X-20.7518
G1 Y 26.4401
G1 X-20.7772
G1 Y 26.4147
G1 X-20.8026
G1 Y 26.3893
G1 X-20.8280
G1 Y 26.3639
G1 X-20.8534
G1 Y 26.3385
G1 X-20.8788
G1 Y 26.3131
G1 X-20.9042
G1 Y 26.2877
G1 X-20.9296
G1 Y 26.2623
G1 X-20.9550
G1 Y 26.2369
G1 X-20.9804
G1 Y 26.2115
G1 X-21.0058
G1 Y 26.1861
G1 X-21.0312
G1 Y 26.1607
G1 X-21.0566
G1 Y 26.1353
G1 X-21.0820
G1 Y 26.1099
G1 X-21.1074
G1 Y 26.0845
G1 X-21.1328
G1 Y 26.0591
G1 X-21.1582
G1 Y 26.0337
G1 X-21.1836
G1 Y 26.0083
G1 X-21.2090
G1 Y 25.9829
G1 X-21.2344
G1 Y 25.9575
G1 X-21.2598
G1 Y 25.9321
G1 X-21.2852
G1 Y 25.9067
G1 X-21.3106
G1 Y 25.8813
G1 X-21.3360
G1 Y 25.8559
G1 X-21.3614
G1 Y 25.8305
G1 X-21.3868
G1 Y 25.8051
G1 X-21.4122
G1 Y 25.7797
G1 X-21.4376
G1 Y 25.7543
G1 X-21.4630
G1 Y 25.7289
G1 X-21.4884
G1 Y 25.7035
G1 X-21.5138
G1 Y 25.6781
G1 X-21.5392
G1 Y 25.6527
G1 X-21.5646
G1 Y 25.6273
G1 X-21.5900
G1 Y 25.6019
G1 X-21.6154
G1 Y 25.5765
G1 X-21.6408
G1 Y 25.5511
G1 X-21.6662
G1 Y 25.5257
G1 X-21.6916
G1 Y 25.5003
G1 X-21.7170
G1 Y 25.4749
G1 X-21.7424
G1 Y 25.4495
G1 X-21.7678
G1 Y 25.4241
G1 X-21.7932
G1 Y 25.3987
G1 X-21.8186
G1 Y 25.3733
G1 X-21.8440
G1 Y 25.3479
G1 X-21.8694
G1 Y 25.3225
G1 X-21.8948
G1 Y 25.2971
G1 X-21.9202
G1 Y 25.2717
G1 X-21.9456
G1 Y 25.2463
G1 X-21.9710
G1 Y 25.2209
G1 X-21.9964
G1 Y 25.1955
G1 X-22.0218
G1 Y 25.1701
G1 X-22.0472
G1 Y 25.0939
G1 X-22.0726
G1 Y 25.0685
G1 X-22.0980
G1 Y 24.9923
G1 X-22.1234
G1 Y 18.3375
G1 X-22.0980
G1 Y 18.2613
G1 X-22.0726
G1 Y 18.2359
G1 X-22.0472
G1 Y 18.1851
G1 X-22.0218
G1 Y 18.1597
G1 X-21.9964
G1 Y 18.1343
G1 X-21.9710
G1 Y 18.1089
G1 X-21.9456
G1 Y 18.0835
G1 X-21.9202
G1 Y 18.0581
G1 X-21.8948
G1 Y 18.0327
G1 X-21.8694
G1 Y 17.3723
G1 X-21.8440
G1 Y 17.2707
G1 X-21.8186
G1 Y 17.2199
G1 X-21.7932
G1 Y 17.1691
G1 X-21.7678
G1 Y 17.1437
G1 X-21.7424
G1 Y 17.0929
G1 X-21.7170
G1 Y 17.0675
G1 X-21.6916
G1 Y 17.0421
G1 X-21.6662
G1 Y 16.9913
G1 X-21.6408
G1 Y 16.9659
G1 X-21.6154
G1 Y 16.9405
G1 X-21.5646
G1 Y 16.9151
G1 X-21.5392
G1 Y 16.8897
G1 X-21.4884
G1 Y 16.8643
G1 X-21.4376
G1 Y 16.8389
G1 X-21.4122
G1 Y 16.8135
G1 X-21.3614
G1 Y 16.7881
G1 X-21.2090
G1 Y 16.7627
G1 X-20.4216
G1 Y 16.7881
G1 X-20.2692
G1 Y 16.8135
G1 X-20.2184
G1 Y 16.8389
G1 X-20.1930
G1 Y 16.8643
G1 X-20.1422
G1 Y 16.8897
G1 X-20.0914
G1 Y 16.9151
G1 X-20.0660
G1 Y 16.9405
G1 X-20.0152
G1 Y 16.9659
G1 X-19.9898
G1 Y 16.9913
G1 X-19.9644
G1 Y 17.0421
G1 X-19.9390
G1 Y 17.0675
G1 X-19.9136
G1 Y 17.0929
G1 X-19.8882
G1 Y 17.1437
G1 X-19.8628
G1 Y 17.1691
G1 X-19.8374
G1 Y 17.1945
G1 X-19.8120
G1 Y 17.2707
G1 X-19.7866
G1 Y 17.3723
G1 X-19.7612
G1 Y 18.2867
G1 X-19.7866
G1 Y 18.3629
G1 X-19.8120
G1 Y 18.4391
G1 X-19.8374
G1 Y 18.4645
G1 X-19.8628
G1 Y 18.4899
G1 X-19.8882
G1 Y 18.5407
G1 X-19.9136
G1 Y 18.5661
G1 X-19.9390
G1 Y 18.5915
G1 X-19.9644
G1 Y 18.6423
G1 X-19.9898
G1 Y 18.6677
G1 X-20.0152
G1 Y 18.6931
G1 X-20.0660
G1 Y 18.7185
G1 X-20.0914
G1 Y 18.7439
G1 X-20.1422
G1 Y 18.7693
G1 X-20.1930
G1 Y 18.7947
G1 X-20.2184
G1 Y 18.8201
G1 X-20.2692
G1 Y 18.8455
G1 X-20.4216
G1 Y 18.8709
G1 X-21.0312
G1 Y 18.8963
G1 X-21.0566
G1 Y 18.9217
G1 X-21.0820
G1 Y 18.9471
G1 X-21.1074
G1 Y 18.9725
G1 X-21.1328
G1 Y 24.5097
G1 X-21.1074
G1 Y 24.5351
G1 X-21.0820
G1 Y 24.5605
G1 X-21.0566
G1 Y 24.5859
G1 X-21.0312
G1 Y 24.6113
G1 X-21.0058
G1 Y 24.6367
G1 X-20.9804
G1 Y 24.6621
G1 X-20.9550
G1 Y 24.6875
G1 X-20.9296
G1 Y 24.7129
G1 X-20.9042
G1 Y 24.7383
G1 X-20.8788
G1 Y 24.7637
G1 X-20.8534
G1 Y 24.7891
G1 X-20.8280
G1 Y 24.8145
G1 X-20.8026
G1 Y 24.8399
G1 X-20.7772
G1 Y 24.8653
G1 X-20.7518
G1 Y 24.8907
G1 X-20.7264
G1 Y 24.9161
G1 X-20.7010
G1 Y 24.9415
G1 X-20.6756
G1 Y 24.9669
G1 X-20.6502
G1 Y 24.9923
G1 X-20.6248
G1 Y 25.0177
G1 X-20.5994
G1 Y 25.0431
G1 X-20.5740
G1 Y 25.0685
G1 X-20.5486
G1 Y 25.0939
G1 X-20.5232
G1 Y 25.1193
G1 X-20.4978
G1 Y 25.1447
G1 X-20.4724
G1 Y 25.1701
G1 X-20.4470
G1 Y 25.1955
G1 X-20.4216
G1 Y 25.2209
G1 X-20.3962
G1 Y 25.2463
G1 X-20.3708
G1 Y 25.2717
G1 X-20.3454
G1 Y 25.2971
G1 X-20.3200
G1 Y 25.3225
G1 X-20.2946
G1 Y 25.3479
G1 X-20.2692
G1 Y 25.3733
G1 X-20.2438
G1 Y 25.3987
G1 X-20.2184
G1 Y 25.4241
G1 X-20.1930
G1 Y 25.4495
G1 X-20.1676
G1 Y 25.4749
G1 X-20.1422
G1 Y 25.5003
G1 X-20.1168
G1 Y 25.5257
G1 X-20.0914
G1 Y 25.5511
G1 X-20.0660
G1 Y 25.5765
G1 X-20.0406
G1 Y 25.6019
G1 X-20.0152
G1 Y 25.6273
G1 X-19.9898
G1 Y 25.6527
G1 X-19.9644
G1 Y 25.6781
G1 X-19.9390
G1 Y 25.7035
G1 X-19.9136
G1 Y 25.7289
G1 X-19.8882
G1 Y 25.7543
G1 X-19.8628
G1 Y 25.7797
G1 X-19.8374
G1 Y 25.8051
G1 X-19.8120
G1 Y 25.8305
G1 X-19.7866
G1 Y 25.8559
G1 X-19.7612
G1 Y 25.8813
G1 X-19.7358
G1 Y 25.9067
G1 X-19.7104
G1 Y 25.9321
G1 X-19.6850
G1 Y 25.9575
G1 X-19.6596
G1 Y 25.9829
G1 X-19.6342
G1 Y 26.0083
G1 X-19.6088
G1 Y 26.0337
G1 X-19.5834
G1 Y 26.0591
G1 X-19.5580
G1 Y 26.0845
G1 X-19.5326
G1 Y 26.1099
G1 X-19.5072
G1 Y 26.1353
G1 X-19.4818
G1 Y 26.1607
G1 X-19.4564
G1 Y 26.1861
G1 X-19.4310
G1 Y 26.2115
G1 X-19.4056
G1 Y 26.2369
G1 X-19.3802
G1 Y 26.2623
G1 X-19.3548
G1 Y 26.2877
G1 X-19.3294
G1 Y 26.3131
G1 X-19.3040
G1 Y 26.3385
G1 X-19.2786
G1 Y 26.3639
G1 X-19.2532
G1 Y 26.3893
G1 X-19.2278
G1 Y 26.4147
G1 X-19.2024
G1 Y 26.4401
G1 X-19.1770
G1 Y 26.4655
G1 X-19.1516
G1 Y 26.4909
G1 X-19.1262
G1 Y 26.5163
G1 X-19.1008
G1 Y 26.5417
G1 X-19.0754
G1 Y 26.5671
G1 X-19.0500
G1 Y 26.5925
G1 X-19.0246
G1 Y 26.6179
G1 X-18.9992
G1 Y 26.6433
G1 X-18.9738
G1 Y 26.6687
G1 X-18.9484
G1 Y 26.6941
G1 X-3.5814
G1 Y 26.7195
G1 X-3.5306
G1 Y 26.7449
G1 X-3.4798
G1 Y 26.7703
G1 X-3.4544
G1 Y 26.7957
G1 X-3.4290
G1 Y 26.8211
G1 X-3.4036
G1 Y 26.8465
G1 X-3.3782
G1 Y 26.8719
G1 X-3.3528
G1 Y 26.8973
G1 X-3.3274
G1 Y 26.9227
G1 X-3.3020
G1 Y 26.9481
G1 X-3.2766
G1 Y 26.9989
G1 X-3.2512
G1 Y 27.0243
G1 X-3.2258
G1 Y 27.0497
G1 X-3.2004
G1 Y 27.0751
G1 X-3.1750
G1 Y 27.1005
G1 X-3.1496
G1 Y 27.1259
G1 X-3.1242
G1 Y 27.1513
G1 X-3.0988
G1 Y 27.1767
G1 X-3.0734
G1 Y 27.2021
G1 X-3.0480
G1 Y 27.2275
G1 X-3.0226
G1 Y 27.2529
G1 X-2.9972
G1 Y 27.2783
G1 X-2.9718
G1 Y 27.3037
G1 X-2.9464
G1 Y 27.3291
G1 X-2.9210
G1 Y 27.3545
G1 X-2.8956
G1 Y 27.3799
G1 X-2.8702
G1 Y 27.4053
G1 X-2.8448
G1 Y 27.4307
G1 X-2.8194
G1 Y 27.4561
G1 X-2.7940
G1 Y 27.4815
G1 X-2.7686
G1 Y 27.5069
G1 X-2.7432
G1 Y 27.5323
G1 X-2.7178
G1 Y 27.5577
G1 X-2.6924
G1 Y 27.5831
G1 X-2.6670
G1 Y 27.6085
G1 X-2.6416
G1 Y 27.6339
G1 X-2.6162
G1 Y 27.6593
G1 X-2.5908
G1 Y 27.6847
G1 X-2.5654
G1 Y 27.7101
G1 X-2.5400
G1 Y 27.7355
G1 X-2.5146
G1 Y 27.7609
G1 X-2.4892
G1 Y 27.7863
G1 X-2.4638
G1 Y 27.8117
G1 X-2.4384
G1 Y 27.8371
G1 X-2.4130
G1 Y 27.8625
G1 X-2.3876
G1 Y 27.8879
G1 X-2.3622
G1 Y 27.9133
G1 X-2.3368
G1 Y 27.9387
G1 X-2.3114
G1 Y 27.9641
G1 X-2.2860
G1 Y 27.9895
G1 X-2.2606
G1 Y 28.0149
G1 X-2.2352
G1 Y 28.0403
G1 X-2.2098
G1 Y 28.0657
G1 X-2.1844
G1 Y 28.0911
G1 X-2.1590
G1 Y 28.1165
G1 X-2.1336
G1 Y 28.1419
G1 X-2.1082
G1 Y 28.1927
G1 X-2.0828
G1 Y 28.2181
G1 X-2.0574
G1 Y 28.2943
G1 X-2.0320
G1 Y 32.2313
G1 X-2.0574
G1 Y 32.3075
G1 X-2.0828
G1 Y 32.3329
G1 X-2.1082
G1 Y 32.3837
G1 X-2.1336
G1 Y 32.4091
G1 X-2.1590
G1 Y 32.4345
G1 X-2.1844
G1 Y 32.4599
G1 X-2.2098
G1 Y 32.4853
G1 X-2.2352
G1 Y 32.5107
G1 X-2.2606
G1 Y 32.5361
G1 X-2.2860
G1 Y 47.8523
G1 X-2.2606
G1 Y 47.8777
G1 X-2.2352
G1 Y 47.9031
G1 X-1.6510
G1 Y 47.9285
G1 X-1.4986
G1 Y 47.9539
G1 X-1.4732
G1 Y 47.9793
G1 X-1.4224
G1 Y 48.0047
G1 X-1.3716
G1 Y 48.0301
G1 X-1.3462
G1 Y 48.0555
G1 X-1.2954
G1 Y 48.0809
G1 X-1.2446
G1 Y 48.1317
G1 X-1.2192
G1 Y 48.1571
G1 X-1.1938
G1 Y 48.1825
G1 X-1.1684
G1 Y 48.2333
G1 X-1.1430
G1 Y 48.2587
G1 X-1.1176
G1 Y 48.2841
G1 X-1.0922
G1 Y 48.3349
G1 X-1.0668
G1 Y 48.3857
G1 X-1.0414
G1 Y 48.4873
G1 X-1.0160
G1 Y 49.3763
G1 X-1.0414
G1 Y 49.4779
G1 X-1.0668
G1 Y 49.5287
G1 X-1.0922
G1 Y 49.5795
G1 X-1.1176
G1 Y 49.6049
G1 X-1.1430
G1 Y 49.6303
G1 X-1.1684
G1 Y 49.6811
G1 X-1.1938
G1 Y 49.7065
G1 X-1.2192
G1 Y 49.7319
G1 X-1.2446
G1 Y 49.7827
G1 X-1.2954
G1 Y 49.8081
G1 X-1.3462
G1 Y 49.8335
G1 X-1.3716
G1 Y 49.8589
G1 X-1.4224
G1 Y 49.8843
G1 X-1.4732
G1 Y 49.9097
G1 X-1.4986
G1 Y 49.9351
G1 X-1.6510
G1 Y 49.9605
G1 X-2.2860
G1 Y 55.8279
G1 X-2.2606
G1 Y 55.8533
G1 X-2.2352
G1 Y 55.8787
G1 X-2.2098
G1 Y 55.9041
G1 X-2.1844
G1 Y 55.9295
G1 X-2.1590
G1 Y 55.9549
G1 X-2.1336
G1 Y 55.9803
G1 X-2.1082
G1 Y 56.0057
G1 X-2.0828
G1 Y 56.0311
G1 X-2.0574
G1 Y 56.0565
G1 X-2.0320
G1 Y 56.0819
G1 X-2.0066
G1 Y 56.1073
G1 X-1.9812
G1 Y 56.1327
G1 X-1.9558
G1 Y 56.1581
G1 X-1.9304
G1 Y 56.1835
G1 X-1.9050
G1 Y 56.2089
G1 X-1.8796
G1 Y 56.2343
G1 X-1.8542
G1 Y 56.2597
G1 X-1.8288
G1 Y 56.2851
G1 X-1.8034
G1 Y 56.3105
G1 X-1.7780
G1 Y 56.3359
G1 X-1.7526
G1 Y 56.3613
G1 X-1.7272
G1 Y 56.3867
G1 X-1.7018
G1 Y 56.4121
G1 X-1.6764
G1 Y 56.4375
G1 X-1.6510
G1 Y 56.4629
G1 X-1.6256
G1 Y 56.4883
G1 X-1.6002
G1 Y 56.5137
G1 X-1.5748
G1 Y 56.5391
G1 X-1.5494
G1 Y 56.5645
G1 X-1.5240
G1 Y 56.5899
G1 X-1.4986
G1 Y 56.6153
G1 X-1.4732
G1 Y 56.6407
G1 X-1.4478
G1 Y 56.6661
G1 X-1.4224
G1 Y 56.6915
G1 X-1.3970
G1 Y 56.7169
G1 X-1.3716
G1 Y 56.7423
G1 X-1.3462
G1 Y 56.7677
G1 X-1.3208
G1 Y 56.7931
G1 X-1.2954
G1 Y 56.8185
G1 X-1.2700
G1 Y 56.8439
G1 X-1.2446
G1 Y 56.8693
G1 X-1.2192
G1 Y 56.8947
G1 X-1.1938
G1 Y 56.9455
G1 X-1.1684
G1 Y 56.9709
G1 X-1.1430
G1 Y 57.0471
G1 X-1.1176
G1 Y 62.6097
G1 X-1.0922
G1 Y 62.6351
G1 X-1.0668
G1 Y 62.6605
G1 X-1.0414
G1 Y 62.6859
G1 X-1.0160
G1 Y 62.7113
G1 X-0.9906
G1 Y 62.7367
G1 X-0.9652
G1 Y 62.7621
G1 X-0.9398
G1 Y 62.7875
G1 X-0.9144
G1 Y 62.8129
G1 X-0.8890
G1 Y 62.8383
G1 X-0.8636
G1 Y 62.8637
G1 X-0.8382
G1 Y 62.8891
G1 X-0.8128
G1 Y 62.9145
G1 X-0.7874
G1 Y 62.9399
G1 X-0.7620
G1 Y 62.9653
G1 X-0.7366
G1 Y 62.9907
G1 X-0.7112
G1 Y 63.0415
G1 X-0.6858
G1 Y 63.0669
G1 X-0.6604
G1 Y 63.1431
G1 X-0.6350
G1 Y 66.4705
G1 X-0.6604
G1 Y 66.5467
G1 X-0.6858
G1 Y 66.5721
G1 X-0.7112
G1 Y 66.6229
G1 X-0.7366
G1 Y 66.6483
G1 X-0.7620
G1 Y 66.6737
G1 X-0.7874
G1 Y 66.6991
G1 X-0.8128
G1 Y 66.7245
G1 X-0.8382
G1 Y 66.7499
G1 X-0.8636
G1 Y 66.7753
G1 X-0.8890
G1 Y 66.8007
G1 X-0.9144
G1 Y 66.8261
G1 X-0.9398
G1 Y 66.8515
G1 X-0.9652
G1 Y 66.8769
G1 X-0.9906
G1 Y 66.9023
G1 X-1.0160
G1 Y 66.9277
G1 X-1.0414
G1 Y 66.9531
G1 X-1.0668
G1 Y 66.9785
G1 X-1.0922
G1 Y 67.0039
G1 X-1.1176
G1 Y 67.0293
G1 X-1.1430
G1 Y 67.0547
G1 X-1.1684
G1 Y 67.0801
G1 X-1.1938
G1 Y 67.1055
G1 X-1.2192
G1 Y 67.1309
G1 X-1.2446
G1 Y 67.1563
G1 X-1.2700
G1 Y 67.1817
G1 X-1.2954
G1 Y 67.2071
G1 X-1.3208
G1 Y 67.2325
G1 X-1.3462
G1 Y 67.2579
G1 X-1.3716
G1 Y 67.2833
G1 X-1.3970
G1 Y 67.3087
G1 X-1.4224
G1 Y 67.3341
G1 X-1.4478
G1 Y 67.3595
G1 X-1.4732
G1 Y 67.3849
G1 X-1.4986
G1 Y 67.4103
G1 X-1.5240
G1 Y 67.4357
G1 X-1.5494
G1 Y 67.4611
G1 X-1.5748
G1 Y 67.4865
G1 X-1.6002
G1 Y 67.5119
G1 X-1.6256
G1 Y 67.5373
G1 X-1.6510
G1 Y 67.5627
G1 X-1.6764
G1 Y 67.5881
G1 X-1.7018
G1 Y 67.6135
G1 X-1.7272
G1 Y 67.6389
G1 X-1.7526
G1 Y 67.6643
G1 X-1.7780
G1 Y 67.6897
G1 X-1.8034
G1 Y 67.7151
G1 X-1.8288
G1 Y 67.7405
G1 X-1.8542
G1 Y 67.7659
G1 X-1.8796
G1 Y 67.7913
G1 X-1.9050
G1 Y 67.8167
G1 X-1.9304
G1 Y 67.8421
G1 X-1.9558
G1 Y 67.8675
G1 X-1.9812
G1 Y 67.8929
G1 X-2.0066
G1 Y 67.9183
G1 X-2.0320
G1 Y 67.9437
G1 X-2.0574
G1 Y 67.9691
G1 X-2.0828
G1 Y 67.9945
G1 X-2.1082
G1 Y 68.0199
G1 X-2.1336
G1 Y 68.0453
G1 X-2.1590
G1 Y 68.0707
G1 X-2.1844
G1 Y 68.0961
G1 X-2.2098
G1 Y 68.1215
G1 X-2.2352
G1 Y 68.1469
G1 X-2.2606
G1 Y 68.1723
G1 X-2.2860
G1 Y 68.1977
G1 X-2.3114
G1 Y 68.2231
G1 X-2.3368
G1 Y 68.2485
G1 X-2.3876
G1 Y 68.2739
G1 X-2.4384
G1 Y 68.2993
G1 X-3.7084
G1 Y 68.3247
G1 X-3.7338
G1 Y 68.3501
G1 X-3.7592
G1 Y 68.3755
G1 X-3.7846
G1 Y 68.4009
G1 X-3.8100
G1 Y 68.4263
G1 X-3.8354
G1 Y 68.4517
G1 X-3.8608
G1 Y 68.4771
G1 X-3.8862
G1 Y 68.5025
G1 X-3.9116
G1 Y 68.5279
G1 X-3.9370
G1 Y 68.5533
G1 X-3.9624
G1 Y 68.5787
G1 X-3.9878
G1 Y 68.6041
G1 X-4.0132
G1 Y 68.6295
G1 X-4.0386
G1 Y 68.6549
G1 X-4.0640
G1 Y 68.6803
G1 X-4.0894
G1 Y 68.7057
G1 X-4.1148
G1 Y 68.7311
G1 X-4.1402
G1 Y 68.7565
G1 X-4.1656
G1 Y 68.7819
G1 X-4.1910
G1 Y 68.8073
G1 X-4.2164
G1 Y 68.8327
G1 X-4.2418
G1 Y 68.8581
G1 X-4.2672
G1 Y 68.8835
G1 X-4.2926
G1 Y 68.9089
G1 X-4.3180
G1 Y 68.9343
G1 X-4.3434
G1 Y 68.9597
G1 X-4.3688
G1 Y 68.9851
G1 X-4.3942
G1 Y 69.0105
G1 X-4.4196
G1 Y 69.0359
G1 X-4.4450
G1 Y 69.0613
G1 X-4.4704
G1 Y 69.0867
G1 X-4.4958
G1 Y 69.1121
G1 X-4.5212
G1 Y 69.1375
G1 X-4.5466
G1 Y 69.1629
G1 X-4.5720
G1 Y 69.1883
G1 X-4.5974
G1 Y 69.2137
G1 X-4.6228
G1 Y 69.2391
G1 X-4.6482
G1 Y 69.2645
G1 X-4.6736
G1 Y 69.2899
G1 X-4.6990
G1 Y 69.3153
G1 X-4.7244
G1 Y 69.3407
G1 X-4.7498
G1 Y 69.3661
G1 X-4.7752
G1 Y 69.3915
G1 X-4.8006
G1 Y 69.4169
G1 X-4.8260
G1 Y 69.4423
G1 X-4.8514
G1 Y 69.4677
G1 X-4.8768
G1 Y 69.4931
G1 X-4.9022
G1 Y 69.5185
G1 X-4.9276
G1 Y 69.5439
G1 X-4.9530
G1 Y 69.5693
G1 X-4.9784
G1 Y 69.5947
G1 X-5.0038
G1 Y 69.6201
G1 X-5.0292
G1 Y 69.6455
G1 X-5.0546
G1 Y 69.6709
G1 X-5.0800
G1 Y 69.6963
G1 X-5.1308
G1 Y 69.7217
G1 X-49.4538
G1 Y 69.6963
G1 X-49.5046
G1 Y 69.6709
G1 X-49.5300
G1 Y 69.6455
G1 X-49.5554
G1 Y 69.6201
G1 X-49.5808
G1 Y 69.5947
G1 X-49.6062
G1 Y 69.5693
G1 X-49.6316
G1 Y 69.5439
G1 X-49.6570
G1 Y 69.5185
G1 X-49.6824
G1 Y 69.4931
( dwell for no time -- G64 should not smooth over this point )
G04 P0 
( retract )
G0 Z 1.0000
( rapid move to begin. )
G0 X-46.0248 Y 67.8929
( plunge. )
G1 Z-0.1001
( dwell for no time -- G64 should not smooth over this point )
G04 P0 
G1 X-46.0502
G1 Y 67.8675
G1 X-46.0756
G1 Y 67.8421
G1 X-46.1010
G1 Y 67.8167
G1 X-46.1264
G1 Y 67.7913
G1 X-46.1518
G1 Y 67.7659
G1 X-46.1772
G1 Y 67.7405
G1 X-46.2026
G1 Y 67.7151
G1 X-46.2280
G1 Y 67.6897
G1 X-46.2534
G1 Y 67.6643
G1 X-46.2788
G1 Y 67.6389
G1 X-46.3042
G1 Y 67.6135
G1 X-46.3296
G1 Y 67.5881
G1 X-46.3550
G1 Y 67.5627
G1 X-46.3804
G1 Y 67.5373
G1 X-46.4058
G1 Y 67.5119
G1 X-46.4312
G1 Y 67.4865
G1 X-46.4566
G1 Y 67.4611
G1 X-46.4820
G1 Y 67.4357
G1 X-46.5074
G1 Y 67.4103
G1 X-46.5328
G1 Y 67.3849
G1 X-46.5582
G1 Y 67.3595
G1 X-46.5836
G1 Y 67.3341
G1 X-46.6090
G1 Y 67.3087
G1 X-46.6344
G1 Y 67.2833
G1 X-46.6598
G1 Y 67.2579
G1 X-46.6852
G1 Y 67.2325
G1 X-46.7106
G1 Y 67.2071
G1 X-46.7360
G1 Y 67.1817
G1 X-46.7614
G1 Y 67.1563
G1 X-46.7868
G1 Y 67.1309
G1 X-46.8122
G1 Y 67.1055
G1 X-46.8376
G1 Y 67.0801
G1 X-46.8630
G1 Y 67.0547
G1 X-46.8884
G1 Y 67.0293
G1 X-46.9138
G1 Y 67.0039
G1 X-46.9392
G1 Y 66.9785
G1 X-46.9646
G1 Y 66.9531
G1 X-46.9900
G1 Y 66.9277
G1 X-47.0154
G1 Y 66.9023
G1 X-47.0408
G1 Y 66.8769
G1 X-47.0662
G1 Y 66.8515
G1 X-47.0916
G1 Y 66.8261
G1 X-47.1170
G1 Y 66.8007
G1 X-47.1424
G1 Y 66.7753
G1 X-47.1678
G1 Y 66.7499
G1 X-47.1932
G1 Y 66.7245
G1 X-47.2186
G1 Y 66.6991
G1 X-47.2440
G1 Y 66.6737
G1 X-47.2694
G1 Y 66.6483
G1 X-47.2948
G1 Y 66.6229
G1 X-47.3202
G1 Y 66.5975
G1 X-47.3456
G1 Y 66.5721
G1 X-47.3710
G1 Y 66.5467
G1 X-47.3964
G1 Y 66.5213
G1 X-47.4218
G1 Y 66.4959
G1 X-47.4472
G1 Y 66.4705
G1 X-47.4726
G1 Y 66.4451
G1 X-47.4980
G1 Y 66.4197
G1 X-47.5234
G1 Y 66.3943
G1 X-47.5488
G1 Y 66.3689
G1 X-47.5742
G1 Y 66.3435
G1 X-47.5996
G1 Y 66.3181
G1 X-47.6250
G1 Y 66.2927
G1 X-47.6504
G1 Y 66.2673
G1 X-47.6758
G1 Y 66.2419
G1 X-47.7012
G1 Y 66.2673
G1 X-47.8028
G1 Y 66.2927
G1 X-48.7426
G1 Y 66.2673
G1 X-48.8442
G1 Y 66.2419
G1 X-48.9458
G1 Y 66.2165
G1 X-48.9966
G1 Y 66.1911
G1 X-49.0728
G1 Y 66.1657
G1 X-49.1236
G1 Y 66.1403
G1 X-49.1744
G1 Y 66.1149
G1 X-49.1998
G1 Y 66.0895
G1 X-49.2506
G1 Y 66.0641
G1 X-49.2760
G1 Y 66.0387
G1 X-49.3268
G1 Y 66.0133
G1 X-49.3522
G1 Y 65.9879
G1 X-49.3776
G1 Y 65.9625
G1 X-49.4030
G1 Y 65.9371
G1 X-49.4284
G1 Y 65.9117
G1 X-49.4538
G1 Y 65.8863
G1 X-49.4792
G1 Y 65.8609
G1 X-49.5046
G1 Y 65.8355
G1 X-49.5300
G1 Y 65.7847
G1 X-49.5554
G1 Y 65.7593
G1 X-49.5808
G1 Y 65.7085
G1 X-49.6062
G1 Y 65.6577
G1 X-49.6316
G1 Y 65.6069
G1 X-49.6570
G1 Y 65.5561
G1 X-49.6824
G1 Y 65.4799
G1 X-49.7078
G1 Y 65.3783
G1 X-49.7332
G1 Y 65.2259
G1 X-49.7586
G1 Y 64.3877
G1 X-49.7332
G1 Y 64.2353
G1 X-49.7078
G1 Y 64.1337
G1 X-49.6824
G1 Y 64.0575
G1 X-49.6570
G1 Y 64.0067
G1 X-49.6316
G1 Y 63.9559
G1 X-49.6062
G1 Y 63.9051
G1 X-49.5808
G1 Y 63.8543
G1 X-49.5554
G1 Y 63.8289
G1 X-49.5300
G1 Y 63.7781
G1 X-49.5046
G1 Y 63.7527
G1 X-49.4792
G1 Y 63.7273
G1 X-49.4538
G1 Y 63.7019
G1 X-49.4284
G1 Y 63.6765
G1 X-49.4030
G1 Y 63.6511
G1 X-49.3776
G1 Y 63.6257
G1 X-49.3522
G1 Y 63.6003
G1 X-49.3268
G1 Y 63.5749
G1 X-49.2760
G1 Y 63.5495
G1 X-49.2506
G1 Y 63.5241
G1 X-49.1998
G1 Y 63.4987
G1 X-49.1744
G1 Y 63.4733
G1 X-49.1236
G1 Y 63.4479
G1 X-49.0728
G1 Y 63.4225
G1 X-48.9966
G1 Y 63.3971
G1 X-48.9458
G1 Y 63.3717
G1 X-48.8442
G1 Y 63.3463
G1 X-48.7680
G1 Y 34.1871
G1 X-48.7426
G1 Y 34.1109
G1 X-48.7172
G1 Y 34.0855
G1 X-48.6918
G1 Y 34.0347
G1 X-48.6664
G1 Y 34.0093
G1 X-48.6410
G1 Y 33.9839
G1 X-48.6156
G1 Y 33.9585
G1 X-48.5902
G1 Y 33.9331
G1 X-48.5648
G1 Y 33.9077
G1 X-48.5394
G1 Y 33.4759
G1 X-48.5648
G1 Y 33.4505
G1 X-48.5902
G1 Y 33.4251
G1 X-48.6156
G1 Y 33.3997
G1 X-48.6410
G1 Y 33.3743
G1 X-48.6664
G1 Y 33.3489
G1 X-48.6918
G1 Y 33.3235
G1 X-48.7172
G1 Y 33.2981
G1 X-48.7426
G1 Y 33.2727
G1 X-48.7680
G1 Y 33.2473
G1 X-48.7934
G1 Y 33.2219
G1 X-48.8188
G1 Y 33.1965
G1 X-48.8442
G1 Y 33.1711
G1 X-48.8696
G1 Y 33.1457
G1 X-48.8950
G1 Y 33.1203
G1 X-48.9204
G1 Y 33.0949
G1 X-48.9458
G1 Y 33.0695
G1 X-48.9712
G1 Y 33.0441
G1 X-48.9966
G1 Y 33.0187
G1 X-49.0220
G1 Y 32.9933
G1 X-49.0474
G1 Y 32.9679
G1 X-49.0728
G1 Y 32.9425
G1 X-49.0982
G1 Y 32.9171
G1 X-49.1236
G1 Y 32.8917
G1 X-49.1490
G1 Y 32.8663
G1 X-49.1744
G1 Y 32.8409
G1 X-49.1998
G1 Y 32.8155
G1 X-49.2252
G1 Y 32.7901
G1 X-49.2506
G1 Y 32.7647
G1 X-49.2760
G1 Y 32.7393
G1 X-49.3014
G1 Y 32.7139
G1 X-49.3268
G1 Y 32.6885
G1 X-49.3522
G1 Y 32.6631
G1 X-49.3776
G1 Y 32.6377
G1 X-49.4030
G1 Y 32.6123
G1 X-49.4284
G1 Y 32.5869
G1 X-49.4538
G1 Y 32.5615
G1 X-49.4792
G1 Y 32.5361
G1 X-49.5046
G1 Y 32.5107
G1 X-49.5300
G1 Y 32.4853
G1 X-49.5554
G1 Y 32.4599
G1 X-49.5808
G1 Y 32.4345
G1 X-49.6062
G1 Y 32.4091
G1 X-49.6316
G1 Y 32.3837
G1 X-49.6570
G1 Y 32.3583
G1 X-49.6824
G1 Y 32.3329
G1 X-49.7078
G1 Y 32.3075
G1 X-49.7332
G1 Y 32.2821
G1 X-49.7586
G1 Y 32.2567
G1 X-49.7840
G1 Y 32.2313
G1 X-49.8094
G1 Y 32.2059
G1 X-49.8348
G1 Y 32.1805
G1 X-49.8602
G1 Y 32.1551
G1 X-49.8856
G1 Y 32.1297
G1 X-49.9110
G1 Y 32.1043
G1 X-49.9364
G1 Y 32.0789
G1 X-49.9618
G1 Y 32.0535
G1 X-49.9872
G1 Y 32.0281
G1 X-50.0126
G1 Y 32.0027
G1 X-50.0380
G1 Y 31.9773
G1 X-50.0634
G1 Y 31.9519
G1 X-50.0888
G1 Y 31.9265
G1 X-50.1142
G1 Y 31.9011
G1 X-50.1396
G1 Y 31.8757
G1 X-50.1650
G1 Y 31.8503
G1 X-50.1904
G1 Y 31.8249
G1 X-50.2158
G1 Y 31.7995
G1 X-50.2412
G1 Y 31.7741
G1 X-50.2666
G1 Y 31.7487
G1 X-50.2920
G1 Y 31.7233
G1 X-50.3174
G1 Y 31.6979
G1 X-50.3428
G1 Y 31.6725
G1 X-50.3682
G1 Y 31.6471
G1 X-50.3936
G1 Y 31.6217
G1 X-50.4190
G1 Y 31.5963
G1 X-50.4444
G1 Y 31.5455
G1 X-50.4698
G1 Y 31.5201
G1 X-50.4952
G1 Y 31.4439
G1 X-50.5206
G1 Y 28.3197
G1 X-50.4952
G1 Y 28.2435
G1 X-50.4698
G1 Y 28.2181
G1 X-50.4444
G1 Y 28.1673
G1 X-50.4190
G1 Y 28.1419
G1 X-50.3936
G1 Y 28.1165
G1 X-50.3682
G1 Y 28.0911
G1 X-50.3428
G1 Y 28.0657
G1 X-50.3174
G1 Y 28.0403
G1 X-50.2920
G1 Y 28.0149
G1 X-50.2666
G1 Y 27.9895
G1 X-50.2412
G1 Y 27.9641
G1 X-50.2158
G1 Y 27.9387
G1 X-50.1904
G1 Y 27.9133
G1 X-50.1650
G1 Y 27.8879
G1 X-50.1396
G1 Y 27.8625
G1 X-50.1142
G1 Y 27.8371
G1 X-50.0888
G1 Y 27.8117
G1 X-50.0634
G1 Y 27.7863
G1 X-50.0380
G1 Y 27.7609
G1 X-50.0126
G1 Y 27.7355
G1 X-49.9872
G1 Y 27.7101
G1 X-49.9618
G1 Y 27.6847
G1 X-49.9364
G1 Y 27.6593
G1 X-49.9110
G1 Y 27.6339
G1 X-49.8856
G1 Y 27.6085
G1 X-49.8602
G1 Y 27.5831
G1 X-49.8348
G1 Y 27.5577
G1 X-49.8094
G1 Y 27.5323
G1 X-49.7840
G1 Y 27.5069
G1 X-49.7586
G1 Y 27.4815
G1 X-49.7332
G1 Y 27.4561
G1 X-49.7078
G1 Y 27.4307
G1 X-49.6824
G1 Y 27.4053
G1 X-49.6570
G1 Y 27.3799
G1 X-49.6316
G1 Y 27.3545
G1 X-49.6062
G1 Y 27.3291
G1 X-49.5808
G1 Y 27.3037
G1 X-49.5554
G1 Y 27.2783
G1 X-49.5300
G1 Y 27.2529
G1 X-49.5046
G1 Y 27.2275
G1 X-49.4792
G1 Y 27.2021
G1 X-49.4538
G1 Y 27.1767
G1 X-49.4284
G1 Y 27.1513
G1 X-49.4030
G1 Y 27.1259
G1 X-49.3776
G1 Y 27.1005
G1 X-49.3522
G1 Y 27.0751
G1 X-49.3268
G1 Y 27.0497
G1 X-49.3014
G1 Y 27.0243
G1 X-49.2760
G1 Y 26.9989
G1 X-49.2506
G1 Y 26.9735
G1 X-49.2252
G1 Y 26.9481
G1 X-49.1998
G1 Y 26.9227
G1 X-49.1744
G1 Y 26.8973
G1 X-49.1490
G1 Y 26.8719
G1 X-49.1236
G1 Y 26.8465
G1 X-49.0982
G1 Y 26.8211
G1 X-49.0728
G1 Y 26.7957
G1 X-49.0474
G1 Y 26.7703
G1 X-49.0220
G1 Y 26.7449
G1 X-48.9966
G1 Y 26.7195
G1 X-48.9712
G1 Y 26.6941
G1 X-48.9458
G1 Y 26.6687
G1 X-48.9204
G1 Y 26.6433
G1 X-48.8950
G1 Y 26.6179
G1 X-48.8696
G1 Y 26.5925
G1 X-48.8442
G1 Y 26.5671
G1 X-51.5366
G1 Y 26.6179
G1 X-51.5620
G1 Y 26.6941
G1 X-51.5874
G1 Y 26.7195
G1 X-51.6128
G1 Y 26.7449
G1 X-51.6382
G1 Y 26.7957
G1 X-51.6636
G1 Y 26.8211
G1 X-51.6890
G1 Y 26.8465
G1 X-51.7144
G1 Y 26.8973
G1 X-51.7398
G1 Y 26.9227
G1 X-51.7652
G1 Y 26.9481
G1 X-51.8160
G1 Y 26.9735
G1 X-51.8414
G1 Y 26.9989
G1 X-51.8922
G1 Y 27.0243
G1 X-51.9430
G1 Y 27.0497
G1 X-51.9684
G1 Y 27.0751
G1 X-52.0192
G1 Y 27.1005
G1 X-52.1716
G1 Y 27.1259
G1 X-52.7812
G1 Y 27.1513
G1 X-52.8066
G1 Y 27.1767
G1 X-52.8320
G1 Y 27.2021
G1 X-52.8574
G1 Y 27.2275
G1 X-52.8828
G1 Y 27.2529
G1 X-52.9082
G1 Y 27.2783
G1 X-52.9336
G1 Y 27.3037
G1 X-52.9590
G1 Y 27.3291
G1 X-52.9844
G1 Y 27.3545
G1 X-53.0098
G1 Y 27.3799
G1 X-53.0352
G1 Y 27.4053
G1 X-53.0606
G1 Y 27.4307
G1 X-53.0860
G1 Y 27.4561
G1 X-53.1114
G1 Y 27.4815
G1 X-53.1368
G1 Y 27.5069
G1 X-53.1622
G1 Y 27.5323
G1 X-53.1876
G1 Y 27.5577
G1 X-53.2130
G1 Y 27.5831
G1 X-53.2384
G1 Y 27.6085
G1 X-53.2638
G1 Y 27.6339
G1 X-53.2892
G1 Y 27.6593
G1 X-53.3146
G1 Y 27.6847
G1 X-53.3400
G1 Y 27.7101
G1 X-53.3654
G1 Y 27.7355
G1 X-53.3908
G1 Y 27.7609
G1 X-53.4162
G1 Y 27.7863
G1 X-53.4416
G1 Y 27.8117
G1 X-53.4670
G1 Y 27.8371
G1 X-53.4924
G1 Y 27.8625
G1 X-53.5178
G1 Y 27.8879
G1 X-53.5432
G1 Y 27.9133
G1 X-53.5686
G1 Y 27.9387
G1 X-53.5940
G1 Y 27.9641
G1 X-53.6448
G1 Y 27.9895
G1 X-53.6956
G1 Y 28.0149
G1 X-57.7850
G1 Y 27.9895
G1 X-57.8358
G1 Y 27.9641
G1 X-57.8866
G1 Y 27.9387
G1 X-57.9120
G1 Y 27.9133
G1 X-57.9374
G1 Y 27.8879
G1 X-57.9628
G1 Y 27.8625
G1 X-57.9882
G1 Y 27.8371
G1 X-58.0136
G1 Y 27.8117
G1 X-58.0390
G1 Y 27.7863
G1 X-58.0644
G1 Y 27.7609
G1 X-58.0898
G1 Y 27.7355
G1 X-58.1152
G1 Y 27.7101
G1 X-58.1406
G1 Y 27.6847
G1 X-58.1660
G1 Y 27.6593
G1 X-58.1914
G1 Y 27.6339
G1 X-58.2168
G1 Y 27.6085
G1 X-58.2422
G1 Y 27.5831
G1 X-58.2676
G1 Y 27.5577
G1 X-58.2930
G1 Y 27.5323
G1 X-58.3184
G1 Y 27.5069
G1 X-58.3438
G1 Y 27.4815
G1 X-58.3692
G1 Y 27.4561
G1 X-58.3946
G1 Y 27.4307
G1 X-58.4200
G1 Y 27.4053
G1 X-58.4454
G1 Y 27.3799
G1 X-58.4708
G1 Y 27.3545
G1 X-58.4962
G1 Y 27.3291
G1 X-58.5216
G1 Y 27.3037
G1 X-58.5470
G1 Y 27.2783
G1 X-58.5724
G1 Y 27.2529
G1 X-58.5978
G1 Y 27.2275
G1 X-58.6232
G1 Y 27.2021
G1 X-58.6486
G1 Y 27.1767
G1 X-58.6740
G1 Y 27.1513
G1 X-58.6994
G1 Y 27.1259
G1 X-59.1312
G1 Y 27.1513
G1 X-59.1566
G1 Y 27.1767
G1 X-59.1820
G1 Y 27.2021
G1 X-59.2074
G1 Y 27.2275
G1 X-59.2328
G1 Y 27.2529
G1 X-59.2582
G1 Y 27.2783
G1 X-59.2836
G1 Y 27.3037
G1 X-59.3090
G1 Y 27.3291
G1 X-59.3344
G1 Y 27.3545
G1 X-59.3598
G1 Y 27.3799
G1 X-59.3852
G1 Y 27.4053
G1 X-59.4106
G1 Y 27.4307
G1 X-59.4360
G1 Y 27.4561
G1 X-59.4614
G1 Y 27.4815
G1 X-59.4868
G1 Y 27.5069
G1 X-59.5122
G1 Y 27.5323
G1 X-59.5376
G1 Y 27.5577
G1 X-59.5630
G1 Y 27.5831
G1 X-59.5884
G1 Y 27.6085
G1 X-59.6138
G1 Y 27.6339
G1 X-59.6392
G1 Y 27.6593
G1 X-59.6646
G1 Y 27.6847
G1 X-59.6900
G1 Y 27.7101
G1 X-59.7154
G1 Y 27.7355
G1 X-59.7408
G1 Y 27.7609
G1 X-59.7662
G1 Y 27.7863
G1 X-59.7916
G1 Y 27.8117
G1 X-59.8170
G1 Y 27.8371
G1 X-59.8424
G1 Y 27.8625
G1 X-59.8678
G1 Y 27.8879
G1 X-59.8932
G1 Y 27.9133
G1 X-59.9186
G1 Y 27.9387
G1 X-59.9440
G1 Y 27.9641
G1 X-59.9694
G1 Y 27.9895
G1 X-59.9948
G1 Y 28.0149
G1 X-60.0202
G1 Y 28.0657
G1 X-60.0456
G1 Y 28.0911
G1 X-60.0710
G1 Y 28.1165
G1 X-60.0964
G1 Y 28.1419
G1 X-60.1218
G1 Y 28.1673
G1 X-60.1472
G1 Y 28.1927
G1 X-60.1726
G1 Y 28.2181
G1 X-60.1980
G1 Y 30.3771
G1 X-60.1726
G1 Y 30.4025
G1 X-60.1472
G1 Y 30.4279
G1 X-60.1218
G1 Y 30.4533
G1 X-60.0964
G1 Y 30.4787
G1 X-60.0710
G1 Y 30.5041
G1 X-60.0456
G1 Y 30.5295
G1 X-60.0202
G1 Y 30.5549
G1 X-59.9948
G1 Y 30.6057
G1 X-59.9694
G1 Y 30.6311
G1 X-59.9440
G1 Y 30.6565
G1 X-59.9186
G1 Y 30.6819
G1 X-59.8932
G1 Y 30.7073
G1 X-59.8678
G1 Y 30.7327
G1 X-59.8424
G1 Y 30.7581
G1 X-59.8170
G1 Y 30.7835
G1 X-59.7916
G1 Y 30.8089
G1 X-59.7662
G1 Y 30.8343
G1 X-59.7408
G1 Y 30.8597
G1 X-59.7154
G1 Y 30.8851
G1 X-59.6900
G1 Y 30.9105
G1 X-59.6646
G1 Y 30.9359
G1 X-59.6392
G1 Y 30.9613
G1 X-59.6138
G1 Y 30.9867
G1 X-59.5884
G1 Y 31.0121
G1 X-59.5630
G1 Y 31.0375
G1 X-59.5376
G1 Y 31.0629
G1 X-59.5122
G1 Y 31.0883
G1 X-59.4868
G1 Y 31.1137
G1 X-59.4614
G1 Y 31.1391
G1 X-59.4360
G1 Y 31.1645
G1 X-59.4106
G1 Y 31.1899
G1 X-59.3852
G1 Y 31.2153
G1 X-59.3598
G1 Y 31.2407
G1 X-59.3344
G1 Y 31.2661
G1 X-59.3090
G1 Y 31.2915
G1 X-59.2836
G1 Y 31.3169
G1 X-59.2582
G1 Y 31.3423
G1 X-59.2328
G1 Y 31.3677
G1 X-59.2074
G1 Y 31.3931
G1 X-59.1820
G1 Y 31.4185
G1 X-59.1566
G1 Y 31.4439
G1 X-59.1312
G1 Y 31.4693
G1 X-59.1058
G1 Y 31.4947
G1 X-59.0804
G1 Y 31.5201
G1 X-59.0550
G1 Y 31.5455
G1 X-59.0296
G1 Y 31.5709
G1 X-59.0042
G1 Y 31.5963
G1 X-58.9788
G1 Y 31.6217
G1 X-58.9534
G1 Y 31.6471
G1 X-58.9280
G1 Y 31.6725
G1 X-58.9026
G1 Y 31.6979
G1 X-58.8772
G1 Y 31.7233
G1 X-58.8518
G1 Y 31.7487
G1 X-58.8264
G1 Y 31.7741
G1 X-58.8010
G1 Y 31.7995
G1 X-58.7756
G1 Y 31.8249
G1 X-58.7502
G1 Y 31.8503
G1 X-58.7248
G1 Y 31.8757
G1 X-58.6994
G1 Y 31.9011
G1 X-58.6740
G1 Y 31.9265
G1 X-58.6486
G1 Y 31.9519
G1 X-58.6232
G1 Y 31.9773
G1 X-58.5978
G1 Y 32.0027
G1 X-58.5724
G1 Y 32.0281
G1 X-58.5470
G1 Y 32.0535
G1 X-58.5216
G1 Y 32.0789
G1 X-58.4962
G1 Y 32.1297
G1 X-58.4708
G1 Y 32.1551
G1 X-58.4454
G1 Y 32.2313
G1 X-58.4200
G1 Y 32.6631
G1 X-58.3692
G1 Y 32.6885
G1 X-58.3184
G1 Y 32.7139
G1 X-58.2930
G1 Y 32.7393
G1 X-58.2422
G1 Y 32.7647
G1 X-58.1914
G1 Y 32.7901
G1 X-58.1660
G1 Y 32.8155
G1 X-58.1152
G1 Y 32.8409
G1 X-58.0898
G1 Y 32.8663
G1 X-58.0644
G1 Y 32.9171
G1 X-58.0390
G1 Y 32.9425
G1 X-58.0136
G1 Y 32.9679
G1 X-57.9882
G1 Y 33.0187
G1 X-57.9628
G1 Y 33.0441
G1 X-57.9374
G1 Y 33.0695
G1 X-57.9120
G1 Y 33.1457
G1 X-57.8866
G1 Y 33.2473
G1 X-57.8612
G1 Y 34.1617
G1 X-57.8866
G1 Y 34.2379
G1 X-57.9120
G1 Y 34.3141
G1 X-57.9374
G1 Y 34.3395
G1 X-57.9628
G1 Y 34.3649
G1 X-57.9882
G1 Y 34.4157
G1 X-58.0136
G1 Y 34.4411
G1 X-58.0390
G1 Y 34.4665
G1 X-58.0644
G1 Y 34.5173
G1 X-58.0898
G1 Y 34.5427
G1 X-58.1152
G1 Y 34.5681
G1 X-58.1660
G1 Y 34.5935
G1 X-58.1914
G1 Y 34.6189
G1 X-58.2422
G1 Y 34.6443
G1 X-58.2930
G1 Y 34.6697
G1 X-58.3184
G1 Y 34.6951
G1 X-58.3692
G1 Y 34.7205
G1 X-58.5216
G1 Y 34.7459
G1 X-59.3090
G1 Y 34.7205
G1 X-59.4614
G1 Y 34.6951
G1 X-59.5122
G1 Y 34.6697
G1 X-59.5376
G1 Y 34.6443
G1 X-59.5884
G1 Y 34.6189
G1 X-59.6392
G1 Y 34.5935
G1 X-59.6646
G1 Y 34.5681
G1 X-59.7154
G1 Y 34.5427
G1 X-59.7408
G1 Y 34.5173
G1 X-59.7662
G1 Y 34.4665
G1 X-59.7916
G1 Y 34.4411
G1 X-59.8170
G1 Y 34.4157
G1 X-59.8424
G1 Y 34.3649
G1 X-59.8678
G1 Y 34.3395
G1 X-59.8932
G1 Y 34.2887
G1 X-59.9186
G1 Y 34.2379
G1 X-59.9440
G1 Y 34.1363
G1 X-59.9694
G1 Y 33.2473
G1 X-59.9440
G1 Y 33.1457
G1 X-59.9186
G1 Y 33.0949
G1 X-59.8932
G1 Y 33.0441
G1 X-59.8678
G1 Y 33.0187
G1 X-59.8424
G1 Y 32.9679
G1 X-59.8170
G1 Y 32.9425
G1 X-59.7916
G1 Y 32.9171
G1 X-59.7662
G1 Y 32.8663
G1 X-59.7408
G1 Y 32.8409
G1 X-59.7154
G1 Y 32.8155
G1 X-59.6646
G1 Y 32.7901
G1 X-59.6392
G1 Y 32.7647
G1 X-59.5884
G1 Y 32.7393
G1 X-59.5630
G1 Y 32.7139
G1 X-59.5884
G1 Y 32.6885
G1 X-59.6138
G1 Y 32.6631
G1 X-59.6392
G1 Y 32.6377
G1 X-59.6646
G1 Y 32.6123
G1 X-59.6900
G1 Y 32.5869
G1 X-59.7154
G1 Y 32.5615
G1 X-59.7408
G1 Y 32.5361
G1 X-59.7662
G1 Y 32.5107
G1 X-59.7916
G1 Y 32.4853
G1 X-59.8170
G1 Y 32.4599
G1 X-59.8424
G1 Y 32.4345
G1 X-59.8678
G1 Y 32.4091
G1 X-59.8932
G1 Y 32.3837
G1 X-59.9186
G1 Y 32.3583
G1 X-59.9440
G1 Y 32.3329
G1 X-59.9694
G1 Y 32.3075
G1 X-59.9948
G1 Y 32.2821
G1 X-60.0202
G1 Y 32.2567
G1 X-60.0456
G1 Y 32.2313
G1 X-60.0710
G1 Y 32.2059
G1 X-60.0964
G1 Y 32.1805
G1 X-60.1218
G1 Y 32.1551
G1 X-60.1472
G1 Y 32.1297
G1 X-60.1726
G1 Y 32.1043
G1 X-60.1980
G1 Y 32.0789
G1 X-60.2234
G1 Y 32.0535
G1 X-60.2488
G1 Y 32.0281
G1 X-60.2742
G1 Y 32.0027
G1 X-60.2996
G1 Y 31.9773
G1 X-60.3250
G1 Y 31.9519
G1 X-60.3504
G1 Y 31.9265
G1 X-60.3758
G1 Y 31.9011
G1 X-60.4012
G1 Y 31.8757
G1 X-60.4266
G1 Y 31.8503
G1 X-60.4520
G1 Y 31.8249
G1 X-60.4774
G1 Y 31.7995
G1 X-60.5028
G1 Y 31.7741
G1 X-60.5282
G1 Y 31.7487
G1 X-60.5536
G1 Y 31.7233
G1 X-60.5790
G1 Y 31.6979
G1 X-60.6044
G1 Y 31.6725
G1 X-60.6298
G1 Y 31.6471
G1 X-60.6552
G1 Y 31.6217
G1 X-60.6806
G1 Y 31.5963
G1 X-60.7060
G1 Y 31.5709
G1 X-60.7314
G1 Y 31.5455
G1 X-60.7568
G1 Y 31.5201
G1 X-60.7822
G1 Y 31.4947
G1 X-60.8076
G1 Y 31.4693
G1 X-60.8330
G1 Y 31.4439
G1 X-60.8584
G1 Y 31.4185
G1 X-60.8838
G1 Y 31.3931
G1 X-60.9092
G1 Y 31.3677
G1 X-60.9346
G1 Y 31.3423
G1 X-60.9600
G1 Y 31.3169
G1 X-60.9854
G1 Y 31.2915
G1 X-61.0108
G1 Y 31.2661
G1 X-61.0362
G1 Y 31.2407
G1 X-61.0616
G1 Y 31.2153
G1 X-61.0870
G1 Y 31.1899
G1 X-61.1124
G1 Y 31.1645
G1 X-61.1378
G1 Y 31.1391
G1 X-61.1632
G1 Y 31.1137
G1 X-61.1886
G1 Y 31.0883
G1 X-61.2140
G1 Y 31.0629
G1 X-61.2394
G1 Y 31.0375
G1 X-67.3608
G1 Y 31.0629
G1 X-67.3862
G1 Y 31.0883
G1 X-67.4116
G1 Y 31.1137
G1 X-67.4370
G1 Y 31.1391
G1 X-67.4624
G1 Y 31.1645
G1 X-67.4878
G1 Y 31.1899
G1 X-67.5132
G1 Y 31.2153
G1 X-67.5386
G1 Y 31.2407
G1 X-67.5640
G1 Y 31.2661
G1 X-67.6148
G1 Y 31.2915
G1 X-67.6402
G1 Y 31.3169
G1 X-67.6656
G1 Y 31.3423
G1 X-67.6910
G1 Y 31.3677
G1 X-67.7164
G1 Y 31.3931
G1 X-67.7418
G1 Y 31.4185
G1 X-67.7672
G1 Y 31.4439
G1 X-67.7926
G1 Y 31.4693
G1 X-67.8180
G1 Y 31.4947
G1 X-67.8434
G1 Y 31.5201
G1 X-67.8688
G1 Y 31.5455
G1 X-67.8942
G1 Y 31.5709
G1 X-67.9196
G1 Y 31.5963
G1 X-67.9450
G1 Y 31.6217
G1 X-67.9704
G1 Y 31.6471
G1 X-67.9958
G1 Y 31.6725
G1 X-68.0212
G1 Y 31.6979
G1 X-68.0466
G1 Y 31.7233
G1 X-68.0720
G1 Y 31.7487
G1 X-68.0974
G1 Y 31.7741
G1 X-68.1228
G1 Y 31.7995
G1 X-68.1482
G1 Y 31.8249
G1 X-68.1736
G1 Y 31.8503
G1 X-68.1990
G1 Y 31.8757
G1 X-68.2244
G1 Y 31.9011
G1 X-68.2498
G1 Y 31.9265
G1 X-68.2752
G1 Y 31.9519
G1 X-68.3006
G1 Y 31.9773
G1 X-68.3260
G1 Y 32.0027
G1 X-68.3514
G1 Y 32.0281
G1 X-68.3768
G1 Y 32.0535
G1 X-68.4022
G1 Y 32.0789
G1 X-68.4276
G1 Y 32.1043
G1 X-68.4530
G1 Y 32.1297
G1 X-68.4784
G1 Y 32.1551
G1 X-68.5038
G1 Y 32.1805
G1 X-68.5292
G1 Y 32.2059
G1 X-68.5546
G1 Y 32.2313
G1 X-68.5800
G1 Y 32.2567
G1 X-68.6054
G1 Y 32.2821
G1 X-68.6308
G1 Y 32.3075
G1 X-68.6562
G1 Y 32.3329
G1 X-68.6816
G1 Y 32.3583
G1 X-68.7070
G1 Y 32.3837
G1 X-68.7324
G1 Y 32.4091
G1 X-68.7578
G1 Y 32.4345
G1 X-68.7832
G1 Y 32.4599
G1 X-68.8086
G1 Y 32.4853
G1 X-68.8340
G1 Y 32.5107
G1 X-68.8594
G1 Y 32.5361
G1 X-68.8848
G1 Y 32.5615
G1 X-68.9102
G1 Y 32.5869
G1 X-68.9356
G1 Y 32.6123
G1 X-68.9610
G1 Y 32.6377
G1 X-68.9864
G1 Y 32.6631
G1 X-69.0118
G1 Y 32.6885
G1 X-69.0372
G1 Y 32.7139
G1 X-69.0626
G1 Y 32.7393
G1 X-69.0880
G1 Y 32.7647
G1 X-69.1134
G1 Y 32.7901
G1 X-69.1388
G1 Y 32.8155
G1 X-69.1642
G1 Y 32.8409
G1 X-69.1896
G1 Y 32.8663
G1 X-69.1642
G1 Y 32.8917
G1 X-69.1134
G1 Y 32.9171
G1 X-69.0880
G1 Y 32.9425
G1 X-69.0372
G1 Y 32.9679
G1 X-69.0118
G1 Y 32.9933
G1 X-68.9864
G1 Y 33.0441
G1 X-68.9610
G1 Y 33.0695
G1 X-68.9356
G1 Y 33.0949
G1 X-68.9102
G1 Y 33.1457
G1 X-68.8848
G1 Y 33.1711
G1 X-68.8594
G1 Y 33.1965
G1 X-68.8340
G1 Y 33.2727
G1 X-68.8086
G1 Y 33.3743
G1 X-68.7832
G1 Y 34.2887
G1 X-68.8086
G1 Y 34.3649
G1 X-68.8340
G1 Y 34.4411
G1 X-68.8594
G1 Y 34.4665
G1 X-68.8848
G1 Y 34.4919
G1 X-68.9102
G1 Y 34.5427
G1 X-68.9356
G1 Y 34.5681
G1 X-68.9610
G1 Y 34.5935
G1 X-68.9864
G1 Y 34.6443
G1 X-69.0118
G1 Y 34.6697
G1 X-69.0372
G1 Y 34.6951
G1 X-69.0880
G1 Y 34.7205
G1 X-69.1134
G1 Y 34.7459
G1 X-69.1642
G1 Y 34.7713
G1 X-69.2150
G1 Y 34.7967
G1 X-69.2404
G1 Y 34.8221
G1 X-69.2912
G1 Y 34.8475
G1 X-69.4436
G1 Y 34.8729
G1 X-70.2310
G1 Y 34.8475
G1 X-70.3834
G1 Y 34.8221
G1 X-70.4342
G1 Y 34.7967
G1 X-70.4596
G1 Y 34.7713
G1 X-70.5104
G1 Y 34.7459
G1 X-70.5612
G1 Y 34.7205
G1 X-70.5866
G1 Y 34.6951
G1 X-70.6374
G1 Y 34.6697
G1 X-70.6628
G1 Y 34.6443
G1 X-70.6882
G1 Y 34.5935
G1 X-70.7136
G1 Y 34.5681
G1 X-70.7390
G1 Y 34.5427
G1 X-70.7644
G1 Y 34.4919
G1 X-70.7898
G1 Y 34.4665
G1 X-70.8152
G1 Y 34.4157
G1 X-70.8406
G1 Y 34.3649
G1 X-70.8660
G1 Y 34.2633
G1 X-70.8914
G1 Y 33.3743
G1 X-70.8660
G1 Y 33.2727
G1 X-70.8406
G1 Y 33.2219
G1 X-70.8152
G1 Y 33.1711
G1 X-70.7898
G1 Y 33.1457
G1 X-70.7644
G1 Y 33.0949
G1 X-70.7390
G1 Y 33.0695
G1 X-70.7136
G1 Y 33.0441
G1 X-70.6882
G1 Y 32.9933
G1 X-70.6628
G1 Y 32.9679
G1 X-70.6374
G1 Y 32.9425
G1 X-70.5866
G1 Y 32.9171
G1 X-70.5612
G1 Y 32.8917
G1 X-70.5104
G1 Y 32.8663
G1 X-70.4596
G1 Y 32.8409
G1 X-70.4342
G1 Y 32.8155
G1 X-70.3834
G1 Y 32.7901
G1 X-70.3326
G1 Y 32.3583
G1 X-70.3072
G1 Y 32.2821
G1 X-70.2818
G1 Y 32.2567
G1 X-70.2564
G1 Y 32.2059
G1 X-70.2310
G1 Y 32.1805
G1 X-70.2056
G1 Y 32.1551
G1 X-70.1802
G1 Y 32.1297
G1 X-70.1548
G1 Y 32.1043
G1 X-70.1294
G1 Y 32.0789
G1 X-70.1040
G1 Y 32.0535
G1 X-70.0786
G1 Y 32.0281
G1 X-70.0532
G1 Y 32.0027
G1 X-70.0278
G1 Y 31.9773
G1 X-70.0024
G1 Y 31.9519
G1 X-69.9770
G1 Y 31.9265
G1 X-69.9262
G1 Y 31.9011
G1 X-69.9008
G1 Y 31.8757
G1 X-69.8754
G1 Y 31.8503
G1 X-69.8500
G1 Y 31.8249
G1 X-69.8246
G1 Y 31.7995
G1 X-69.7992
G1 Y 31.7741
G1 X-69.7738
G1 Y 31.7487
G1 X-69.7484
G1 Y 31.7233
G1 X-69.7230
G1 Y 31.6979
G1 X-69.6976
G1 Y 31.6725
G1 X-69.6722
G1 Y 31.6471
G1 X-69.6468
G1 Y 31.6217
G1 X-69.6214
G1 Y 31.5963
G1 X-69.5960
G1 Y 31.5709
G1 X-69.5706
G1 Y 31.5455
G1 X-69.5452
G1 Y 31.5201
G1 X-69.5198
G1 Y 31.4947
G1 X-69.4944
G1 Y 31.4693
G1 X-69.4690
G1 Y 31.4439
G1 X-69.4436
G1 Y 31.4185
G1 X-69.4182
G1 Y 31.3931
G1 X-69.3928
G1 Y 31.3677
G1 X-69.3674
G1 Y 31.3423
G1 X-69.3420
G1 Y 31.3169
G1 X-69.3166
G1 Y 31.2915
G1 X-69.2912
G1 Y 31.2661
G1 X-69.2658
G1 Y 31.2407
G1 X-69.2404
G1 Y 31.2153
G1 X-69.2150
G1 Y 31.1899
G1 X-69.1896
G1 Y 31.1645
G1 X-69.1642
G1 Y 31.1391
G1 X-69.1388
G1 Y 31.1137
G1 X-69.1134
G1 Y 31.0883
G1 X-69.0880
G1 Y 31.0629
G1 X-69.0626
G1 Y 31.0375
G1 X-69.0372
G1 Y 31.0121
G1 X-69.0118
G1 Y 30.9867
G1 X-68.9864
G1 Y 30.9613
G1 X-68.9610
G1 Y 30.9359
G1 X-68.9356
G1 Y 30.9105
G1 X-68.9102
G1 Y 30.8851
G1 X-68.8848
G1 Y 30.8597
G1 X-68.8594
G1 Y 30.8343
G1 X-68.8340
G1 Y 30.8089
G1 X-68.8086
G1 Y 30.7835
G1 X-68.7832
G1 Y 30.7581
G1 X-68.7578
G1 Y 30.7327
G1 X-68.7324
G1 Y 30.7073
G1 X-68.7070
G1 Y 30.6819
G1 X-68.6816
G1 Y 30.6565
G1 X-68.6562
G1 Y 30.6311
G1 X-68.6308
G1 Y 30.6057
G1 X-68.6054
G1 Y 30.5803
G1 X-68.5800
G1 Y 30.5549
G1 X-68.5546
G1 Y 30.5295
G1 X-68.5292
G1 Y 30.5041
G1 X-68.5038
G1 Y 30.4787
G1 X-68.4784
G1 Y 30.4533
G1 X-68.4530
G1 Y 30.4279
G1 X-68.4276
G1 Y 30.4025
G1 X-68.4022
G1 Y 30.3771
G1 X-68.3768
G1 Y 30.3517
G1 X-68.3514
G1 Y 30.3263
G1 X-68.3260
G1 Y 30.3009
G1 X-68.3006
G1 Y 30.2755
G1 X-68.2752
G1 Y 30.2501
G1 X-68.2498
G1 Y 30.2247
G1 X-68.2244
G1 Y 30.1993
G1 X-68.1990
G1 Y 30.1739
G1 X-68.1736
G1 Y 30.1485
G1 X-68.1482
G1 Y 30.1231
G1 X-68.1228
G1 Y 30.0977
G1 X-68.0720
G1 Y 30.0723
G1 X-68.0212
G1 Y 30.0469
G1 X-61.1886
G1 Y 27.5831
G1 X-61.1632
G1 Y 27.5069
G1 X-61.1378
G1 Y 27.4815
G1 X-61.1124
G1 Y 27.4307
G1 X-61.0870
G1 Y 27.4053
G1 X-61.0616
G1 Y 27.3799
G1 X-61.0362
G1 Y 27.3545
G1 X-61.0108
G1 Y 27.3291
G1 X-60.9854
G1 Y 27.3037
G1 X-60.9600
G1 Y 27.2783
G1 X-60.9346
G1 Y 27.2529
G1 X-60.9092
G1 Y 27.2275
G1 X-60.8838
G1 Y 27.2021
G1 X-60.8584
G1 Y 27.1767
G1 X-60.8330
G1 Y 27.1513
G1 X-60.8076
G1 Y 27.1259
G1 X-60.7822
G1 Y 27.1005
G1 X-60.7568
G1 Y 27.0751
G1 X-60.7314
G1 Y 27.0497
G1 X-60.7060
G1 Y 27.0243
G1 X-60.6806
G1 Y 26.9989
G1 X-60.6552
G1 Y 26.9735
G1 X-60.6298
G1 Y 26.9481
G1 X-60.6044
G1 Y 26.9227
G1 X-60.5790
G1 Y 26.8973
G1 X-60.5536
G1 Y 26.8719
G1 X-60.5282
G1 Y 26.8465
G1 X-60.5028
G1 Y 26.8211
G1 X-60.4774
G1 Y 26.7957
G1 X-60.4520
G1 Y 26.7703
G1 X-60.4266
G1 Y 26.7449
G1 X-60.4012
G1 Y 26.7195
G1 X-60.3758
G1 Y 26.6941
G1 X-60.3504
G1 Y 26.6687
G1 X-60.3250
G1 Y 26.6433
G1 X-60.2996
G1 Y 26.6179
G1 X-60.2742
G1 Y 26.5925
G1 X-60.2488
G1 Y 26.5671
G1 X-62.9666
G1 Y 26.6179
G1 X-62.9920
G1 Y 26.6941
G1 X-63.0174
G1 Y 26.7195
G1 X-63.0428
G1 Y 26.7449
G1 X-63.0682
G1 Y 26.7957
G1 X-63.0936
G1 Y 26.8211
G1 X-63.1190
G1 Y 26.8465
G1 X-63.1444
G1 Y 26.8973
G1 X-63.1698
G1 Y 26.9227
G1 X-63.1952
G1 Y 26.9481
G1 X-63.2460
G1 Y 26.9735
G1 X-63.2714
G1 Y 26.9989
G1 X-63.3222
G1 Y 27.0243
G1 X-63.3730
G1 Y 27.0497
G1 X-63.3984
G1 Y 27.0751
G1 X-63.4492
G1 Y 27.1005
G1 X-63.6016
G1 Y 27.1259
G1 X-64.3890
G1 Y 27.1005
G1 X-64.5414
G1 Y 27.0751
G1 X-64.5922
G1 Y 27.0497
G1 X-64.6176
G1 Y 27.0243
G1 X-64.6684
G1 Y 26.9989
G1 X-64.7192
G1 Y 26.9735
G1 X-64.7446
G1 Y 26.9481
G1 X-64.7954
G1 Y 26.9227
G1 X-64.8208
G1 Y 26.8973
G1 X-64.8462
G1 Y 26.8465
G1 X-64.8716
G1 Y 26.8211
G1 X-64.8970
G1 Y 26.7957
G1 X-64.9224
G1 Y 26.7449
G1 X-64.9478
G1 Y 26.7195
G1 X-64.9732
G1 Y 26.6687
G1 X-64.9986
G1 Y 26.6179
G1 X-65.0240
G1 Y 26.5163
G1 X-65.0494
G1 Y 25.6273
G1 X-65.0240
G1 Y 25.5257
G1 X-64.9986
G1 Y 25.4749
G1 X-64.9732
G1 Y 25.4241
G1 X-64.9478
G1 Y 25.3987
G1 X-64.9224
G1 Y 25.3479
G1 X-64.8970
G1 Y 25.3225
G1 X-64.8716
G1 Y 25.2971
G1 X-64.8462
G1 Y 25.2463
G1 X-64.8208
G1 Y 25.2209
G1 X-64.7954
G1 Y 25.1955
G1 X-64.7446
G1 Y 25.1701
G1 X-64.7192
G1 Y 25.1447
G1 X-64.6684
G1 Y 25.1193
G1 X-64.6176
G1 Y 25.0939
G1 X-64.5922
G1 Y 25.0685
G1 X-64.5414
G1 Y 25.0431
G1 X-64.3890
G1 Y 25.0177
G1 X-63.6016
G1 Y 25.0431
G1 X-63.4492
G1 Y 25.0685
G1 X-63.3984
G1 Y 25.0939
G1 X-63.3730
G1 Y 25.1193
G1 X-63.3222
G1 Y 25.1447
G1 X-63.2714
G1 Y 25.1701
G1 X-63.2460
G1 Y 25.1955
G1 X-63.1952
G1 Y 25.2209
G1 X-63.1698
G1 Y 25.2463
G1 X-63.1444
G1 Y 25.2971
G1 X-63.1190
G1 Y 25.3225
G1 X-63.0936
G1 Y 25.3479
G1 X-63.0682
G1 Y 25.3987
G1 X-63.0428
G1 Y 25.4241
G1 X-63.0174
G1 Y 25.4495
G1 X-62.9920
G1 Y 25.5257
G1 X-62.9666
G1 Y 25.5765
G1 X-59.9440
G1 Y 25.5257
G1 X-59.9186
G1 Y 25.4749
G1 X-59.8932
G1 Y 25.4241
G1 X-59.8678
G1 Y 25.3987
G1 X-59.8424
G1 Y 25.3479
G1 X-59.8170
G1 Y 25.3225
G1 X-59.7916
G1 Y 25.2971
G1 X-59.7662
G1 Y 25.2463
G1 X-59.7408
G1 Y 25.2209
G1 X-59.7154
G1 Y 25.1955
G1 X-59.6646
G1 Y 25.1701
G1 X-59.6392
G1 Y 25.1447
G1 X-59.5884
G1 Y 25.1193
G1 X-59.5376
G1 Y 25.0939
G1 X-59.5122
G1 Y 25.0685
G1 X-59.4614
G1 Y 25.0431
G1 X-59.3090
G1 Y 25.0177
G1 X-58.5216
G1 Y 25.0431
G1 X-58.3692
G1 Y 25.0685
G1 X-58.3184
G1 Y 25.0939
G1 X-58.2930
G1 Y 25.1193
G1 X-58.2422
G1 Y 25.1447
G1 X-58.1914
G1 Y 25.1701
G1 X-58.1660
G1 Y 25.1955
G1 X-58.1152
G1 Y 25.2209
G1 X-58.0898
G1 Y 25.2463
G1 X-58.0644
G1 Y 25.2971
G1 X-58.0390
G1 Y 25.3225
G1 X-58.0136
G1 Y 25.3479
G1 X-57.9882
G1 Y 25.3987
G1 X-57.9628
G1 Y 25.4241
G1 X-57.9374
G1 Y 25.4495
G1 X-57.9120
G1 Y 25.5257
G1 X-57.8866
G1 Y 25.6273
G1 X-57.8612
G1 Y 26.2877
G1 X-57.8358
G1 Y 26.3131
G1 X-57.8104
G1 Y 26.3385
G1 X-57.7850
G1 Y 26.3639
G1 X-57.7596
G1 Y 26.3893
G1 X-57.7342
G1 Y 26.4147
G1 X-57.7088
G1 Y 26.4401
G1 X-57.6834
G1 Y 26.4655
G1 X-57.6580
G1 Y 26.4909
G1 X-57.6326
G1 Y 26.5163
G1 X-57.6072
G1 Y 26.5417
G1 X-57.5818
G1 Y 26.5671
G1 X-57.5564
G1 Y 26.5925
G1 X-57.5310
G1 Y 26.6179
G1 X-57.5056
G1 Y 26.6433
G1 X-57.4802
G1 Y 26.6687
G1 X-57.4548
G1 Y 26.6941
G1 X-57.4294
G1 Y 26.7195
G1 X-57.4040
G1 Y 26.7449
G1 X-57.3786
G1 Y 26.7703
G1 X-57.3532
G1 Y 26.7957
G1 X-57.3278
G1 Y 26.8211
G1 X-57.3024
G1 Y 26.8465
G1 X-57.2770
G1 Y 26.8719
G1 X-57.2516
G1 Y 26.8973
G1 X-57.2262
G1 Y 26.9227
G1 X-57.2008
G1 Y 26.9481
G1 X-57.1754
G1 Y 26.9735
G1 X-57.1500
G1 Y 26.9989
G1 X-57.1246
G1 Y 27.0243
G1 X-54.3560
G1 Y 26.9989
G1 X-54.3306
G1 Y 26.9735
G1 X-54.3052
G1 Y 26.9481
G1 X-54.2798
G1 Y 26.9227
G1 X-54.2544
G1 Y 26.8973
G1 X-54.2290
G1 Y 26.8719
G1 X-54.2036
G1 Y 26.8465
G1 X-54.1782
G1 Y 26.8211
G1 X-54.1528
G1 Y 26.7957
G1 X-54.1274
G1 Y 26.7703
G1 X-54.1020
G1 Y 26.7449
G1 X-54.0766
G1 Y 26.7195
G1 X-54.0512
G1 Y 26.6941
G1 X-54.0258
G1 Y 26.6687
G1 X-54.0004
G1 Y 26.6433
G1 X-53.9750
G1 Y 26.6179
G1 X-53.9496
G1 Y 26.5925
G1 X-53.9242
G1 Y 26.5671
G1 X-53.8988
G1 Y 26.5417
G1 X-53.8734
G1 Y 26.5163
G1 X-53.8480
G1 Y 26.4909
G1 X-53.8226
G1 Y 26.4655
G1 X-53.7972
G1 Y 26.4401
G1 X-53.7718
G1 Y 26.4147
G1 X-53.7464
G1 Y 26.3893
G1 X-53.7210
G1 Y 26.3639
G1 X-53.6956
G1 Y 26.3385
G1 X-53.6702
G1 Y 26.3131
G1 X-53.6448
G1 Y 26.2877
G1 X-53.6194
G1 Y 25.6273
G1 X-53.5940
G1 Y 25.5257
G1 X-53.5686
G1 Y 25.4749
G1 X-53.5432
G1 Y 25.4241
G1 X-53.5178
G1 Y 25.3987
G1 X-53.4924
G1 Y 25.3479
G1 X-53.4670
G1 Y 25.3225
G1 X-53.4416
G1 Y 25.2971
G1 X-53.4162
G1 Y 25.2463
G1 X-53.3908
G1 Y 25.2209
G1 X-53.3654
G1 Y 25.1955
G1 X-53.3146
G1 Y 25.1701
G1 X-53.2892
G1 Y 25.1447
G1 X-53.2384
G1 Y 25.1193
G1 X-53.1876
G1 Y 25.0939
G1 X-53.1622
G1 Y 25.0685
G1 X-53.1114
G1 Y 25.0431
G1 X-52.9590
G1 Y 25.0177
G1 X-52.1716
G1 Y 25.0431
G1 X-52.0192
G1 Y 25.0685
G1 X-51.9684
G1 Y 25.0939
G1 X-51.9430
G1 Y 25.1193
G1 X-51.8922
G1 Y 25.1447
G1 X-51.8414
G1 Y 25.1701
G1 X-51.8160
G1 Y 25.1955
G1 X-51.7652
G1 Y 25.2209
G1 X-51.7398
G1 Y 25.2463
G1 X-51.7144
G1 Y 25.2971
G1 X-51.6890
G1 Y 25.3225
G1 X-51.6636
G1 Y 25.3479
G1 X-51.6382
G1 Y 25.3987
G1 X-51.6128
G1 Y 25.4241
G1 X-51.5874
G1 Y 25.4495
G1 X-51.5620
G1 Y 25.5257
G1 X-51.5366
G1 Y 25.5765
G1 X-48.5140
G1 Y 25.5257
G1 X-48.4886
G1 Y 25.4749
G1 X-48.4632
G1 Y 25.4241
G1 X-48.4378
G1 Y 25.3987
G1 X-48.4124
G1 Y 25.3479
G1 X-48.3870
G1 Y 25.3225
G1 X-48.3616
G1 Y 25.2971
G1 X-48.3362
G1 Y 25.2463
G1 X-48.3108
G1 Y 25.2209
G1 X-48.2854
G1 Y 25.1955
G1 X-48.2346
G1 Y 25.1701
G1 X-48.2092
G1 Y 25.1447
G1 X-48.1584
G1 Y 25.1193
G1 X-48.1076
G1 Y 25.0939
G1 X-48.0822
G1 Y 25.0685
G1 X-48.0314
G1 Y 25.0431
G1 X-47.8790
G1 Y 25.0177
G1 X-47.0916
G1 Y 25.0431
G1 X-46.9392
G1 Y 25.0685
G1 X-46.8884
G1 Y 25.0939
G1 X-46.8630
G1 Y 25.1193
G1 X-46.8122
G1 Y 25.1447
G1 X-46.7614
G1 Y 25.1701
G1 X-46.7360
G1 Y 25.1955
G1 X-46.6852
G1 Y 25.2209
G1 X-46.6598
G1 Y 25.2463
G1 X-46.6344
G1 Y 25.2971
G1 X-46.6090
G1 Y 25.3225
G1 X-46.5836
G1 Y 25.3479
G1 X-46.5582
G1 Y 25.3987
G1 X-46.5328
G1 Y 25.4241
G1 X-46.5074
G1 Y 25.4495
G1 X-46.4820
G1 Y 25.5257
G1 X-46.4566
G1 Y 25.6273
G1 X-46.4312
G1 Y 26.5417
G1 X-46.4566
G1 Y 26.6179
G1 X-46.4820
G1 Y 26.6941
G1 X-46.5074
G1 Y 26.7195
G1 X-46.5328
G1 Y 26.7449
G1 X-46.5582
G1 Y 26.7957
G1 X-46.5836
G1 Y 26.8211
G1 X-46.6090
G1 Y 26.8465
G1 X-46.6344
G1 Y 26.8973
G1 X-46.6598
G1 Y 26.9227
G1 X-46.6852
G1 Y 26.9481
G1 X-46.7360
G1 Y 26.9735
G1 X-46.7614
G1 Y 26.9989
G1 X-46.8122
G1 Y 27.0243
G1 X-46.8630
G1 Y 27.0497
G1 X-46.8884
G1 Y 27.0751
G1 X-46.9392
G1 Y 27.1005
G1 X-47.0916
G1 Y 27.1259
G1 X-47.7012
G1 Y 27.1513
G1 X-47.7266
G1 Y 27.1767
G1 X-47.7520
G1 Y 27.2021
G1 X-47.7774
G1 Y 27.2275
G1 X-47.8028
G1 Y 27.2529
G1 X-47.8282
G1 Y 27.2783
G1 X-47.8536
G1 Y 27.3037
G1 X-47.8790
G1 Y 27.3291
G1 X-47.9044
G1 Y 27.3545
G1 X-47.9298
G1 Y 27.3799
G1 X-47.9552
G1 Y 27.4053
G1 X-47.9806
G1 Y 27.4307
G1 X-48.0060
G1 Y 27.4561
G1 X-48.0314
G1 Y 27.4815
G1 X-48.0568
G1 Y 27.5069
G1 X-48.0822
G1 Y 27.5323
G1 X-48.1076
G1 Y 27.5577
G1 X-48.1330
G1 Y 27.5831
G1 X-48.1584
G1 Y 27.6085
G1 X-48.1838
G1 Y 27.6339
G1 X-48.2092
G1 Y 27.6593
G1 X-48.2346
G1 Y 27.6847
G1 X-48.2600
G1 Y 27.7101
G1 X-48.2854
G1 Y 27.7355
G1 X-48.3108
G1 Y 27.7609
G1 X-48.3362
G1 Y 27.7863
G1 X-48.3616
G1 Y 27.8117
G1 X-48.3870
G1 Y 27.8371
G1 X-48.4124
G1 Y 27.8625
G1 X-48.4378
G1 Y 27.8879
G1 X-48.4632
G1 Y 27.9133
G1 X-48.4886
G1 Y 27.9387
G1 X-48.5140
G1 Y 27.9641
G1 X-48.5394
G1 Y 27.9895
G1 X-48.5648
G1 Y 28.0149
G1 X-48.5902
G1 Y 28.0403
G1 X-48.6156
G1 Y 28.0657
G1 X-48.6410
G1 Y 28.0911
G1 X-48.6664
G1 Y 28.1165
G1 X-48.6918
G1 Y 28.1419
G1 X-48.7172
G1 Y 28.1673
G1 X-48.7426
G1 Y 28.1927
G1 X-48.7680
G1 Y 28.2181
G1 X-48.7934
G1 Y 28.2435
G1 X-48.8188
G1 Y 28.2689
G1 X-48.8442
G1 Y 28.2943
G1 X-48.8696
G1 Y 28.3197
G1 X-48.8950
G1 Y 28.3451
G1 X-48.9204
G1 Y 28.3705
G1 X-48.9458
G1 Y 28.3959
G1 X-48.9712
G1 Y 28.4213
G1 X-48.9966
G1 Y 28.4467
G1 X-49.0220
G1 Y 28.4721
G1 X-49.0474
G1 Y 28.4975
G1 X-49.0728
G1 Y 28.5229
G1 X-49.0982
G1 Y 28.5483
G1 X-49.1236
G1 Y 28.5737
G1 X-49.1490
G1 Y 28.5991
G1 X-49.1744
G1 Y 28.6245
G1 X-49.1998
G1 Y 28.6499
G1 X-49.2252
G1 Y 28.6753
G1 X-49.2506
G1 Y 28.7007
G1 X-49.2760
G1 Y 28.7261
G1 X-49.3014
G1 Y 28.7515
G1 X-49.3268
G1 Y 28.7769
G1 X-49.3522
G1 Y 28.8023
G1 X-49.3776
G1 Y 28.8277
G1 X-49.4030
G1 Y 28.8531
G1 X-49.4284
G1 Y 28.8785
G1 X-49.4538
G1 Y 28.9039
G1 X-49.4792
G1 Y 28.9293
G1 X-49.5046
G1 Y 28.9547
G1 X-49.5300
G1 Y 30.8089
G1 X-49.5046
G1 Y 30.8343
G1 X-49.4792
G1 Y 30.8597
G1 X-49.4538
G1 Y 30.8851
G1 X-49.4284
G1 Y 30.9105
G1 X-49.4030
G1 Y 30.9359
G1 X-49.3776
G1 Y 30.9613
G1 X-49.3522
G1 Y 30.9867
G1 X-49.3268
G1 Y 31.0121
G1 X-49.3014
G1 Y 31.0375
G1 X-49.2760
G1 Y 31.0629
G1 X-49.2506
G1 Y 31.0883
G1 X-49.2252
G1 Y 31.1137
G1 X-49.1998
G1 Y 31.1391
G1 X-49.1744
G1 Y 31.1645
G1 X-49.1490
G1 Y 31.1899
G1 X-49.1236
G1 Y 31.2153
G1 X-49.0982
G1 Y 31.2407
G1 X-49.0728
G1 Y 31.2661
G1 X-49.0474
G1 Y 31.2915
G1 X-49.0220
G1 Y 31.3169
G1 X-48.9966
G1 Y 31.3423
G1 X-48.9712
G1 Y 31.3677
G1 X-48.9458
G1 Y 31.3931
G1 X-48.9204
G1 Y 31.4185
G1 X-48.8950
G1 Y 31.4439
G1 X-48.8696
G1 Y 31.4693
G1 X-48.8442
G1 Y 31.4947
G1 X-48.8188
G1 Y 31.5201
G1 X-48.7934
G1 Y 31.5455
G1 X-48.7680
G1 Y 31.5709
G1 X-48.7426
G1 Y 31.5963
G1 X-48.7172
G1 Y 31.6217
G1 X-48.6918
G1 Y 31.6471
G1 X-48.6664
G1 Y 31.6725
G1 X-48.6410
G1 Y 31.6979
G1 X-48.6156
G1 Y 31.7233
G1 X-48.5902
G1 Y 31.7487
G1 X-48.5648
G1 Y 31.7741
G1 X-48.5394
G1 Y 31.7995
G1 X-48.5140
G1 Y 31.8249
G1 X-48.4886
G1 Y 31.8503
G1 X-48.4632
G1 Y 31.8757
G1 X-48.4378
G1 Y 31.9011
G1 X-48.4124
G1 Y 31.9265
G1 X-48.3870
G1 Y 31.9519
G1 X-48.3616
G1 Y 31.9773
G1 X-48.3362
G1 Y 32.0027
G1 X-48.3108
G1 Y 32.0281
G1 X-48.2854
G1 Y 32.0535
G1 X-48.2600
G1 Y 32.0789
G1 X-48.2346
G1 Y 32.1043
G1 X-48.2092
G1 Y 32.1297
G1 X-48.1838
G1 Y 32.1551
G1 X-48.1584
G1 Y 32.1805
G1 X-48.1330
G1 Y 32.2059
G1 X-48.1076
G1 Y 32.2313
G1 X-48.0822
G1 Y 32.2567
G1 X-48.0568
G1 Y 32.2821
G1 X-48.0314
G1 Y 32.3075
G1 X-48.0060
G1 Y 32.3329
G1 X-47.9806
G1 Y 32.3583
G1 X-47.9552
G1 Y 32.3837
G1 X-47.9298
G1 Y 32.4091
G1 X-47.9044
G1 Y 32.4345
G1 X-47.8790
