( pcb2gcode 1.1.4 )

G94     ( Inches per minute feed rate. )
G20     ( Units == INCHES.             )
G90     ( Absolute coordinates.        )
S6000  ( RPM spindle speed.           )
M3      ( Spindle on clockwise.        )

G64 P0.00500 ( set maximum deviation from commanded toolpath )

G04 P0 ( dwell for no time -- G64 should not smooth over this point )
G00 Z0.03937 ( retract )

G00 X-1.95600 Y2.73595 ( rapid move to begin. )
G01 Z-0.00394 F3.93701 ( plunge. )
G04 P0 ( dwell for no time -- G64 should not smooth over this point )
X-1.95600 Y2.73595
X-1.95700 Y2.73595
X-1.95700 Y2.73495
X-1.95800 Y2.73495
X-1.95800 Y2.73395
X-1.95900 Y2.73395
X-1.95900 Y2.73295
X-1.96000 Y2.73295
X-1.96000 Y2.73195
X-1.96100 Y2.73195
X-1.96100 Y2.73095
X-1.96200 Y2.73095
X-1.96200 Y2.72995
X-1.96300 Y2.72995
X-1.96300 Y2.72895
X-1.96400 Y2.72895
X-1.96400 Y2.72795
X-1.96500 Y2.72795
X-1.96500 Y2.72695
X-1.96600 Y2.72695
X-1.96600 Y2.72595
X-1.96700 Y2.72595
X-1.96700 Y2.72495
X-1.96800 Y2.72495
X-1.96800 Y2.72395
X-1.96900 Y2.72395
X-1.96900 Y2.72295
X-1.97000 Y2.72295
X-1.97000 Y2.72195
X-1.97100 Y2.72195
X-1.97100 Y2.72095
X-1.97200 Y2.72095
X-1.97200 Y2.71995
X-1.97300 Y2.71995
X-1.97300 Y2.71895
X-1.97400 Y2.71895
X-1.97400 Y2.71795
X-1.97500 Y2.71795
X-1.97500 Y2.71695
X-1.97600 Y2.71695
X-1.97600 Y2.71595
X-1.97700 Y2.71595
X-1.97700 Y2.71495
X-1.97800 Y2.71495
X-1.97800 Y2.71395
X-1.97900 Y2.71395
X-1.97900 Y2.71295
X-1.98000 Y2.71295
X-1.98000 Y2.71195
X-1.98100 Y2.71195
X-1.98100 Y2.71095
X-1.98200 Y2.71095
X-1.98200 Y2.70995
X-1.98300 Y2.70995
X-1.98300 Y2.70895
X-1.98400 Y2.70895
X-1.98400 Y2.70795
X-1.98500 Y2.70795
X-1.98500 Y2.70695
X-1.98600 Y2.70695
X-1.98600 Y2.70595
X-1.98700 Y2.70595
X-1.98700 Y2.70495
X-1.98800 Y2.70495
X-1.98800 Y2.70395
X-1.98900 Y2.70395
X-1.98900 Y2.70295
X-1.99000 Y2.70295
X-1.99000 Y2.70195
X-1.99100 Y2.70195
X-1.99100 Y2.70095
X-1.99200 Y2.70095
X-1.99200 Y2.69995
X-1.99300 Y2.69995
X-1.99300 Y2.69895
X-1.99400 Y2.69895
X-1.99400 Y2.69795
X-1.99500 Y2.69795
X-1.99500 Y2.69695
X-1.99600 Y2.69695
X-1.99600 Y2.69595
X-1.99700 Y2.69595
X-1.99700 Y2.69495
X-1.99800 Y2.69495
X-1.99800 Y2.69395
X-1.99900 Y2.69395
X-1.99900 Y2.69295
X-2.00000 Y2.69295
X-2.00000 Y2.69195
X-2.00100 Y2.69195
X-2.00100 Y2.69095
X-2.00200 Y2.69095
X-2.00200 Y2.68995
X-2.00300 Y2.68995
X-2.00300 Y2.68895
X-2.00400 Y2.68895
X-2.00400 Y2.68795
X-2.00500 Y2.68795
X-2.00500 Y2.68695
X-2.00600 Y2.68695
X-2.00600 Y2.68595
X-2.00700 Y2.68595
X-2.00700 Y2.68495
X-2.00800 Y2.68495
X-2.00800 Y2.68395
X-2.00900 Y2.68395
X-2.00900 Y2.68295
X-2.01000 Y2.68295
X-2.01000 Y2.68195
X-2.01100 Y2.68195
X-2.01100 Y2.68095
X-2.01200 Y2.68095
X-2.01200 Y2.67995
X-2.01300 Y2.67995
X-2.01300 Y2.67895
X-2.01400 Y2.67895
X-2.01400 Y2.67795
X-2.01500 Y2.67795
X-2.01500 Y2.67695
X-2.01600 Y2.67695
X-2.01600 Y2.67595
X-2.01700 Y2.67595
X-2.01700 Y2.67495
X-2.01800 Y2.67495
X-2.01800 Y2.67395
X-2.01900 Y2.67395
X-2.01900 Y2.67295
X-2.02000 Y2.67295
X-2.02000 Y2.67195
X-2.02100 Y2.67195
X-2.02100 Y2.67095
X-2.02200 Y2.67095
X-2.02200 Y2.66995
X-2.02300 Y2.66995
X-2.02300 Y2.66895
X-2.02400 Y2.66895
X-2.02400 Y2.66795
X-2.02500 Y2.66795
X-2.02500 Y2.66695
X-2.02600 Y2.66695
X-2.02600 Y2.66595
X-2.02700 Y2.66595
X-2.02700 Y2.66495
X-2.02800 Y2.66495
X-2.02800 Y2.66395
X-2.02900 Y2.66395
X-2.02900 Y2.66295
X-2.03000 Y2.66295
X-2.03000 Y2.66195
X-2.03100 Y2.66195
X-2.03100 Y2.66095
X-2.03200 Y2.66095
X-2.03200 Y2.65995
X-2.03300 Y2.65995
X-2.03300 Y2.65895
X-2.03400 Y2.65895
X-2.03400 Y2.65795
X-2.03500 Y2.65795
X-2.03500 Y2.65695
X-2.03600 Y2.65695
X-2.03600 Y2.65595
X-2.03700 Y2.65595
X-2.03700 Y2.65495
X-2.03800 Y2.65495
X-2.03800 Y2.65395
X-2.03900 Y2.65395
X-2.03900 Y2.65295
X-2.04000 Y2.65295
X-2.04000 Y2.65195
X-2.04100 Y2.65195
X-2.04100 Y2.65095
X-2.04200 Y2.65095
X-2.04200 Y2.64995
X-2.04300 Y2.64995
X-2.04300 Y2.64895
X-2.04400 Y2.64895
X-2.04400 Y2.64795
X-2.04500 Y2.64795
X-2.04500 Y2.64695
X-2.04600 Y2.64695
X-2.04600 Y2.64595
X-2.04700 Y2.64595
X-2.04700 Y2.64495
X-2.04800 Y2.64495
X-2.04800 Y2.64395
X-2.04900 Y2.64395
X-2.04900 Y2.64295
X-2.05000 Y2.64295
X-2.05000 Y2.64195
X-2.05100 Y2.64195
X-2.05100 Y2.64095
X-2.05200 Y2.64095
X-2.05200 Y2.63995
X-2.05300 Y2.63995
X-2.05300 Y2.63895
X-2.05400 Y2.63895
X-2.05400 Y2.63795
X-2.05500 Y2.63795
X-2.05500 Y2.63595
X-2.05600 Y2.63595
X-2.05600 Y2.63495
X-2.05700 Y2.63495
X-2.05700 Y2.63195
X-2.05800 Y2.63195
X-2.05800 Y2.60895
X-2.06100 Y2.60895
X-2.06100 Y2.60795
X-2.06500 Y2.60795
X-2.06500 Y2.60695
X-2.06700 Y2.60695
X-2.06700 Y2.60595
X-2.07000 Y2.60595
X-2.07000 Y2.60495
X-2.07200 Y2.60495
X-2.07200 Y2.60395
X-2.07400 Y2.60395
X-2.07400 Y2.60295
X-2.07500 Y2.60295
X-2.07500 Y2.60195
X-2.07700 Y2.60195
X-2.07700 Y2.60095
X-2.07800 Y2.60095
X-2.07800 Y2.59995
X-2.08000 Y2.59995
X-2.08000 Y2.59895
X-2.08100 Y2.59895
X-2.08100 Y2.59795
X-2.08200 Y2.59795
X-2.08200 Y2.59695
X-2.08300 Y2.59695
X-2.08300 Y2.59595
X-2.08400 Y2.59595
X-2.08400 Y2.59495
X-2.08500 Y2.59495
X-2.08500 Y2.59395
X-2.08600 Y2.59395
X-2.08600 Y2.59295
X-2.08700 Y2.59295
X-2.08700 Y2.59195
X-2.08800 Y2.59195
X-2.08800 Y2.58995
X-2.08900 Y2.58995
X-2.08900 Y2.58895
X-2.09000 Y2.58895
X-2.09000 Y2.58695
X-2.09100 Y2.58695
X-2.09100 Y2.58495
X-2.09200 Y2.58495
X-2.09200 Y2.58295
X-2.09300 Y2.58295
X-2.09300 Y2.58095
X-2.09400 Y2.58095
X-2.09400 Y2.57795
X-2.09500 Y2.57795
X-2.09500 Y2.57395
X-2.09600 Y2.57395
X-2.09600 Y2.56795
X-2.09700 Y2.56795
X-2.09700 Y2.53495
X-2.09600 Y2.53495
X-2.09600 Y2.52895
X-2.09500 Y2.52895
X-2.09500 Y2.52495
X-2.09400 Y2.52495
X-2.09400 Y2.52195
X-2.09300 Y2.52195
X-2.09300 Y2.51995
X-2.09200 Y2.51995
X-2.09200 Y2.51795
X-2.09100 Y2.51795
X-2.09100 Y2.51595
X-2.09000 Y2.51595
X-2.09000 Y2.51395
X-2.08900 Y2.51395
X-2.08900 Y2.51295
X-2.08800 Y2.51295
X-2.08800 Y2.51095
X-2.08700 Y2.51095
X-2.08700 Y2.50995
X-2.08600 Y2.50995
X-2.08600 Y2.50895
X-2.08500 Y2.50895
X-2.08500 Y2.50795
X-2.08400 Y2.50795
X-2.08400 Y2.50695
X-2.08300 Y2.50695
X-2.08300 Y2.50595
X-2.08200 Y2.50595
X-2.08200 Y2.50495
X-2.08100 Y2.50495
X-2.08100 Y2.50395
X-2.08000 Y2.50395
X-2.08000 Y2.50295
X-2.07800 Y2.50295
X-2.07800 Y2.50195
X-2.07700 Y2.50195
X-2.07700 Y2.50095
X-2.07500 Y2.50095
X-2.07500 Y2.49995
X-2.07400 Y2.49995
X-2.07400 Y2.49895
X-2.07200 Y2.49895
X-2.07200 Y2.49795
X-2.07000 Y2.49795
X-2.07000 Y2.49695
X-2.06700 Y2.49695
X-2.06700 Y2.49595
X-2.06500 Y2.49595
X-2.06500 Y2.49495
X-2.06100 Y2.49495
X-2.06100 Y2.49395
X-2.05600 Y2.49395
X-2.05600 Y2.49295
X-2.02100 Y2.49295
X-2.02100 Y2.49395
X-2.01600 Y2.49395
X-2.01600 Y2.49495
X-2.01400 Y2.49495
X-2.01400 Y2.49395
X-2.01300 Y2.49395
X-2.01300 Y2.49295
X-2.01200 Y2.49295
X-2.01200 Y2.49195
X-2.01100 Y2.49195
X-2.01100 Y2.49095
X-2.01000 Y2.49095
X-2.01000 Y2.48995
X-2.00900 Y2.48995
X-2.00900 Y2.48895
X-2.00800 Y2.48895
X-2.00800 Y1.32795
X-2.00900 Y1.32795
X-2.00900 Y1.32695
X-2.01000 Y1.32695
X-2.01000 Y1.32595
X-2.01100 Y1.32595
X-2.01100 Y1.32495
X-2.01200 Y1.32495
X-2.01200 Y1.32395
X-2.01300 Y1.32395
X-2.01300 Y1.32295
X-2.01400 Y1.32295
X-2.01400 Y1.32195
X-2.01500 Y1.32195
X-2.01500 Y1.32095
X-2.01600 Y1.32095
X-2.01600 Y1.31995
X-2.01700 Y1.31995
X-2.01700 Y1.31895
X-2.01800 Y1.31895
X-2.01800 Y1.31795
X-2.01900 Y1.31795
X-2.01900 Y1.31695
X-2.02000 Y1.31695
X-2.02000 Y1.31595
X-2.02100 Y1.31595
X-2.02100 Y1.31495
X-2.02200 Y1.31495
X-2.02200 Y1.31395
X-2.02300 Y1.31395
X-2.02300 Y1.31295
X-2.02400 Y1.31295
X-2.02400 Y1.31195
X-2.02500 Y1.31195
X-2.02500 Y1.31095
X-2.02600 Y1.31095
X-2.02600 Y1.30995
X-2.02700 Y1.30995
X-2.02700 Y1.30895
X-2.02800 Y1.30895
X-2.02800 Y1.30795
X-2.02900 Y1.30795
X-2.02900 Y1.30695
X-2.03000 Y1.30695
X-2.03000 Y1.30595
X-2.03100 Y1.30595
X-2.03100 Y1.30295
X-2.03200 Y1.30295
X-2.03200 Y1.30195
X-2.03300 Y1.30195
X-2.03300 Y1.30095
X-2.03400 Y1.30095
X-2.03400 Y1.29995
X-2.03500 Y1.29995
X-2.03500 Y1.29895
X-2.03600 Y1.29895
X-2.03600 Y1.29795
X-2.03700 Y1.29795
X-2.03700 Y1.29695
X-2.03800 Y1.29695
X-2.03800 Y1.29595
X-2.03900 Y1.29595
X-2.03900 Y1.29495
X-2.04000 Y1.29495
X-2.04000 Y1.29395
X-2.04100 Y1.29395
X-2.04100 Y1.29295
X-2.04200 Y1.29295
X-2.04200 Y1.29195
X-2.04300 Y1.29195
X-2.04300 Y1.29095
X-2.04400 Y1.29095
X-2.04400 Y1.28995
X-2.04600 Y1.28995
X-2.04600 Y1.28895
X-2.04700 Y1.28895
X-2.04700 Y1.28795
X-2.04900 Y1.28795
X-2.04900 Y1.28695
X-2.05000 Y1.28695
X-2.05000 Y1.28595
X-2.05100 Y1.28595
X-2.05100 Y1.28495
X-2.05200 Y1.28495
X-2.05200 Y1.28395
X-2.05300 Y1.28395
X-2.05300 Y1.28295
X-2.05400 Y1.28295
X-2.05400 Y1.28195
X-2.05500 Y1.28195
X-2.05500 Y1.28095
X-2.05600 Y1.28095
X-2.05600 Y1.27995
X-2.05700 Y1.27995
X-2.05700 Y1.27895
X-2.05800 Y1.27895
X-2.05800 Y1.27795
X-2.05900 Y1.27795
X-2.05900 Y1.27695
X-2.06000 Y1.27695
X-2.06000 Y1.27595
X-2.06200 Y1.27595
X-2.06200 Y1.27495
X-2.06300 Y1.27495
X-2.06300 Y1.27395
X-2.06400 Y1.27395
X-2.06400 Y1.27295
X-2.06500 Y1.27295
X-2.06500 Y1.27195
X-2.06600 Y1.27195
X-2.06600 Y1.27095
X-2.15900 Y1.27095
X-2.15900 Y1.27195
X-2.16000 Y1.27195
X-2.16000 Y1.27395
X-2.16100 Y1.27395
X-2.16100 Y1.27495
X-2.16200 Y1.27495
X-2.16200 Y1.27695
X-2.16300 Y1.27695
X-2.16300 Y1.27795
X-2.16400 Y1.27795
X-2.16400 Y1.27995
X-2.16500 Y1.27995
X-2.16500 Y1.28095
X-2.16600 Y1.28095
X-2.16600 Y1.28195
X-2.16700 Y1.28195
X-2.16700 Y1.28295
X-2.16800 Y1.28295
X-2.16800 Y1.28395
X-2.16700 Y1.28395
X-2.16700 Y1.28495
X-2.16600 Y1.28495
X-2.16600 Y1.28595
X-2.16500 Y1.28595
X-2.16500 Y1.28695
X-2.16400 Y1.28695
X-2.16400 Y1.28795
X-2.16300 Y1.28795
X-2.16300 Y1.28895
X-2.16200 Y1.28895
X-2.16200 Y1.28995
X-2.16100 Y1.28995
X-2.16100 Y1.29095
X-2.16000 Y1.29095
X-2.16000 Y1.29195
X-2.15900 Y1.29195
X-2.15900 Y1.29295
X-2.15800 Y1.29295
X-2.15800 Y1.29395
X-2.15700 Y1.29395
X-2.15700 Y1.29495
X-2.15600 Y1.29495
X-2.15600 Y1.29595
X-2.15500 Y1.29595
X-2.15500 Y1.29695
X-2.15400 Y1.29695
X-2.15400 Y1.29795
X-2.15300 Y1.29795
X-2.15300 Y1.29895
X-2.15200 Y1.29895
X-2.15200 Y1.29995
X-2.15100 Y1.29995
X-2.15100 Y1.30095
X-2.15000 Y1.30095
X-2.15000 Y1.30195
X-2.14900 Y1.30195
X-2.14900 Y1.30295
X-2.14800 Y1.30295
X-2.14800 Y1.30395
X-2.14700 Y1.30395
X-2.14700 Y1.30495
X-2.14600 Y1.30495
X-2.14600 Y1.30595
X-2.14500 Y1.30595
X-2.14500 Y1.30695
X-2.14400 Y1.30695
X-2.14400 Y1.30795
X-2.14300 Y1.30795
X-2.14300 Y1.30895
X-2.14200 Y1.30895
X-2.14200 Y1.30995
X-2.14100 Y1.30995
X-2.14100 Y1.31095
X-2.14000 Y1.31095
X-2.14000 Y1.31195
X-2.13900 Y1.31195
X-2.13900 Y1.31295
X-2.13800 Y1.31295
X-2.13800 Y1.31395
X-2.13700 Y1.31395
X-2.13700 Y1.31495
X-2.13600 Y1.31495
X-2.13600 Y1.31595
X-2.13500 Y1.31595
X-2.13500 Y1.31695
X-2.13400 Y1.31695
X-2.13400 Y1.31795
X-2.13300 Y1.31795
X-2.13300 Y1.31895
X-2.13200 Y1.31895
X-2.13200 Y1.31995
X-2.13100 Y1.31995
X-2.13100 Y1.32095
X-2.13000 Y1.32095
X-2.13000 Y1.32195
X-2.12900 Y1.32195
X-2.12900 Y1.32295
X-2.12800 Y1.32295
X-2.12800 Y1.32395
X-2.12700 Y1.32395
X-2.12700 Y1.32495
X-2.12600 Y1.32495
X-2.12600 Y1.32595
X-2.12500 Y1.32595
X-2.12500 Y1.32695
X-2.12400 Y1.32695
X-2.12400 Y1.32795
X-2.12300 Y1.32795
X-2.12300 Y1.32895
X-2.12200 Y1.32895
X-2.12200 Y1.32995
X-2.12100 Y1.32995
X-2.12100 Y1.33095
X-2.12000 Y1.33095
X-2.12000 Y1.33195
X-2.11900 Y1.33195
X-2.11900 Y1.33295
X-2.11800 Y1.33295
X-2.11800 Y1.33395
X-2.11700 Y1.33395
X-2.11700 Y1.33495
X-2.11600 Y1.33495
X-2.11600 Y1.33595
X-2.11500 Y1.33595
X-2.11500 Y1.33695
X-2.11400 Y1.33695
X-2.11400 Y1.33795
X-2.11300 Y1.33795
X-2.11300 Y1.33895
X-2.11200 Y1.33895
X-2.11200 Y1.33995
X-2.11100 Y1.33995
X-2.11100 Y1.34095
X-2.11000 Y1.34095
X-2.11000 Y1.34295
X-2.10900 Y1.34295
X-2.10900 Y1.34495
X-2.10800 Y1.34495
X-2.10800 Y1.34595
X-2.10700 Y1.34595
X-2.10700 Y1.34795
X-2.10600 Y1.34795
X-2.10600 Y1.34995
X-2.10500 Y1.34995
X-2.10500 Y1.35095
X-2.10400 Y1.35095
X-2.10400 Y1.35195
X-2.10300 Y1.35195
X-2.10300 Y1.35295
X-2.10200 Y1.35295
X-2.10200 Y1.35395
X-2.10100 Y1.35395
X-2.10100 Y1.35495
X-2.10000 Y1.35495
X-2.10000 Y1.35595
X-2.09900 Y1.35595
X-2.09900 Y1.35695
X-2.09800 Y1.35695
X-2.09800 Y1.35795
X-2.09700 Y1.35795
X-2.09700 Y1.35895
X-2.09600 Y1.35895
X-2.09600 Y1.35995
X-2.09500 Y1.35995
X-2.09500 Y1.36095
X-2.09400 Y1.36095
X-2.09400 Y1.36195
X-2.09200 Y1.36195
X-2.09200 Y1.36295
X-2.09100 Y1.36295
X-2.09100 Y1.36395
X-2.08900 Y1.36395
X-2.08900 Y1.36495
X-2.08800 Y1.36495
X-2.08800 Y1.36595
X-2.08500 Y1.36595
X-2.08500 Y1.36695
X-2.08400 Y1.36695
X-2.08400 Y1.36795
X-2.08300 Y1.36795
X-2.08300 Y1.36895
X-2.08200 Y1.36895
X-2.08200 Y1.36995
X-2.08100 Y1.36995
X-2.08100 Y1.37095
X-2.08000 Y1.37095
X-2.08000 Y1.37195
X-2.07900 Y1.37195
X-2.07900 Y1.37295
X-2.07800 Y1.37295
X-2.07800 Y1.37395
X-2.07700 Y1.37395
X-2.07700 Y1.37495
X-2.07600 Y1.37495
X-2.07600 Y1.37595
X-2.07500 Y1.37595
X-2.07500 Y1.37695
X-2.07400 Y1.37695
X-2.07400 Y1.37795
X-2.07300 Y1.37795
X-2.07300 Y1.37895
X-2.07200 Y1.37895
X-2.07200 Y1.37995
X-2.07100 Y1.37995
X-2.07100 Y1.38095
X-2.07000 Y1.38095
X-2.07000 Y1.38195
X-2.06900 Y1.38195
X-2.06900 Y1.38295
X-2.06800 Y1.38295
X-2.06800 Y1.38395
X-2.06700 Y1.38395
X-2.06700 Y1.38495
X-2.06500 Y1.38495
X-2.06500 Y1.38595
X-2.06400 Y1.38595
X-2.06400 Y1.38695
X-2.06300 Y1.38695
X-2.06300 Y1.38795
X-2.06200 Y1.38795
X-2.06200 Y1.38895
X-2.06100 Y1.38895
X-2.06100 Y1.38995
X-2.06000 Y1.38995
X-2.06000 Y1.39095
X-2.05900 Y1.39095
X-2.05900 Y1.39195
X-2.05800 Y1.39195
X-2.05800 Y1.39295
X-2.05700 Y1.39295
X-2.05700 Y1.39395
X-2.05600 Y1.39395
X-2.05600 Y1.39495
X-2.05500 Y1.39495
X-2.05500 Y1.39595
X-2.05400 Y1.39595
X-2.05400 Y1.39695
X-2.05300 Y1.39695
X-2.05300 Y1.39795
X-2.05200 Y1.39795
X-2.05200 Y1.39895
X-2.05100 Y1.39895
X-2.05100 Y1.39995
X-2.05000 Y1.39995
X-2.05000 Y1.40095
X-2.04900 Y1.40095
X-2.04900 Y1.40195
X-2.04800 Y1.40195
X-2.04800 Y1.40295
X-2.04700 Y1.40295
X-2.04700 Y1.40395
X-2.04600 Y1.40395
X-2.04600 Y1.40595
X-2.04500 Y1.40595
X-2.04500 Y1.40695
X-2.04400 Y1.40695
X-2.04400 Y1.40995
X-2.04300 Y1.40995
X-2.04300 Y1.63095
X-2.04400 Y1.63095
X-2.04400 Y1.63395
X-2.04500 Y1.63395
X-2.04500 Y1.63495
X-2.04600 Y1.63495
X-2.04600 Y1.63695
X-2.04700 Y1.63695
X-2.04700 Y1.63795
X-2.04800 Y1.63795
X-2.04800 Y1.63895
X-2.04900 Y1.63895
X-2.04900 Y1.63995
X-2.05000 Y1.63995
X-2.05000 Y1.64095
X-2.05100 Y1.64095
X-2.05100 Y1.64195
X-2.05200 Y1.64195
X-2.05200 Y1.64295
X-2.05300 Y1.64295
X-2.05300 Y1.64395
X-2.05400 Y1.64395
X-2.05400 Y1.66695
X-2.05500 Y1.66695
X-2.05500 Y1.67295
X-2.05600 Y1.67295
X-2.05600 Y1.67395
X-2.05700 Y1.67395
X-2.05700 Y1.67595
X-2.05800 Y1.67595
X-2.05800 Y1.67795
X-2.05900 Y1.67795
X-2.05900 Y1.67895
X-2.06000 Y1.67895
X-2.06000 Y1.68095
X-2.06100 Y1.68095
X-2.06100 Y1.68295
X-2.06300 Y1.68295
X-2.06300 Y1.68395
X-2.06400 Y1.68395
X-2.06400 Y1.68495
X-2.06500 Y1.68495
X-2.06500 Y1.68595
X-2.06700 Y1.68595
X-2.06700 Y1.68695
X-2.06800 Y1.68695
X-2.06800 Y1.68795
X-2.06900 Y1.68795
X-2.06900 Y1.68895
X-2.07100 Y1.68895
X-2.07100 Y1.68995
X-2.07300 Y1.68995
X-2.07300 Y1.69095
X-2.07700 Y1.69095
X-2.07700 Y1.69195
X-2.11200 Y1.69195
X-2.11200 Y1.69095
X-2.11600 Y1.69095
X-2.11600 Y1.68995
X-2.11800 Y1.68995
X-2.11800 Y1.68895
X-2.12000 Y1.68895
X-2.12000 Y1.68795
X-2.12100 Y1.68795
X-2.12100 Y1.68695
X-2.12200 Y1.68695
X-2.12200 Y1.68595
X-2.12400 Y1.68595
X-2.12400 Y1.68495
X-2.12500 Y1.68495
X-2.12500 Y1.68395
X-2.12600 Y1.68395
X-2.12600 Y1.68295
X-2.12800 Y1.68295
X-2.12800 Y1.68095
X-2.12900 Y1.68095
X-2.12900 Y1.67895
X-2.13000 Y1.67895
X-2.13000 Y1.67795
X-2.13100 Y1.67795
X-2.13100 Y1.67595
X-2.13200 Y1.67595
X-2.13200 Y1.67395
X-2.13300 Y1.67395
X-2.13300 Y1.67295
X-2.13400 Y1.67295
X-2.13400 Y1.66695
X-2.13500 Y1.66695
X-2.13500 Y1.63595
X-2.13400 Y1.63595
X-2.13400 Y1.62995
X-2.13300 Y1.62995
X-2.13300 Y1.62895
X-2.13200 Y1.62895
X-2.13200 Y1.62695
X-2.13100 Y1.62695
X-2.13100 Y1.62495
X-2.13000 Y1.62495
X-2.13000 Y1.62395
X-2.12900 Y1.62395
X-2.12900 Y1.62195
X-2.12800 Y1.62195
X-2.12800 Y1.61995
X-2.12600 Y1.61995
X-2.12600 Y1.61895
X-2.12500 Y1.61895
X-2.12500 Y1.61795
X-2.12400 Y1.61795
X-2.12400 Y1.61695
X-2.12200 Y1.61695
X-2.12200 Y1.61595
X-2.12100 Y1.61595
X-2.12100 Y1.61495
X-2.12000 Y1.61495
X-2.12000 Y1.61395
X-2.11800 Y1.61395
X-2.11800 Y1.61295
X-2.11600 Y1.61295
X-2.11600 Y1.61195
X-2.11200 Y1.61195
X-2.11200 Y1.61095
X-2.08700 Y1.61095
X-2.08700 Y1.60995
X-2.08600 Y1.60995
X-2.08600 Y1.60895
X-2.08500 Y1.60895
X-2.08500 Y1.60795
X-2.08400 Y1.60795
X-2.08400 Y1.60695
X-2.08300 Y1.60695
X-2.08300 Y1.60595
X-2.08200 Y1.60595
X-2.08200 Y1.43495
X-2.08300 Y1.43495
X-2.08300 Y1.43395
X-2.08400 Y1.43395
X-2.08400 Y1.43295
X-2.08500 Y1.43295
X-2.08500 Y1.43195
X-2.08600 Y1.43195
X-2.08600 Y1.43095
X-2.08700 Y1.43095
X-2.08700 Y1.42995
X-2.08800 Y1.42995
X-2.08800 Y1.42895
X-2.08900 Y1.42895
X-2.08900 Y1.42795
X-2.09000 Y1.42795
X-2.09000 Y1.42695
X-2.09100 Y1.42695
X-2.09100 Y1.42595
X-2.09200 Y1.42595
X-2.09200 Y1.42495
X-2.09300 Y1.42495
X-2.09300 Y1.42395
X-2.09400 Y1.42395
X-2.09400 Y1.42295
X-2.09500 Y1.42295
X-2.09500 Y1.42195
X-2.09600 Y1.42195
X-2.09600 Y1.42095
X-2.09700 Y1.42095
X-2.09700 Y1.41995
X-2.09800 Y1.41995
X-2.09800 Y1.41895
X-2.09900 Y1.41895
X-2.09900 Y1.41795
X-2.10000 Y1.41795
X-2.10000 Y1.41695
X-2.10100 Y1.41695
X-2.10100 Y1.41595
X-2.10200 Y1.41595
X-2.10200 Y1.41495
X-2.10300 Y1.41495
X-2.10300 Y1.41395
X-2.10400 Y1.41395
X-2.10400 Y1.41295
X-2.10500 Y1.41295
X-2.10500 Y1.41195
X-2.10600 Y1.41195
X-2.10600 Y1.41095
X-2.10700 Y1.41095
X-2.10700 Y1.40995
X-2.10800 Y1.40995
X-2.10800 Y1.40895
X-2.10900 Y1.40895
X-2.10900 Y1.40795
X-2.11000 Y1.40795
X-2.11000 Y1.40695
X-2.11100 Y1.40695
X-2.11100 Y1.40595
X-2.11200 Y1.40595
X-2.11200 Y1.40495
X-2.11300 Y1.40495
X-2.11300 Y1.40395
X-2.11400 Y1.40395
X-2.11400 Y1.40295
X-2.11500 Y1.40295
X-2.11500 Y1.40195
X-2.11600 Y1.40195
X-2.11600 Y1.40095
X-2.11700 Y1.40095
X-2.11700 Y1.39995
X-2.11800 Y1.39995
X-2.11800 Y1.39895
X-2.11900 Y1.39895
X-2.11900 Y1.39795
X-2.12000 Y1.39795
X-2.12000 Y1.39695
X-2.12100 Y1.39695
X-2.12100 Y1.39595
X-2.12200 Y1.39595
X-2.12200 Y1.39495
X-2.12300 Y1.39495
X-2.12300 Y1.39395
X-2.12400 Y1.39395
X-2.12400 Y1.39295
X-2.12500 Y1.39295
X-2.12500 Y1.39195
X-2.12600 Y1.39195
X-2.12600 Y1.39095
X-2.12700 Y1.39095
X-2.12700 Y1.38995
X-2.12800 Y1.38995
X-2.12800 Y1.38895
X-2.12900 Y1.38895
X-2.12900 Y1.38795
X-2.13000 Y1.38795
X-2.13000 Y1.38695
X-2.13100 Y1.38695
X-2.13100 Y1.38595
X-2.13200 Y1.38595
X-2.13200 Y1.38495
X-2.13300 Y1.38495
X-2.13300 Y1.38395
X-2.13400 Y1.38395
X-2.13400 Y1.38295
X-2.13500 Y1.38295
X-2.13500 Y1.38195
X-2.13600 Y1.38195
X-2.13600 Y1.38095
X-2.13700 Y1.38095
X-2.13700 Y1.37995
X-2.13800 Y1.37995
X-2.13800 Y1.37895
X-2.13900 Y1.37895
X-2.13900 Y1.37795
X-2.14000 Y1.37795
X-2.14000 Y1.37695
X-2.14100 Y1.37695
X-2.14100 Y1.37595
X-2.14200 Y1.37595
X-2.14200 Y1.37495
X-2.14300 Y1.37495
X-2.14300 Y1.37395
X-2.14400 Y1.37395
X-2.14400 Y1.37295
X-2.14500 Y1.37295
X-2.14500 Y1.37195
X-2.14600 Y1.37195
X-2.14600 Y1.37095
X-2.14700 Y1.37095
X-2.14700 Y1.36995
X-2.14800 Y1.36995
X-2.14800 Y1.36895
X-2.14900 Y1.36895
X-2.14900 Y1.36795
X-2.15000 Y1.36795
X-2.15000 Y1.36695
X-2.15100 Y1.36695
X-2.15100 Y1.36595
X-2.15200 Y1.36595
X-2.15200 Y1.36495
X-2.15300 Y1.36495
X-2.15300 Y1.36395
X-2.15400 Y1.36395
X-2.15400 Y1.36295
X-2.15500 Y1.36295
X-2.15500 Y1.36195
X-2.15600 Y1.36195
X-2.15600 Y1.36095
X-2.15700 Y1.36095
X-2.15700 Y1.35995
X-2.15800 Y1.35995
X-2.15800 Y1.35895
X-2.15900 Y1.35895
X-2.15900 Y1.35795
X-2.16000 Y1.35795
X-2.16000 Y1.35695
X-2.16100 Y1.35695
X-2.16100 Y1.35595
X-2.16200 Y1.35595
X-2.16200 Y1.35495
X-2.16300 Y1.35495
X-2.16300 Y1.35395
X-2.16400 Y1.35395
X-2.16400 Y1.35295
X-2.16500 Y1.35295
X-2.16500 Y1.35195
X-2.16600 Y1.35195
X-2.16600 Y1.35095
X-2.16700 Y1.35095
X-2.16700 Y1.34995
X-2.16800 Y1.34995
X-2.16800 Y1.34895
X-2.16900 Y1.34895
X-2.16900 Y1.34795
X-2.17000 Y1.34795
X-2.17000 Y1.34695
X-2.17100 Y1.34695
X-2.17100 Y1.34595
X-2.17200 Y1.34595
X-2.17200 Y1.34495
X-2.17300 Y1.34495
X-2.17300 Y1.34395
X-2.17400 Y1.34395
X-2.17400 Y1.34295
X-2.17500 Y1.34295
X-2.17500 Y1.38795
X-2.17600 Y1.38795
X-2.17600 Y1.39095
X-2.17700 Y1.39095
X-2.17700 Y1.39195
X-2.17800 Y1.39195
X-2.17800 Y1.39395
X-2.17900 Y1.39395
X-2.17900 Y1.39495
X-2.18000 Y1.39495
X-2.18000 Y1.39595
X-2.18100 Y1.39595
X-2.18100 Y1.39695
X-2.18200 Y1.39695
X-2.18200 Y1.39795
X-2.18300 Y1.39795
X-2.18300 Y1.39895
X-2.18400 Y1.39895
X-2.18400 Y1.39995
X-2.18500 Y1.39995
X-2.18500 Y1.40095
X-2.18600 Y1.40095
X-2.18600 Y1.40195
X-2.18700 Y1.40195
X-2.18700 Y1.40295
X-2.18800 Y1.40295
X-2.18800 Y1.40395
X-2.18900 Y1.40395
X-2.18900 Y1.40495
X-2.19000 Y1.40495
X-2.19000 Y1.40595
X-2.19100 Y1.40595
X-2.19100 Y1.40695
X-2.19200 Y1.40695
X-2.19200 Y1.40795
X-2.19300 Y1.40795
X-2.19300 Y1.40895
X-2.19400 Y1.40895
X-2.19400 Y1.40995
X-2.19500 Y1.40995
X-2.19500 Y1.41095
X-2.19600 Y1.41095
X-2.19600 Y1.41195
X-2.19700 Y1.41195
X-2.19700 Y1.41295
X-2.19800 Y1.41295
X-2.19800 Y1.41395
X-2.19900 Y1.41395
X-2.19900 Y1.41495
X-2.20000 Y1.41495
X-2.20000 Y1.41595
X-2.20100 Y1.41595
X-2.20100 Y1.41695
X-2.20200 Y1.41695
X-2.20200 Y1.41795
X-2.20300 Y1.41795
X-2.20300 Y1.41995
X-2.20400 Y1.41995
X-2.20400 Y1.42095
X-2.20500 Y1.42095
X-2.20500 Y1.42195
X-2.20600 Y1.42195
X-2.20600 Y1.42295
X-2.20700 Y1.42295
X-2.20700 Y1.42395
X-2.20900 Y1.42395
X-2.20900 Y1.42495
X-2.21100 Y1.42495
X-2.21100 Y1.42595
X-2.37700 Y1.42595
X-2.37700 Y1.42495
X-2.37900 Y1.42495
X-2.37900 Y1.42395
X-2.38100 Y1.42395
X-2.38100 Y1.42295
X-2.38200 Y1.42295
X-2.38200 Y1.42195
X-2.38300 Y1.42195
X-2.38300 Y1.42095
X-2.38400 Y1.42095
X-2.38400 Y1.41995
X-2.38500 Y1.41995
X-2.38500 Y1.41895
X-2.38600 Y1.41895
X-2.38600 Y1.41795
X-2.38700 Y1.41795
X-2.38700 Y1.41695
X-2.38800 Y1.41695
X-2.38800 Y1.41595
X-2.38900 Y1.41595
X-2.38900 Y1.41495
X-2.39000 Y1.41495
X-2.39000 Y1.41395
X-2.39100 Y1.41395
X-2.39100 Y1.41295
X-2.39200 Y1.41295
X-2.39200 Y1.41195
X-2.39300 Y1.41195
X-2.39300 Y1.41095
X-2.39400 Y1.41095
X-2.39400 Y1.40995
X-2.39500 Y1.40995
X-2.39500 Y1.40895
X-2.39600 Y1.40895
X-2.39600 Y1.40795
X-2.39700 Y1.40795
X-2.39700 Y1.40695
X-2.39800 Y1.40695
X-2.39800 Y1.40595
X-2.39900 Y1.40595
X-2.39900 Y1.40495
X-2.40000 Y1.40495
X-2.40000 Y1.40395
X-2.40100 Y1.40395
X-2.40100 Y1.40295
X-2.40200 Y1.40295
X-2.40200 Y1.40195
X-2.40300 Y1.40195
X-2.40300 Y1.40095
X-2.40400 Y1.40095
X-2.40400 Y1.39995
X-2.40500 Y1.39995
X-2.40500 Y1.39895
X-2.40600 Y1.39895
X-2.40600 Y1.39795
X-2.40700 Y1.39795
X-2.40700 Y1.39695
X-2.40800 Y1.39695
X-2.40800 Y1.39595
X-2.40900 Y1.39595
X-2.40900 Y1.39495
X-2.41000 Y1.39495
X-2.41000 Y1.39395
X-2.41100 Y1.39395
X-2.41100 Y1.39295
X-2.41200 Y1.39295
X-2.41200 Y1.39195
X-2.41300 Y1.39195
X-2.41300 Y1.39095
X-2.41400 Y1.39095
X-2.41400 Y1.38995
X-2.41500 Y1.38995
X-2.41500 Y1.38895
X-2.41600 Y1.38895
X-2.41600 Y1.38795
X-2.41700 Y1.38795
X-2.41700 Y1.38695
X-2.41800 Y1.38695
X-2.41800 Y1.38595
X-2.41900 Y1.38595
X-2.41900 Y1.38495
X-2.42000 Y1.38495
X-2.42000 Y1.38395
X-2.42100 Y1.38395
X-2.42100 Y1.38195
X-2.42200 Y1.38195
X-2.42200 Y1.38095
X-2.42300 Y1.38095
X-2.42300 Y1.37795
X-2.42400 Y1.37795
X-2.42400 Y1.30995
X-2.42500 Y1.30995
X-2.42500 Y1.30895
X-2.42600 Y1.30895
X-2.42600 Y1.30795
X-2.42700 Y1.30795
X-2.42700 Y1.30695
X-2.42800 Y1.30695
X-2.42800 Y1.30595
X-2.42900 Y1.30595
X-2.42900 Y1.30495
X-2.43000 Y1.30495
X-2.43000 Y1.30395
X-2.43100 Y1.30395
X-2.43100 Y1.30295
X-2.43200 Y1.30295
X-2.43200 Y1.30195
X-2.43300 Y1.30195
X-2.43300 Y1.30095
X-2.43400 Y1.30095
X-2.43400 Y1.29995
X-2.43500 Y1.29995
X-2.43500 Y1.29895
X-2.43600 Y1.29895
X-2.43600 Y1.29795
X-2.43700 Y1.29795
X-2.43700 Y1.29695
X-2.43800 Y1.29695
X-2.43800 Y1.29595
X-2.43900 Y1.29595
X-2.43900 Y1.29495
X-2.44000 Y1.29495
X-2.44000 Y1.29395
X-2.44100 Y1.29395
X-2.44100 Y1.29295
X-2.44200 Y1.29295
X-2.44200 Y1.29195
X-2.44300 Y1.29195
X-2.44300 Y1.29095
X-2.44400 Y1.29095
X-2.44400 Y1.28995
X-2.44500 Y1.28995
X-2.44500 Y1.28895
X-2.44600 Y1.28895
X-2.44600 Y1.28795
X-2.44700 Y1.28795
X-2.44700 Y1.28695
X-2.44800 Y1.28695
X-2.44800 Y1.28595
X-2.44900 Y1.28595
X-2.44900 Y1.28495
X-2.45000 Y1.28495
X-2.45000 Y1.28395
X-2.45100 Y1.28395
X-2.45100 Y1.28295
X-2.45200 Y1.28295
X-2.45200 Y1.28195
X-2.45300 Y1.28195
X-2.45300 Y1.28095
X-2.45400 Y1.28095
X-2.45400 Y1.27995
X-2.45500 Y1.27995
X-2.45500 Y1.27895
X-2.45600 Y1.27895
X-2.45600 Y1.27795
X-2.45700 Y1.27795
X-2.45700 Y1.27695
X-2.45800 Y1.27695
X-2.45800 Y1.27595
X-2.45900 Y1.27595
X-2.45900 Y1.27495
X-2.46000 Y1.27495
X-2.46000 Y1.27395
X-2.46100 Y1.27395
X-2.46100 Y1.27295
X-2.46200 Y1.27295
X-2.46200 Y1.27195
X-2.46300 Y1.27195
X-2.46300 Y1.27095
X-2.46400 Y1.27095
X-2.46400 Y1.26995
X-2.46500 Y1.26995
X-2.46500 Y1.26895
X-2.46600 Y1.26895
X-2.46600 Y1.26795
X-2.46700 Y1.26795
X-2.46700 Y1.26695
X-2.46800 Y1.26695
X-2.46800 Y1.26595
X-2.46900 Y1.26595
X-2.46900 Y1.26495
X-2.47000 Y1.26495
X-2.47000 Y1.26395
X-2.47100 Y1.26395
X-2.47100 Y1.26295
X-2.47200 Y1.26295
X-2.47200 Y1.26195
X-2.47300 Y1.26195
X-2.47300 Y1.26095
X-2.59600 Y1.26095
X-2.59600 Y1.26195
X-2.59700 Y1.26195
X-2.59700 Y1.26295
X-2.59800 Y1.26295
X-2.59800 Y1.26395
X-2.59900 Y1.26395
X-2.59900 Y1.26495
X-2.60000 Y1.26495
X-2.60000 Y1.26595
X-2.60100 Y1.26595
X-2.60100 Y1.26695
X-2.60200 Y1.26695
X-2.60200 Y1.26795
X-2.60300 Y1.26795
X-2.60300 Y1.26895
X-2.60400 Y1.26895
X-2.60400 Y1.26995
X-2.60500 Y1.26995
X-2.60500 Y1.27095
X-2.60600 Y1.27095
X-2.60600 Y1.27195
X-2.60700 Y1.27195
X-2.60700 Y1.27295
X-2.60800 Y1.27295
X-2.60800 Y1.27395
X-2.60900 Y1.27395
X-2.60900 Y1.27495
X-2.61000 Y1.27495
X-2.61000 Y1.27595
X-2.61100 Y1.27595
X-2.61100 Y1.27695
X-2.61200 Y1.27695
X-2.61200 Y1.27795
X-2.61300 Y1.27795
X-2.61300 Y1.27895
X-2.61400 Y1.27895
X-2.61400 Y1.27995
X-2.61500 Y1.27995
X-2.61500 Y1.28095
X-2.61600 Y1.28095
X-2.61600 Y1.28195
X-2.61700 Y1.28195
X-2.61700 Y1.28295
X-2.61800 Y1.28295
X-2.61800 Y1.28395
X-2.61900 Y1.28395
X-2.61900 Y1.28495
X-2.62000 Y1.28495
X-2.62000 Y1.54295
X-2.61900 Y1.54295
X-2.61900 Y1.54395
X-2.61800 Y1.54395
X-2.61800 Y1.54495
X-2.61700 Y1.54495
X-2.61700 Y1.54595
X-2.61600 Y1.54595
X-2.61600 Y1.54695
X-2.61500 Y1.54695
X-2.61500 Y1.54795
X-2.61400 Y1.54795
X-2.61400 Y1.54895
X-2.61300 Y1.54895
X-2.61300 Y1.54995
X-2.61200 Y1.54995
X-2.61200 Y1.55095
X-2.61100 Y1.55095
X-2.61100 Y1.55195
X-2.61000 Y1.55195
X-2.61000 Y1.55295
X-2.60900 Y1.55295
X-2.60900 Y1.55395
X-2.60800 Y1.55395
X-2.60800 Y1.55495
X-2.60700 Y1.55495
X-2.60700 Y1.55595
X-2.60600 Y1.55595
X-2.60600 Y1.55695
X-2.60500 Y1.55695
X-2.60500 Y1.55795
X-2.60400 Y1.55795
X-2.60400 Y1.55895
X-2.60300 Y1.55895
X-2.60300 Y1.55995
X-2.60200 Y1.55995
X-2.60200 Y1.56095
X-2.60100 Y1.56095
X-2.60100 Y1.56195
X-2.60000 Y1.56195
X-2.60000 Y1.56295
X-2.59900 Y1.56295
X-2.59900 Y1.56395
X-2.59800 Y1.56395
X-2.59800 Y1.56495
X-2.59700 Y1.56495
X-2.59700 Y1.56595
X-2.59600 Y1.56595
X-2.59600 Y1.56695
X-2.59500 Y1.56695
X-2.59500 Y1.56795
X-2.59400 Y1.56795
X-2.59400 Y1.56895
X-2.59300 Y1.56895
X-2.59300 Y1.56995
X-2.59200 Y1.56995
X-2.59200 Y1.57095
X-2.59100 Y1.57095
X-2.59100 Y1.57195
X-2.59000 Y1.57195
X-2.59000 Y1.57295
X-2.58900 Y1.57295
X-2.58900 Y1.57395
X-2.58800 Y1.57395
X-2.58800 Y1.57495
X-2.58700 Y1.57495
X-2.58700 Y1.57595
X-2.58600 Y1.57595
X-2.58600 Y1.57695
X-2.58500 Y1.57695
X-2.58500 Y1.57795
X-2.58400 Y1.57795
X-2.58400 Y1.57895
X-2.58300 Y1.57895
X-2.58300 Y1.57995
X-2.58200 Y1.57995
X-2.58200 Y1.58095
X-2.58100 Y1.58095
X-2.58100 Y1.58195
X-2.58000 Y1.58195
X-2.58000 Y1.58295
X-2.57900 Y1.58295
X-2.57900 Y1.58395
X-2.57800 Y1.58395
X-2.57800 Y1.58495
X-2.57700 Y1.58495
X-2.57700 Y1.58595
X-2.57600 Y1.58595
X-2.57600 Y1.58695
X-2.57500 Y1.58695
X-2.57500 Y1.58795
X-2.57400 Y1.58795
X-2.57400 Y1.58895
X-2.57300 Y1.58895
X-2.57300 Y1.58995
X-2.57200 Y1.58995
X-2.57200 Y1.59095
X-2.57100 Y1.59095
X-2.57100 Y1.59195
X-2.57000 Y1.59195
X-2.57000 Y1.59295
X-2.56900 Y1.59295
X-2.56900 Y1.59395
X-2.56800 Y1.59395
X-2.56800 Y1.59495
X-2.56700 Y1.59495
X-2.56700 Y1.59595
X-2.56600 Y1.59595
X-2.56600 Y1.59695
X-2.56500 Y1.59695
X-2.56500 Y1.59795
X-2.56400 Y1.59795
X-2.56400 Y1.59895
X-2.56300 Y1.59895
X-2.56300 Y1.59995
X-2.56200 Y1.59995
X-2.56200 Y1.60095
X-2.56100 Y1.60095
X-2.56100 Y1.60195
X-2.56000 Y1.60195
X-2.56000 Y1.60295
X-2.55900 Y1.60295
X-2.55900 Y1.60395
X-2.55800 Y1.60395
X-2.55800 Y1.60495
X-2.55700 Y1.60495
X-2.55700 Y1.60595
X-2.55600 Y1.60595
X-2.55600 Y1.60695
X-2.55500 Y1.60695
X-2.55500 Y1.60795
X-2.55400 Y1.60795
X-2.55400 Y1.60895
X-2.55300 Y1.60895
X-2.55300 Y1.60995
X-2.55200 Y1.60995
X-2.55200 Y1.61095
X-2.52700 Y1.61095
X-2.52700 Y1.61195
X-2.52300 Y1.61195
X-2.52300 Y1.61295
X-2.52100 Y1.61295
X-2.52100 Y1.61395
X-2.51900 Y1.61395
X-2.51900 Y1.61495
X-2.51800 Y1.61495
X-2.51800 Y1.61595
X-2.51700 Y1.61595
X-2.51700 Y1.61695
X-2.51500 Y1.61695
X-2.51500 Y1.61795
X-2.51400 Y1.61795
X-2.51400 Y1.61895
X-2.51300 Y1.61895
X-2.51300 Y1.61995
X-2.51100 Y1.61995
X-2.51100 Y1.62195
X-2.51000 Y1.62195
X-2.51000 Y1.62395
X-2.50900 Y1.62395
X-2.50900 Y1.62495
X-2.50800 Y1.62495
X-2.50800 Y1.62695
X-2.50700 Y1.62695
X-2.50700 Y1.62895
X-2.50600 Y1.62895
X-2.50600 Y1.62995
X-2.50500 Y1.62995
X-2.50500 Y1.63595
X-2.50400 Y1.63595
X-2.50400 Y1.66695
X-2.50500 Y1.66695
X-2.50500 Y1.67295
X-2.50600 Y1.67295
X-2.50600 Y1.67395
X-2.50700 Y1.67395
X-2.50700 Y1.67595
X-2.50800 Y1.67595
X-2.50800 Y1.67795
X-2.50900 Y1.67795
X-2.50900 Y1.67895
X-2.51000 Y1.67895
X-2.51000 Y1.68095
X-2.51100 Y1.68095
X-2.51100 Y1.68295
X-2.51300 Y1.68295
X-2.51300 Y1.68395
X-2.51400 Y1.68395
X-2.51400 Y1.68495
X-2.51500 Y1.68495
X-2.51500 Y1.68595
X-2.51700 Y1.68595
X-2.51700 Y1.68695
X-2.51800 Y1.68695
X-2.51800 Y1.68795
X-2.51900 Y1.68795
X-2.51900 Y1.68895
X-2.52100 Y1.68895
X-2.52100 Y1.68995
X-2.52300 Y1.68995
X-2.52300 Y1.69095
X-2.52700 Y1.69095
X-2.52700 Y1.69195
X-2.56200 Y1.69195
X-2.56200 Y1.69095
X-2.56600 Y1.69095
X-2.56600 Y1.68995
X-2.56800 Y1.68995
X-2.56800 Y1.68895
X-2.57000 Y1.68895
X-2.57000 Y1.68795
X-2.57100 Y1.68795
X-2.57100 Y1.68695
X-2.57200 Y1.68695
X-2.57200 Y1.68595
X-2.57400 Y1.68595
X-2.57400 Y1.68495
X-2.57500 Y1.68495
X-2.57500 Y1.68395
X-2.57600 Y1.68395
X-2.57600 Y1.68295
X-2.57800 Y1.68295
X-2.57800 Y1.68095
X-2.57900 Y1.68095
X-2.57900 Y1.67895
X-2.58000 Y1.67895
X-2.58000 Y1.67795
X-2.58100 Y1.67795
X-2.58100 Y1.67595
X-2.58200 Y1.67595
X-2.58200 Y1.67395
X-2.58300 Y1.67395
X-2.58300 Y1.67295
X-2.58400 Y1.67295
X-2.58400 Y1.66895
X-2.58500 Y1.66895
X-2.58500 Y1.66795
X-2.58600 Y1.66795
X-2.58600 Y1.66695
X-2.58700 Y1.66695
X-2.58700 Y1.66595
X-2.58800 Y1.66595
X-2.58800 Y1.66295
X-2.58900 Y1.66295
X-2.58900 Y1.63995
X-2.59000 Y1.63995
X-2.59000 Y1.63895
X-2.59100 Y1.63895
X-2.59100 Y1.63795
X-2.59200 Y1.63795
X-2.59200 Y1.63695
X-2.59300 Y1.63695
X-2.59300 Y1.63595
X-2.59400 Y1.63595
X-2.59400 Y1.63495
X-2.59500 Y1.63495
X-2.59500 Y1.63395
X-2.59600 Y1.63395
X-2.59600 Y1.63295
X-2.59700 Y1.63295
X-2.59700 Y1.63195
X-2.59800 Y1.63195
X-2.59800 Y1.63095
X-2.59900 Y1.63095
X-2.59900 Y1.62995
X-2.60000 Y1.62995
X-2.60000 Y1.62895
X-2.60100 Y1.62895
X-2.60100 Y1.62795
X-2.60200 Y1.62795
X-2.60200 Y1.62695
X-2.60300 Y1.62695
X-2.60300 Y1.62595
X-2.60400 Y1.62595
X-2.60400 Y1.62495
X-2.60500 Y1.62495
X-2.60500 Y1.62395
X-2.60600 Y1.62395
X-2.60600 Y1.62295
X-2.60700 Y1.62295
X-2.60700 Y1.62195
X-2.60800 Y1.62195
X-2.60800 Y1.62095
X-2.60900 Y1.62095
X-2.60900 Y1.61995
X-2.61000 Y1.61995
X-2.61000 Y1.61895
X-2.61100 Y1.61895
X-2.61100 Y1.61795
X-2.61200 Y1.61795
X-2.61200 Y1.61695
X-2.61300 Y1.61695
X-2.61300 Y1.61595
X-2.61400 Y1.61595
X-2.61400 Y1.61495
X-2.61500 Y1.61495
X-2.61500 Y1.61395
X-2.61600 Y1.61395
X-2.61600 Y1.61295
X-2.61700 Y1.61295
X-2.61700 Y1.61195
X-2.61800 Y1.61195
X-2.61800 Y1.61095
X-2.61900 Y1.61095
X-2.61900 Y1.60995
X-2.62000 Y1.60995
X-2.62000 Y1.60895
X-2.62100 Y1.60895
X-2.62100 Y1.60795
X-2.62200 Y1.60795
X-2.62200 Y1.60695
X-2.62300 Y1.60695
X-2.62300 Y1.60595
X-2.62400 Y1.60595
X-2.62400 Y1.60495
X-2.62500 Y1.60495
X-2.62500 Y1.60395
X-2.62600 Y1.60395
X-2.62600 Y1.60295
X-2.62700 Y1.60295
X-2.62700 Y1.60195
X-2.62800 Y1.60195
X-2.62800 Y1.60095
X-2.62900 Y1.60095
X-2.62900 Y1.59995
X-2.63000 Y1.59995
X-2.63000 Y1.59895
X-2.63100 Y1.59895
X-2.63100 Y1.59795
X-2.63200 Y1.59795
X-2.63200 Y1.59695
X-2.63300 Y1.59695
X-2.63300 Y1.59595
X-2.63400 Y1.59595
X-2.63400 Y1.59495
X-2.63500 Y1.59495
X-2.63500 Y1.59395
X-2.63600 Y1.59395
X-2.63600 Y1.59295
X-2.63700 Y1.59295
X-2.63700 Y1.59195
X-2.63800 Y1.59195
X-2.63800 Y1.59095
X-2.63900 Y1.59095
X-2.63900 Y1.58995
X-2.64000 Y1.58995
X-2.64000 Y1.58895
X-2.64100 Y1.58895
X-2.64100 Y1.58795
X-2.64200 Y1.58795
X-2.64200 Y1.58695
X-2.64300 Y1.58695
X-2.64300 Y1.58595
X-2.64400 Y1.58595
X-2.64400 Y1.58495
X-2.64500 Y1.58495
X-2.64500 Y1.58395
X-2.64600 Y1.58395
X-2.64600 Y1.58295
X-2.64700 Y1.58295
X-2.64700 Y1.58195
X-2.64800 Y1.58195
X-2.64800 Y1.58095
X-2.64900 Y1.58095
X-2.64900 Y1.57995
X-2.65000 Y1.57995
X-2.65000 Y1.57895
X-2.65100 Y1.57895
X-2.65100 Y1.57795
X-2.65200 Y1.57795
X-2.65200 Y1.57695
X-2.65300 Y1.57695
X-2.65300 Y1.57595
X-2.85600 Y1.57595
X-2.85600 Y1.57695
X-2.85700 Y1.57695
X-2.85700 Y1.57795
X-2.85800 Y1.57795
X-2.85800 Y1.57895
X-2.85900 Y1.57895
X-2.85900 Y1.57995
X-2.86000 Y1.57995
X-2.86000 Y1.58095
X-2.86100 Y1.58095
X-2.86100 Y1.58195
X-2.86200 Y1.58195
X-2.86200 Y1.58295
X-2.86300 Y1.58295
X-2.86300 Y1.58395
X-2.86400 Y1.58395
X-2.86400 Y1.58495
X-2.86500 Y1.58495
X-2.86500 Y1.58595
X-2.86600 Y1.58595
X-2.86600 Y1.58695
X-2.86700 Y1.58695
X-2.86700 Y1.58795
X-2.86800 Y1.58795
X-2.86800 Y1.58895
X-2.86900 Y1.58895
X-2.86900 Y1.58995
X-2.87000 Y1.58995
X-2.87000 Y1.59095
X-2.87100 Y1.59095
X-2.87100 Y1.59195
X-2.87200 Y1.59195
X-2.87200 Y1.59295
X-2.87300 Y1.59295
X-2.87300 Y1.59395
X-2.87400 Y1.59395
X-2.87400 Y1.59495
X-2.87500 Y1.59495
X-2.87500 Y1.59595
X-2.87600 Y1.59595
X-2.87600 Y1.59695
X-2.87700 Y1.59695
X-2.87700 Y1.59795
X-2.87800 Y1.59795
X-2.87800 Y1.59895
X-2.87900 Y1.59895
X-2.87900 Y1.59995
X-2.88000 Y1.59995
X-2.88000 Y1.60095
X-2.88100 Y1.60095
X-2.88100 Y1.60195
X-2.88200 Y1.60195
X-2.88200 Y1.60295
X-2.88300 Y1.60295
X-2.88300 Y1.60395
X-2.88400 Y1.60395
X-2.88400 Y1.60495
X-2.88500 Y1.60495
X-2.88500 Y1.60595
X-2.88600 Y1.60595
X-2.88600 Y1.60695
X-2.88700 Y1.60695
X-2.88700 Y1.60795
X-2.88800 Y1.60795
X-2.88800 Y1.60895
X-2.88900 Y1.60895
X-2.88900 Y1.60995
X-2.89000 Y1.60995
X-2.89000 Y1.61095
X-2.89100 Y1.61095
X-2.89100 Y1.61195
X-2.89200 Y1.61195
X-2.89200 Y1.61295
X-2.89300 Y1.61295
X-2.89300 Y1.61395
X-2.89400 Y1.61395
X-2.89400 Y1.61495
X-2.89500 Y1.61495
X-2.89500 Y1.61595
X-2.89600 Y1.61595
X-2.89600 Y1.61695
X-2.89700 Y1.61695
X-2.89700 Y1.61795
X-2.89800 Y1.61795
X-2.89800 Y1.61895
X-2.89900 Y1.61895
X-2.89900 Y1.61995
X-2.90000 Y1.61995
X-2.90000 Y1.62095
X-2.90100 Y1.62095
X-2.90100 Y1.62195
X-2.90200 Y1.62195
X-2.90200 Y1.62295
X-2.90300 Y1.62295
X-2.90300 Y1.62395
X-2.90400 Y1.62395
X-2.90400 Y1.62495
X-2.90500 Y1.62495
X-2.90500 Y1.62595
X-2.90600 Y1.62595
X-2.90600 Y1.62695
X-2.90700 Y1.62695
X-2.90700 Y1.62795
X-2.90800 Y1.62795
X-2.90800 Y1.62895
X-2.90900 Y1.62895
X-2.90900 Y1.62995
X-2.91000 Y1.62995
X-2.91000 Y1.63095
X-2.91100 Y1.63095
X-2.91100 Y1.63195
X-2.91200 Y1.63195
X-2.91200 Y1.63295
X-2.91300 Y1.63295
X-2.91300 Y1.63395
X-2.91400 Y1.63395
X-2.91400 Y1.63495
X-2.91500 Y1.63495
X-2.91500 Y1.63595
X-2.91600 Y1.63595
X-2.91600 Y1.63695
X-2.91700 Y1.63695
X-2.91700 Y1.63795
X-2.91800 Y1.63795
X-2.91800 Y1.63895
X-2.91900 Y1.63895
X-2.91900 Y1.63995
X-2.92000 Y1.63995
X-2.92000 Y1.64095
X-2.92100 Y1.64095
X-2.92100 Y1.64195
X-2.92200 Y1.64195
X-2.92200 Y1.64295
X-2.92300 Y1.64295
X-2.92300 Y1.64395
X-2.92400 Y1.64395
X-2.92400 Y1.64495
X-2.92500 Y1.64495
X-2.92500 Y1.64595
X-2.92600 Y1.64595
X-2.92600 Y1.64695
X-2.92700 Y1.64695
X-2.92700 Y1.64795
X-2.92800 Y1.64795
X-2.92800 Y1.64895
X-2.92900 Y1.64895
X-2.92900 Y1.64995
X-2.93000 Y1.64995
X-2.93000 Y1.65095
X-2.93100 Y1.65095
X-2.93100 Y1.65195
X-2.93200 Y1.65195
X-2.93200 Y1.65295
X-2.93300 Y1.65295
X-2.93300 Y1.65395
X-2.93400 Y1.65395
X-2.93400 Y1.65495
X-2.93500 Y1.65495
X-2.93500 Y1.65595
X-2.93600 Y1.65595
X-2.93600 Y1.65695
X-2.93700 Y1.65695
X-2.93700 Y1.65795
X-2.93800 Y1.65795
X-2.93800 Y1.65895
X-2.93900 Y1.65895
X-2.93900 Y1.65995
X-2.94000 Y1.65995
X-2.94000 Y1.66095
X-2.94100 Y1.66095
X-2.94100 Y1.66195
X-2.94200 Y1.66195
X-2.94200 Y1.66295
X-2.94300 Y1.66295
X-2.94300 Y1.66395
X-2.94400 Y1.66395
X-2.94400 Y1.66495
X-2.94500 Y1.66495
X-2.94500 Y1.66595
X-2.94600 Y1.66595
X-2.94600 Y1.66695
X-2.94700 Y1.66695
X-2.94700 Y1.66795
X-2.94800 Y1.66795
X-2.94800 Y1.66895
X-2.95000 Y1.66895
X-2.95000 Y1.66995
X-2.95200 Y1.66995
X-2.95200 Y1.67095
X-2.97000 Y1.67095
X-2.97000 Y1.67295
X-2.97100 Y1.67295
X-2.97100 Y1.67395
X-2.97200 Y1.67395
X-2.97200 Y1.67595
X-2.97300 Y1.67595
X-2.97300 Y1.67795
X-2.97400 Y1.67795
X-2.97400 Y1.67895
X-2.97500 Y1.67895
X-2.97500 Y1.68095
X-2.97600 Y1.68095
X-2.97600 Y1.68295
X-2.97800 Y1.68295
X-2.97800 Y1.68395
X-2.97900 Y1.68395
X-2.97900 Y1.68495
X-2.98000 Y1.68495
X-2.98000 Y1.68595
X-2.98200 Y1.68595
X-2.98200 Y1.68695
X-2.98300 Y1.68695
X-2.98300 Y1.68795
X-2.98400 Y1.68795
X-2.98400 Y1.68895
X-2.98600 Y1.68895
X-2.98600 Y1.68995
X-2.98800 Y1.68995
X-2.98800 Y1.69095
X-2.99200 Y1.69095
X-2.99200 Y1.69195
X-3.02700 Y1.69195
X-3.02700 Y1.69095
X-3.03100 Y1.69095
X-3.03100 Y1.68995
X-3.03300 Y1.68995
X-3.03300 Y1.68895
X-3.03500 Y1.68895
X-3.03500 Y1.68795
X-3.03600 Y1.68795
X-3.03600 Y1.68695
X-3.03700 Y1.68695
X-3.03700 Y1.68595
X-3.03900 Y1.68595
X-3.03900 Y1.68495
X-3.04000 Y1.68495
X-3.04000 Y1.68395
X-3.04100 Y1.68395
X-3.04100 Y1.68295
X-3.04300 Y1.68295
X-3.04300 Y1.68095
X-3.04400 Y1.68095
X-3.04400 Y1.67895
X-3.04500 Y1.67895
X-3.04500 Y1.67795
X-3.04600 Y1.67795
X-3.04600 Y1.67595
X-3.04700 Y1.67595
X-3.04700 Y1.67395
X-3.04800 Y1.67395
X-3.04800 Y1.67295
X-3.04900 Y1.67295
X-3.04900 Y1.66695
X-3.05000 Y1.66695
X-3.05000 Y1.63595
X-3.04900 Y1.63595
X-3.04900 Y1.62995
X-3.04800 Y1.62995
X-3.04800 Y1.62895
X-3.04700 Y1.62895
X-3.04700 Y1.62695
X-3.04600 Y1.62695
X-3.04600 Y1.62495
X-3.04500 Y1.62495
X-3.04500 Y1.62395
X-3.04400 Y1.62395
X-3.04400 Y1.62195
X-3.04300 Y1.62195
X-3.04300 Y1.61995
X-3.04100 Y1.61995
X-3.04100 Y1.61895
X-3.04000 Y1.61895
X-3.04000 Y1.61795
X-3.03900 Y1.61795
X-3.03900 Y1.61695
X-3.03700 Y1.61695
X-3.03700 Y1.61595
X-3.03600 Y1.61595
X-3.03600 Y1.61495
X-3.03500 Y1.61495
X-3.03500 Y1.61395
X-3.03300 Y1.61395
X-3.03300 Y1.61295
X-3.03100 Y1.61295
X-3.03100 Y1.61195
X-3.02700 Y1.61195
X-3.02700 Y1.61095
X-2.99200 Y1.61095
X-2.99200 Y1.61195
X-2.98800 Y1.61195
X-2.98800 Y1.61295
X-2.98600 Y1.61295
X-2.98600 Y1.61395
X-2.98400 Y1.61395
X-2.98400 Y1.61495
X-2.98300 Y1.61495
X-2.98300 Y1.61595
X-2.98200 Y1.61595
X-2.98200 Y1.61695
X-2.98000 Y1.61695
X-2.98000 Y1.61795
X-2.97900 Y1.61795
X-2.97900 Y1.61895
X-2.97800 Y1.61895
X-2.97800 Y1.61995
X-2.97600 Y1.61995
X-2.97600 Y1.62195
X-2.97500 Y1.62195
X-2.97500 Y1.62395
X-2.97400 Y1.62395
X-2.97400 Y1.62495
X-2.97300 Y1.62495
X-2.97300 Y1.62595
X-2.97200 Y1.62595
X-2.97200 Y1.62495
X-2.97100 Y1.62495
X-2.97100 Y1.62395
X-2.97000 Y1.62395
X-2.97000 Y1.62295
X-2.96900 Y1.62295
X-2.96900 Y1.62195
X-2.96800 Y1.62195
X-2.96800 Y1.62095
X-2.96700 Y1.62095
X-2.96700 Y1.61995
X-2.96600 Y1.61995
X-2.96600 Y1.61895
X-2.96500 Y1.61895
X-2.96500 Y1.61795
X-2.96400 Y1.61795
X-2.96400 Y1.61695
X-2.96300 Y1.61695
X-2.96300 Y1.61595
X-2.96200 Y1.61595
X-2.96200 Y1.61495
X-2.96100 Y1.61495
X-2.96100 Y1.61395
X-2.96000 Y1.61395
X-2.96000 Y1.61295
X-2.95900 Y1.61295
X-2.95900 Y1.61195
X-2.95800 Y1.61195
X-2.95800 Y1.61095
X-2.95700 Y1.61095
X-2.95700 Y1.60995
X-2.95600 Y1.60995
X-2.95600 Y1.60895
X-2.95500 Y1.60895
X-2.95500 Y1.60795
X-2.95400 Y1.60795
X-2.95400 Y1.60695
X-2.95300 Y1.60695
X-2.95300 Y1.60595
X-2.95200 Y1.60595
X-2.95200 Y1.60495
X-2.95100 Y1.60495
X-2.95100 Y1.60395
X-2.95000 Y1.60395
X-2.95000 Y1.60295
X-2.94900 Y1.60295
X-2.94900 Y1.60195
X-2.94800 Y1.60195
X-2.94800 Y1.60095
X-2.94700 Y1.60095
X-2.94700 Y1.59995
X-2.94600 Y1.59995
X-2.94600 Y1.59895
X-2.94500 Y1.59895
X-2.94500 Y1.59795
X-2.94400 Y1.59795
X-2.94400 Y1.59695
X-2.94300 Y1.59695
X-2.94300 Y1.59595
X-2.94200 Y1.59595
X-2.94200 Y1.59495
X-2.94100 Y1.59495
X-2.94100 Y1.59395
X-2.94000 Y1.59395
X-2.94000 Y1.59295
X-2.93900 Y1.59295
X-2.93900 Y1.59195
X-2.93800 Y1.59195
X-2.93800 Y1.59095
X-2.93700 Y1.59095
X-2.93700 Y1.58995
X-2.93600 Y1.58995
X-2.93600 Y1.58895
X-2.93500 Y1.58895
X-2.93500 Y1.58795
X-2.93400 Y1.58795
X-2.93400 Y1.58695
X-2.93300 Y1.58695
X-2.93300 Y1.58595
X-2.93200 Y1.58595
X-2.93200 Y1.58495
X-2.93100 Y1.58495
X-2.93100 Y1.58395
X-2.93000 Y1.58395
X-2.93000 Y1.58295
X-2.92900 Y1.58295
X-2.92900 Y1.58195
X-2.92800 Y1.58195
X-2.92800 Y1.58095
X-2.92700 Y1.58095
X-2.92700 Y1.57995
X-2.92600 Y1.57995
X-2.92600 Y1.57895
X-2.92500 Y1.57895
X-2.92500 Y1.57795
X-2.92400 Y1.57795
X-2.92400 Y1.57695
X-2.92300 Y1.57695
X-2.92300 Y1.57595
X-2.92200 Y1.57595
X-2.92200 Y1.57495
X-2.92100 Y1.57495
X-2.92100 Y1.57395
X-2.92000 Y1.57395
X-2.92000 Y1.57295
X-2.91900 Y1.57295
X-2.91900 Y1.57195
X-2.91800 Y1.57195
X-2.91800 Y1.57095
X-2.91700 Y1.57095
X-2.91700 Y1.56995
X-2.91600 Y1.56995
X-2.91600 Y1.56895
X-2.91500 Y1.56895
X-2.91500 Y1.56795
X-2.91400 Y1.56795
X-2.91400 Y1.56695
X-2.91300 Y1.56695
X-2.91300 Y1.56595
X-2.91200 Y1.56595
X-2.91200 Y1.56495
X-2.91100 Y1.56495
X-2.91100 Y1.56395
X-2.91000 Y1.56395
X-2.91000 Y1.56295
X-2.90900 Y1.56295
X-2.90900 Y1.56195
X-2.90800 Y1.56195
X-2.90800 Y1.56095
X-2.90700 Y1.56095
X-2.90700 Y1.55995
X-2.90600 Y1.55995
X-2.90600 Y1.55895
X-2.90500 Y1.55895
X-2.90500 Y1.55795
X-2.90400 Y1.55795
X-2.90400 Y1.55695
X-2.90300 Y1.55695
X-2.90300 Y1.55595
X-2.90200 Y1.55595
X-2.90200 Y1.55495
X-2.90100 Y1.55495
X-2.90100 Y1.55395
X-2.90000 Y1.55395
X-2.90000 Y1.55295
X-2.89900 Y1.55295
X-2.89900 Y1.55195
X-2.89800 Y1.55195
X-2.89800 Y1.55095
X-2.89700 Y1.55095
X-2.89700 Y1.54995
X-2.89600 Y1.54995
X-2.89600 Y1.54895
X-2.89500 Y1.54895
X-2.89500 Y1.54795
X-2.89400 Y1.54795
X-2.89400 Y1.54695
X-2.89300 Y1.54695
X-2.89300 Y1.54595
X-2.89200 Y1.54595
X-2.89200 Y1.54495
X-2.89100 Y1.54495
X-2.89100 Y1.54395
X-2.89000 Y1.54395
X-2.89000 Y1.54295
X-2.88900 Y1.54295
X-2.88900 Y1.54195
X-2.88800 Y1.54195
X-2.88800 Y1.54095
X-2.88700 Y1.54095
X-2.88700 Y1.53995
X-2.88600 Y1.53995
X-2.88600 Y1.53895
X-2.88400 Y1.53895
X-2.88400 Y1.53795
X-2.88200 Y1.53795
X-2.88200 Y1.53695
X-2.65900 Y1.53695
X-2.65900 Y1.25995
X-2.65800 Y1.25995
X-2.65800 Y1.25695
X-2.65700 Y1.25695
X-2.65700 Y1.25595
X-2.65600 Y1.25595
X-2.65600 Y1.25395
X-2.65500 Y1.25395
X-2.65500 Y1.25295
X-2.65400 Y1.25295
X-2.65400 Y1.25195
X-2.65300 Y1.25195
X-2.65300 Y1.25095
X-2.65200 Y1.25095
X-2.65200 Y1.24995
X-2.65100 Y1.24995
X-2.65100 Y1.24895
X-2.65000 Y1.24895
X-2.65000 Y1.24795
X-2.64900 Y1.24795
X-2.64900 Y1.24695
X-2.64800 Y1.24695
X-2.64800 Y1.24595
X-2.64700 Y1.24595
X-2.64700 Y1.24495
X-2.64600 Y1.24495
X-2.64600 Y1.24395
X-2.64500 Y1.24395
X-2.64500 Y1.24295
X-2.64400 Y1.24295
X-2.64400 Y1.24195
X-2.64300 Y1.24195
X-2.64300 Y1.24095
X-2.64200 Y1.24095
X-2.64200 Y1.23995
X-2.64100 Y1.23995
X-2.64100 Y1.23895
X-2.64000 Y1.23895
X-2.64000 Y1.23795
X-2.63900 Y1.23795
X-2.63900 Y1.23695
X-2.63800 Y1.23695
X-2.63800 Y1.23595
X-2.63700 Y1.23595
X-2.63700 Y1.23495
X-2.63600 Y1.23495
X-2.63600 Y1.23395
X-2.63500 Y1.23395
X-2.63500 Y1.23295
X-2.63400 Y1.23295
X-2.63400 Y1.23195
X-2.63300 Y1.23195
X-2.63300 Y1.23095
X-2.63200 Y1.23095
X-2.63200 Y1.22995
X-2.63100 Y1.22995
X-2.63100 Y1.22895
X-2.63000 Y1.22895
X-2.63000 Y1.22795
X-2.62900 Y1.22795
X-2.62900 Y1.22695
X-2.62800 Y1.22695
X-2.62800 Y1.22595
X-2.62700 Y1.22595
X-2.62700 Y1.22495
X-2.62600 Y1.22495
X-2.62600 Y1.22395
X-2.62400 Y1.22395
X-2.62400 Y1.22295
X-2.62200 Y1.22295
X-2.62200 Y1.22195
X-2.44700 Y1.22195
X-2.44700 Y1.22295
X-2.44500 Y1.22295
X-2.44500 Y1.22395
X-2.44300 Y1.22395
X-2.44300 Y1.22495
X-2.44200 Y1.22495
X-2.44200 Y1.22595
X-2.44100 Y1.22595
X-2.44100 Y1.22695
X-2.44000 Y1.22695
X-2.44000 Y1.22795
X-2.43900 Y1.22795
X-2.43900 Y1.22895
X-2.43800 Y1.22895
X-2.43800 Y1.22995
X-2.43700 Y1.22995
X-2.43700 Y1.23095
X-2.43600 Y1.23095
X-2.43600 Y1.23195
X-2.43500 Y1.23195
X-2.43500 Y1.23295
X-2.43400 Y1.23295
X-2.43400 Y1.23395
X-2.43300 Y1.23395
X-2.43300 Y1.23495
X-2.43200 Y1.23495
X-2.43200 Y1.23595
X-2.43100 Y1.23595
X-2.43100 Y1.23695
X-2.43000 Y1.23695
X-2.43000 Y1.23795
X-2.42900 Y1.23795
X-2.42900 Y1.23895
X-2.42800 Y1.23895
X-2.42800 Y1.23995
X-2.42700 Y1.23995
X-2.42700 Y1.24095
X-2.42600 Y1.24095
X-2.42600 Y1.24195
X-2.42500 Y1.24195
X-2.42500 Y1.24295
X-2.42400 Y1.24295
X-2.42400 Y1.24395
X-2.42300 Y1.24395
X-2.42300 Y1.24495
X-2.42200 Y1.24495
X-2.42200 Y1.24595
X-2.42100 Y1.24595
X-2.42100 Y1.24695
X-2.42000 Y1.24695
X-2.42000 Y1.24795
X-2.41900 Y1.24795
X-2.41900 Y1.24895
X-2.41800 Y1.24895
X-2.41800 Y1.24995
X-2.41700 Y1.24995
X-2.41700 Y1.25095
X-2.41600 Y1.25095
X-2.41600 Y1.25195
X-2.41500 Y1.25195
X-2.41500 Y1.25295
X-2.41400 Y1.25295
X-2.41400 Y1.25395
X-2.41300 Y1.25395
X-2.41300 Y1.25495
X-2.41200 Y1.25495
X-2.41200 Y1.25595
X-2.41100 Y1.25595
X-2.41100 Y1.25695
X-2.41000 Y1.25695
X-2.41000 Y1.25795
X-2.40900 Y1.25795
X-2.40900 Y1.25895
X-2.40800 Y1.25895
X-2.40800 Y1.25995
X-2.40700 Y1.25995
X-2.40700 Y1.26095
X-2.40600 Y1.26095
X-2.40600 Y1.26195
X-2.40500 Y1.26195
X-2.40500 Y1.26295
X-2.40400 Y1.26295
X-2.40400 Y1.26395
X-2.40300 Y1.26395
X-2.40300 Y1.26495
X-2.40200 Y1.26495
X-2.40200 Y1.26595
X-2.40100 Y1.26595
X-2.40100 Y1.26695
X-2.40000 Y1.26695
X-2.40000 Y1.26795
X-2.39900 Y1.26795
X-2.39900 Y1.26895
X-2.39800 Y1.26895
X-2.39800 Y1.26995
X-2.39700 Y1.26995
X-2.39700 Y1.27095
X-2.39600 Y1.27095
X-2.39600 Y1.27195
X-2.39500 Y1.27195
X-2.39500 Y1.27295
X-2.39400 Y1.27295
X-2.39400 Y1.27395
X-2.39300 Y1.27395
X-2.39300 Y1.27495
X-2.39200 Y1.27495
X-2.39200 Y1.27595
X-2.39100 Y1.27595
X-2.39100 Y1.27695
X-2.39000 Y1.27695
X-2.39000 Y1.27795
X-2.38900 Y1.27795
X-2.38900 Y1.27895
X-2.38800 Y1.27895
X-2.38800 Y1.28095
X-2.38700 Y1.28095
X-2.38700 Y1.28195
X-2.38600 Y1.28195
X-2.38600 Y1.28495
X-2.38500 Y1.28495
X-2.38500 Y1.35295
X-2.38400 Y1.35295
X-2.38400 Y1.35395
X-2.38300 Y1.35395
X-2.38300 Y1.35495
X-2.38200 Y1.35495
X-2.38200 Y1.35595
X-2.38100 Y1.35595
X-2.38100 Y1.35695
X-2.38000 Y1.35695
X-2.38000 Y1.35795
X-2.37900 Y1.35795
X-2.37900 Y1.35895
X-2.37800 Y1.35895
X-2.37800 Y1.35995
X-2.37700 Y1.35995
X-2.37700 Y1.36095
X-2.37600 Y1.36095
X-2.37600 Y1.36195
X-2.37500 Y1.36195
X-2.37500 Y1.36295
X-2.37400 Y1.36295
X-2.37400 Y1.36395
X-2.37300 Y1.36395
X-2.37300 Y1.36495
X-2.37200 Y1.36495
X-2.37200 Y1.36595
X-2.37100 Y1.36595
X-2.37100 Y1.36695
X-2.37000 Y1.36695
X-2.37000 Y1.36795
X-2.36900 Y1.36795
X-2.36900 Y1.36895
X-2.36800 Y1.36895
X-2.36800 Y1.36995
X-2.36700 Y1.36995
X-2.36700 Y1.37095
X-2.36600 Y1.37095
X-2.36600 Y1.37195
X-2.36500 Y1.37195
X-2.36500 Y1.37295
X-2.36400 Y1.37295
X-2.36400 Y1.37395
X-2.36300 Y1.37395
X-2.36300 Y1.37495
X-2.36200 Y1.37495
X-2.36200 Y1.37595
X-2.36100 Y1.37595
X-2.36100 Y1.37695
X-2.36000 Y1.37695
X-2.36000 Y1.37795
X-2.35900 Y1.37795
X-2.35900 Y1.37895
X-2.35800 Y1.37895
X-2.35800 Y1.37995
X-2.35700 Y1.37995
X-2.35700 Y1.38095
X-2.35600 Y1.38095
X-2.35600 Y1.38195
X-2.35500 Y1.38195
X-2.35500 Y1.38295
X-2.35400 Y1.38295
X-2.35400 Y1.38395
X-2.35300 Y1.38395
X-2.35300 Y1.38495
X-2.35200 Y1.38495
X-2.35200 Y1.38595
X-2.35100 Y1.38595
X-2.35100 Y1.38695
X-2.23700 Y1.38695
X-2.23700 Y1.38595
X-2.23600 Y1.38595
X-2.23600 Y1.38495
X-2.23500 Y1.38495
X-2.23500 Y1.38395
X-2.23400 Y1.38395
X-2.23400 Y1.38295
X-2.23300 Y1.38295
X-2.23300 Y1.38195
X-2.23200 Y1.38195
X-2.23200 Y1.38095
X-2.23100 Y1.38095
X-2.23100 Y1.37995
X-2.23000 Y1.37995
X-2.23000 Y1.37895
X-2.22900 Y1.37895
X-2.22900 Y1.37795
X-2.22800 Y1.37795
X-2.22800 Y1.37695
X-2.22700 Y1.37695
X-2.22700 Y1.37595
X-2.22600 Y1.37595
X-2.22600 Y1.37495
X-2.22500 Y1.37495
X-2.22500 Y1.37395
X-2.22400 Y1.37395
X-2.22400 Y1.37295
X-2.22300 Y1.37295
X-2.22300 Y1.37195
X-2.22200 Y1.37195
X-2.22200 Y1.37095
X-2.22100 Y1.37095
X-2.22100 Y1.36995
X-2.22000 Y1.36995
X-2.22000 Y1.36895
X-2.21900 Y1.36895
X-2.21900 Y1.36795
X-2.21800 Y1.36795
X-2.21800 Y1.36695
X-2.21700 Y1.36695
X-2.21700 Y1.36595
X-2.21600 Y1.36595
X-2.21600 Y1.36495
X-2.21500 Y1.36495
X-2.21500 Y1.36295
X-2.21400 Y1.36295
X-2.21400 Y1.28695
X-2.21500 Y1.28695
X-2.21500 Y1.28595
X-2.21600 Y1.28595
X-2.21600 Y1.28495
X-2.21800 Y1.28495
X-2.21800 Y1.28395
X-2.22000 Y1.28395
X-2.22000 Y1.28295
X-2.22200 Y1.28295
X-2.22200 Y1.28195
X-2.22300 Y1.28195
X-2.22300 Y1.28095
X-2.22400 Y1.28095
X-2.22400 Y1.27995
X-2.22500 Y1.27995
X-2.22500 Y1.27795
X-2.22600 Y1.27795
X-2.22600 Y1.27695
X-2.22700 Y1.27695
X-2.22700 Y1.27495
X-2.22800 Y1.27495
X-2.22800 Y1.27395
X-2.22900 Y1.27395
X-2.22900 Y1.27095
X-2.23000 Y1.27095
X-2.23000 Y1.26595
X-2.23100 Y1.26595
X-2.23100 Y1.23695
X-2.23000 Y1.23695
X-2.23000 Y1.23195
X-2.22900 Y1.23195
X-2.22900 Y1.22895
X-2.22800 Y1.22895
X-2.22800 Y1.22795
X-2.22700 Y1.22795
X-2.22700 Y1.22595
X-2.22600 Y1.22595
X-2.22600 Y1.22495
X-2.22500 Y1.22495
X-2.22500 Y1.22295
X-2.22400 Y1.22295
X-2.22400 Y1.22195
X-2.22300 Y1.22195
X-2.22300 Y1.22095
X-2.22200 Y1.22095
X-2.22200 Y1.21995
X-2.22000 Y1.21995
X-2.22000 Y1.21895
X-2.21800 Y1.21895
X-2.21800 Y1.21795
X-2.21600 Y1.21795
X-2.21600 Y1.21695
X-2.21500 Y1.21695
X-2.21500 Y1.21595
X-2.21000 Y1.21595
X-2.21000 Y1.21495
X-2.17900 Y1.21495
X-2.17900 Y1.21595
X-2.17400 Y1.21595
X-2.17400 Y1.21695
X-2.17300 Y1.21695
X-2.17300 Y1.21795
X-2.17100 Y1.21795
X-2.17100 Y1.21895
X-2.16900 Y1.21895
X-2.16900 Y1.21995
X-2.16700 Y1.21995
X-2.16700 Y1.22095
X-2.16600 Y1.22095
X-2.16600 Y1.22195
X-2.16500 Y1.22195
X-2.16500 Y1.22295
X-2.16400 Y1.22295
X-2.16400 Y1.22495
X-2.16300 Y1.22495
X-2.16300 Y1.22595
X-2.16200 Y1.22595
X-2.16200 Y1.22795
X-2.16100 Y1.22795
X-2.16100 Y1.22895
X-2.16000 Y1.22895
X-2.16000 Y1.23095
X-2.15900 Y1.23095
X-2.15900 Y1.23195
X-2.04000 Y1.23195
X-2.04000 Y1.23295
X-2.03800 Y1.23295
X-2.03800 Y1.23395
X-2.03600 Y1.23395
X-2.03600 Y1.23495
X-2.03500 Y1.23495
X-2.03500 Y1.23595
X-2.03400 Y1.23595
X-2.03400 Y1.23695
X-2.03300 Y1.23695
X-2.03300 Y1.23795
X-2.03200 Y1.23795
X-2.03200 Y1.23895
X-2.03100 Y1.23895
X-2.03100 Y1.23995
X-2.03000 Y1.23995
X-2.03000 Y1.24095
X-2.02900 Y1.24095
X-2.02900 Y1.24195
X-2.02800 Y1.24195
X-2.02800 Y1.24295
X-2.02700 Y1.24295
X-2.02700 Y1.24395
X-2.02600 Y1.24395
X-2.02600 Y1.24495
X-2.02500 Y1.24495
X-2.02500 Y1.24595
X-2.02400 Y1.24595
X-2.02400 Y1.24695
X-2.02300 Y1.24695
X-2.02300 Y1.24795
X-2.02200 Y1.24795
X-2.02200 Y1.24895
X-2.02100 Y1.24895
X-2.02100 Y1.24995
X-2.02000 Y1.24995
X-2.02000 Y1.25095
X-2.01900 Y1.25095
X-2.01900 Y1.25195
X-2.01800 Y1.25195
X-2.01800 Y1.25295
X-2.01700 Y1.25295
X-2.01700 Y1.25395
X-2.01600 Y1.25395
X-2.01600 Y1.25495
X-2.01500 Y1.25495
X-2.01500 Y1.25595
X-2.01400 Y1.25595
X-2.01400 Y1.25695
X-2.01300 Y1.25695
X-2.01300 Y1.25795
X-2.01200 Y1.25795
X-2.01200 Y1.25895
X-2.01100 Y1.25895
X-2.01100 Y1.25995
X-2.01000 Y1.25995
X-2.01000 Y1.26095
X-2.00900 Y1.26095
X-2.00900 Y1.26195
X-2.00800 Y1.26195
X-2.00800 Y1.26295
X-2.00700 Y1.26295
X-2.00700 Y1.26395
X-2.00600 Y1.26395
X-2.00600 Y1.26495
X-2.00500 Y1.26495
X-2.00500 Y1.26595
X-2.00400 Y1.26595
X-2.00400 Y1.26695
X-2.00300 Y1.26695
X-2.00300 Y1.26795
X-2.00200 Y1.26795
X-2.00200 Y1.26895
X-2.00100 Y1.26895
X-2.00100 Y1.26995
X-2.00000 Y1.26995
X-2.00000 Y1.27095
X-1.99900 Y1.27095
X-1.99900 Y1.27195
X-1.99800 Y1.27195
X-1.99800 Y1.27295
X-1.99700 Y1.27295
X-1.99700 Y1.27395
X-1.99600 Y1.27395
X-1.99600 Y1.27495
X-1.99500 Y1.27495
X-1.99500 Y1.27595
X-1.99400 Y1.27595
X-1.99400 Y1.27695
X-1.99300 Y1.27695
X-1.99300 Y1.27795
X-1.99200 Y1.27795
X-1.99200 Y1.27895
X-1.99100 Y1.27895
X-1.99100 Y1.27995
X-1.99000 Y1.27995
X-1.99000 Y1.28095
X-1.98900 Y1.28095
X-1.98900 Y1.28195
X-1.98800 Y1.28195
X-1.98800 Y1.28295
X-1.98700 Y1.28295
X-1.98700 Y1.28395
X-1.98600 Y1.28395
X-1.98600 Y1.28495
X-1.98500 Y1.28495
X-1.98500 Y1.28595
X-1.98400 Y1.28595
X-1.98400 Y1.28695
X-1.98300 Y1.28695
X-1.98300 Y1.28795
X-1.98200 Y1.28795
X-1.98200 Y1.28895
X-1.98000 Y1.28895
X-1.98000 Y1.28995
X-1.97900 Y1.28995
X-1.97900 Y1.29095
X-1.97800 Y1.29095
X-1.97800 Y1.29195
X-1.97700 Y1.29195
X-1.97700 Y1.29295
X-1.97600 Y1.29295
X-1.97600 Y1.29395
X-1.97500 Y1.29395
X-1.97500 Y1.29495
X-1.97400 Y1.29495
X-1.97400 Y1.29595
X-1.97300 Y1.29595
X-1.97300 Y1.29695
X-1.97200 Y1.29695
X-1.97200 Y1.29895
X-1.97100 Y1.29895
X-1.97100 Y1.29995
X-1.97000 Y1.29995
X-1.97000 Y1.30295
X-1.96900 Y1.30295
X-1.96900 Y2.51395
X-1.97000 Y2.51395
X-1.97000 Y2.51695
X-1.97100 Y2.51695
X-1.97100 Y2.51795
X-1.97200 Y2.51795
X-1.97200 Y2.51995
X-1.97300 Y2.51995
X-1.97300 Y2.52095
X-1.97400 Y2.52095
X-1.97400 Y2.52195
X-1.97500 Y2.52195
X-1.97500 Y2.52295
X-1.97600 Y2.52295
X-1.97600 Y2.52395
X-1.97700 Y2.52395
X-1.97700 Y2.52495
X-1.97800 Y2.52495
X-1.97800 Y2.52595
X-1.98000 Y2.52595
X-1.98000 Y2.52695
X-1.98100 Y2.52695
X-1.98100 Y2.52795
X-1.98200 Y2.52795
X-1.98200 Y2.52895
X-1.98100 Y2.52895
X-1.98100 Y2.53495
X-1.98000 Y2.53495
X-1.98000 Y2.56795
X-1.98100 Y2.56795
X-1.98100 Y2.57395
X-1.98200 Y2.57395
X-1.98200 Y2.57795
X-1.98300 Y2.57795
X-1.98300 Y2.58095
X-1.98400 Y2.58095
X-1.98400 Y2.58295
X-1.98500 Y2.58295
X-1.98500 Y2.58495
X-1.98600 Y2.58495
X-1.98600 Y2.58695
X-1.98700 Y2.58695
X-1.98700 Y2.58895
X-1.98800 Y2.58895
X-1.98800 Y2.58995
X-1.98900 Y2.58995
X-1.98900 Y2.59195
X-1.99000 Y2.59195
X-1.99000 Y2.59295
X-1.99100 Y2.59295
X-1.99100 Y2.59395
X-1.99200 Y2.59395
X-1.99200 Y2.59495
X-1.99300 Y2.59495
X-1.99300 Y2.59595
X-1.99400 Y2.59595
X-1.99400 Y2.59695
X-1.99500 Y2.59695
X-1.99500 Y2.59795
X-1.99600 Y2.59795
X-1.99600 Y2.59895
X-1.99700 Y2.59895
X-1.99700 Y2.59995
X-1.99900 Y2.59995
X-1.99900 Y2.60095
X-2.00000 Y2.60095
X-2.00000 Y2.60195
X-2.00200 Y2.60195
X-2.00200 Y2.60295
X-2.00300 Y2.60295
X-2.00300 Y2.60395
X-2.00500 Y2.60395
X-2.00500 Y2.60495
X-2.00700 Y2.60495
X-2.00700 Y2.60595
X-2.01000 Y2.60595
X-2.01000 Y2.60695
X-2.01200 Y2.60695
X-2.01200 Y2.60795
X-2.01600 Y2.60795
X-2.01600 Y2.60895
X-2.01600 Y2.60895
X-2.01600 Y2.60995
X-2.01500 Y2.60995
X-2.01500 Y2.61095
X-2.01400 Y2.61095
X-2.01400 Y2.61195
X-2.01300 Y2.61195
X-2.01300 Y2.61295
X-2.01200 Y2.61295
X-2.01200 Y2.61395
X-2.01100 Y2.61395
X-2.01100 Y2.61495
X-2.01000 Y2.61495
X-2.01000 Y2.61595
X-2.00900 Y2.61595
X-2.00900 Y2.61695
X-2.00800 Y2.61695
X-2.00800 Y2.61795
X-2.00700 Y2.61795
X-2.00700 Y2.61895
X-2.00600 Y2.61895
X-2.00600 Y2.61995
X-2.00500 Y2.61995
X-2.00500 Y2.62095
X-2.00400 Y2.62095
X-2.00400 Y2.62195
X-2.00300 Y2.62195
X-2.00300 Y2.62295
X-2.00200 Y2.62295
X-2.00200 Y2.62395
X-2.00100 Y2.62395
X-2.00100 Y2.62495
X-2.00000 Y2.62495
X-2.00000 Y2.62595
X-1.99900 Y2.62595
X-1.99900 Y2.62695
X-1.99800 Y2.62695
X-1.99800 Y2.62795
X-1.99700 Y2.62795
X-1.99700 Y2.62895
X-1.99600 Y2.62895
X-1.99600 Y2.62995
X-1.99500 Y2.62995
X-1.99500 Y2.63095
X-1.99400 Y2.63095
X-1.99400 Y2.63195
X-1.99300 Y2.63195
X-1.99300 Y2.63295
X-1.99200 Y2.63295
X-1.99200 Y2.63395
X-1.99100 Y2.63395
X-1.99100 Y2.63495
X-1.99000 Y2.63495
X-1.99000 Y2.63595
X-1.98900 Y2.63595
X-1.98900 Y2.63695
X-1.98800 Y2.63695
X-1.98800 Y2.63795
X-1.98700 Y2.63795
X-1.98700 Y2.63895
X-1.98600 Y2.63895
X-1.98600 Y2.63995
X-1.98500 Y2.63995
X-1.98500 Y2.64095
X-1.98400 Y2.64095
X-1.98400 Y2.64195
X-1.98300 Y2.64195
X-1.98300 Y2.64295
X-1.98200 Y2.64295
X-1.98200 Y2.64395
X-1.98100 Y2.64395
X-1.98100 Y2.64495
X-1.98000 Y2.64495
X-1.98000 Y2.64595
X-1.97900 Y2.64595
X-1.97900 Y2.64695
X-1.97800 Y2.64695
X-1.97800 Y2.64795
X-1.97700 Y2.64795
X-1.97700 Y2.64895
X-1.97600 Y2.64895
X-1.97600 Y2.64995
X-1.97500 Y2.64995
X-1.97500 Y2.65095
X-1.97400 Y2.65095
X-1.97400 Y2.65195
X-1.97300 Y2.65195
X-1.97300 Y2.65295
X-1.97200 Y2.65295
X-1.97200 Y2.65395
X-1.97100 Y2.65395
X-1.97100 Y2.65495
X-1.97000 Y2.65495
X-1.97000 Y2.65595
X-1.96900 Y2.65595
X-1.96900 Y2.65695
X-1.96800 Y2.65695
X-1.96800 Y2.65795
X-1.96700 Y2.65795
X-1.96700 Y2.65895
X-1.96600 Y2.65895
X-1.96600 Y2.65995
X-1.96500 Y2.65995
X-1.96500 Y2.66095
X-1.96400 Y2.66095
X-1.96400 Y2.66195
X-1.96300 Y2.66195
X-1.96300 Y2.66295
X-1.96200 Y2.66295
X-1.96200 Y2.66395
X-1.96100 Y2.66395
X-1.96100 Y2.66495
X-1.96000 Y2.66495
X-1.96000 Y2.66595
X-1.95900 Y2.66595
X-1.95900 Y2.66695
X-1.95800 Y2.66695
X-1.95800 Y2.66795
X-1.95700 Y2.66795
X-1.95700 Y2.66895
X-1.95600 Y2.66895
X-1.95600 Y2.66995
X-1.95500 Y2.66995
X-1.95500 Y2.67095
X-1.95400 Y2.67095
X-1.95400 Y2.67195
X-1.95300 Y2.67195
X-1.95300 Y2.67295
X-1.95200 Y2.67295
X-1.95200 Y2.67395
X-1.95100 Y2.67395
X-1.95100 Y2.67495
X-1.95000 Y2.67495
X-1.95000 Y2.67595
X-1.94900 Y2.67595
X-1.94900 Y2.67695
X-1.94800 Y2.67695
X-1.94800 Y2.67795
X-1.94700 Y2.67795
X-1.94700 Y2.67895
X-1.94600 Y2.67895
X-1.94600 Y2.67995
X-1.94500 Y2.67995
X-1.94500 Y2.68095
X-1.94400 Y2.68095
X-1.94400 Y2.68195
X-1.94300 Y2.68195
X-1.94300 Y2.68295
X-1.94200 Y2.68295
X-1.94200 Y2.68395
X-1.94100 Y2.68395
X-1.94100 Y2.68495
X-1.94000 Y2.68495
X-1.94000 Y2.68595
X-1.93900 Y2.68595
X-1.93900 Y2.68695
X-1.93800 Y2.68695
X-1.93800 Y2.68795
X-1.93700 Y2.68795
X-1.93700 Y2.68895
X-1.93600 Y2.68895
X-1.93600 Y2.68995
X-1.93500 Y2.68995
X-1.93500 Y2.69095
X-1.93400 Y2.69095
X-1.93400 Y2.69195
X-1.93300 Y2.69195
X-1.93300 Y2.69295
X-1.93200 Y2.69295
X-1.93200 Y2.69395
X-1.93100 Y2.69395
X-1.93100 Y2.69495
X-1.93000 Y2.69495
X-1.93000 Y2.69595
X-1.92900 Y2.69595
X-1.92900 Y2.69695
X-1.92800 Y2.69695
X-1.92800 Y2.69795
X-1.92700 Y2.69795
X-1.92700 Y2.69895
X-1.92600 Y2.69895
X-1.92600 Y2.69995
X-1.92500 Y2.69995
X-1.92500 Y2.70095
X-1.92400 Y2.70095
X-1.92400 Y2.70195
X-1.92300 Y2.70195
X-1.92300 Y2.70295
X-1.92200 Y2.70295
X-1.92200 Y2.70395
X-1.92100 Y2.70395
X-1.92100 Y2.70495
X-1.92000 Y2.70495
X-1.92000 Y2.70595
X-1.91900 Y2.70595
X-1.91900 Y2.70695
X-0.23000 Y2.70695
X-0.23000 Y2.70595
X-0.22900 Y2.70595
X-0.22900 Y2.70495
X-0.22800 Y2.70495
X-0.22800 Y2.70395
X-0.22700 Y2.70395
X-0.22700 Y2.70295
X-0.22600 Y2.70295
X-0.22600 Y2.70195
X-0.22500 Y2.70195
X-0.22500 Y2.70095
X-0.22400 Y2.70095
X-0.22400 Y2.69995
X-0.22300 Y2.69995
X-0.22300 Y2.69895
X-0.22200 Y2.69895
X-0.22200 Y2.69795
X-0.22100 Y2.69795
X-0.22100 Y2.69695
X-0.22000 Y2.69695
X-0.22000 Y2.69595
X-0.21900 Y2.69595
X-0.21900 Y2.69495
X-0.21800 Y2.69495
X-0.21800 Y2.69395
X-0.21700 Y2.69395
X-0.21700 Y2.69295
X-0.21600 Y2.69295
X-0.21600 Y2.69195
X-0.21500 Y2.69195
X-0.21500 Y2.69095
X-0.21400 Y2.69095
X-0.21400 Y2.68995
X-0.21300 Y2.68995
X-0.21300 Y2.68895
X-0.21200 Y2.68895
X-0.21200 Y2.68795
X-0.21100 Y2.68795
X-0.21100 Y2.68695
X-0.21000 Y2.68695
X-0.21000 Y2.68595
X-0.20900 Y2.68595
X-0.20900 Y2.68495
X-0.20800 Y2.68495
X-0.20800 Y2.68395
X-0.20700 Y2.68395
X-0.20700 Y2.68295
X-0.20600 Y2.68295
X-0.20600 Y2.68195
X-0.20300 Y2.68195
X-0.20300 Y2.68095
X-0.20000 Y2.68095
X-0.20000 Y2.67995
X-0.19900 Y2.67995
X-0.19900 Y2.67895
X-0.19800 Y2.67895
X-0.19800 Y2.67795
X-0.19600 Y2.67795
X-0.19600 Y2.67695
X-0.19500 Y2.67695
X-0.19500 Y2.67595
X-0.19400 Y2.67595
X-0.19400 Y2.67495
X-0.19300 Y2.67495
X-0.19300 Y2.67395
X-0.19200 Y2.67395
X-0.19200 Y2.67295
X-0.19100 Y2.67295
X-0.19100 Y2.67195
X-0.19000 Y2.67195
X-0.19000 Y2.67095
X-0.18900 Y2.67095
X-0.18900 Y2.66995
X-0.18800 Y2.66995
X-0.18800 Y2.66895
X-0.18700 Y2.66895
X-0.18700 Y2.66795
X-0.18600 Y2.66795
X-0.18600 Y2.66695
X-0.18500 Y2.66695
X-0.18500 Y2.66595
X-0.18400 Y2.66595
X-0.18400 Y2.66495
X-0.18300 Y2.66495
X-0.18300 Y2.66395
X-0.18200 Y2.66395
X-0.18200 Y2.66295
X-0.18100 Y2.66295
X-0.18100 Y2.66195
X-0.18000 Y2.66195
X-0.18000 Y2.66095
X-0.17900 Y2.66095
X-0.17900 Y2.65995
X-0.17800 Y2.65995
X-0.17800 Y2.65895
X-0.17700 Y2.65895
X-0.17700 Y2.65795
X-0.17600 Y2.65795
X-0.17600 Y2.65695
X-0.17500 Y2.65695
X-0.17500 Y2.65595
X-0.17400 Y2.65595
X-0.17400 Y2.65495
X-0.17300 Y2.65495
X-0.17300 Y2.65395
X-0.17200 Y2.65395
X-0.17200 Y2.65295
X-0.17000 Y2.65295
X-0.17000 Y2.65195
X-0.16800 Y2.65195
X-0.16800 Y2.65095
X-0.16400 Y2.65095
X-0.16400 Y2.64995
X-0.12200 Y2.64995
X-0.12200 Y2.64895
X-0.11900 Y2.64895
X-0.11900 Y2.64795
X-0.11600 Y2.64795
X-0.11600 Y2.64695
X-0.11500 Y2.64695
X-0.11500 Y2.64595
X-0.11300 Y2.64595
X-0.11300 Y2.64495
X-0.11100 Y2.64495
X-0.11100 Y2.64395
X-0.11000 Y2.64395
X-0.11000 Y2.64295
X-0.10900 Y2.64295
X-0.10900 Y2.64195
X-0.10800 Y2.64195
X-0.10800 Y2.64095
X-0.10700 Y2.64095
X-0.10700 Y2.63995
X-0.10600 Y2.63995
X-0.10600 Y2.63895
X-0.10500 Y2.63895
X-0.10500 Y2.63795
X-0.10400 Y2.63795
X-0.10400 Y2.63695
X-0.10300 Y2.63695
X-0.10300 Y2.63595
X-0.10200 Y2.63595
X-0.10200 Y2.63495
X-0.10100 Y2.63495
X-0.10100 Y2.63395
X-0.10000 Y2.63395
X-0.10000 Y2.63295
X-0.09900 Y2.63295
X-0.09900 Y2.63195
X-0.09800 Y2.63195
X-0.09800 Y2.63095
X-0.09700 Y2.63095
X-0.09700 Y2.62995
X-0.09600 Y2.62995
X-0.09600 Y2.62895
X-0.09500 Y2.62895
X-0.09500 Y2.62795
X-0.09400 Y2.62795
X-0.09400 Y2.62695
X-0.09300 Y2.62695
X-0.09300 Y2.62595
X-0.09200 Y2.62595
X-0.09200 Y2.62495
X-0.09100 Y2.62495
X-0.09100 Y2.62395
X-0.09000 Y2.62395
X-0.09000 Y2.62295
X-0.08900 Y2.62295
X-0.08900 Y2.62195
X-0.08800 Y2.62195
X-0.08800 Y2.62095
X-0.08700 Y2.62095
X-0.08700 Y2.61995
X-0.08600 Y2.61995
X-0.08600 Y2.61895
X-0.08500 Y2.61895
X-0.08500 Y2.61795
X-0.08400 Y2.61795
X-0.08400 Y2.61695
X-0.08300 Y2.61695
X-0.08300 Y2.61595
X-0.08200 Y2.61595
X-0.08200 Y2.61495
X-0.08100 Y2.61495
X-0.08100 Y2.61395
X-0.08000 Y2.61395
X-0.08000 Y2.61295
X-0.07900 Y2.61295
X-0.07900 Y2.61195
X-0.07800 Y2.61195
X-0.07800 Y2.61095
X-0.07700 Y2.61095
X-0.07700 Y2.60995
X-0.07600 Y2.60995
X-0.07600 Y2.60895
X-0.07500 Y2.60895
X-0.07500 Y2.60795
X-0.07400 Y2.60795
X-0.07400 Y2.60695
X-0.07300 Y2.60695
X-0.07300 Y2.60595
X-0.07200 Y2.60595
X-0.07200 Y2.60495
X-0.07100 Y2.60495
X-0.07100 Y2.60395
X-0.07000 Y2.60395
X-0.07000 Y2.60195
X-0.06900 Y2.60195
X-0.06900 Y2.60095
X-0.06800 Y2.60095
X-0.06800 Y2.59895
X-0.06700 Y2.59895
X-0.06700 Y2.59795
X-0.06600 Y2.59795
X-0.06600 Y2.59495
X-0.06500 Y2.59495
X-0.06500 Y2.59195
X-0.06400 Y2.59195
X-0.06400 Y2.51095
X-0.06500 Y2.51095
X-0.06500 Y2.50795
X-0.06600 Y2.50795
X-0.06600 Y2.50495
X-0.06700 Y2.50495
X-0.06700 Y2.50395
X-0.06800 Y2.50395
X-0.06800 Y2.50195
X-0.06900 Y2.50195
X-0.06900 Y2.50095
X-0.07000 Y2.50095
X-0.07000 Y2.49895
X-0.07100 Y2.49895
X-0.07100 Y2.49795
X-0.07200 Y2.49795
X-0.07200 Y2.49695
X-0.07300 Y2.49695
X-0.07300 Y2.49595
X-0.07400 Y2.49595
X-0.07400 Y2.49495
X-0.07500 Y2.49495
X-0.07500 Y2.49395
X-0.07600 Y2.49395
X-0.07600 Y2.49295
X-0.07700 Y2.49295
X-0.07700 Y2.49195
X-0.07800 Y2.49195
X-0.07800 Y2.49095
X-0.07900 Y2.49095
X-0.07900 Y2.48995
X-0.08000 Y2.48995
X-0.08000 Y2.48795
X-0.08100 Y2.48795
X-0.08100 Y2.48595
X-0.08200 Y2.48595
X-0.08200 Y2.48295
X-0.08300 Y2.48295
X-0.08300 Y2.27095
X-0.08400 Y2.27095
X-0.08400 Y2.26995
X-0.08500 Y2.26995
X-0.08500 Y2.26895
X-0.08600 Y2.26895
X-0.08600 Y2.26795
X-0.08700 Y2.26795
X-0.08700 Y2.26695
X-0.08800 Y2.26695
X-0.08800 Y2.26595
X-0.08900 Y2.26595
X-0.08900 Y2.26495
X-0.09000 Y2.26495
X-0.09000 Y2.26395
X-0.09100 Y2.26395
X-0.09100 Y2.26295
X-0.09200 Y2.26295
X-0.09200 Y2.26195
X-0.09300 Y2.26195
X-0.09300 Y2.26095
X-0.09400 Y2.26095
X-0.09400 Y2.25995
X-0.09500 Y2.25995
X-0.09500 Y2.25895
X-0.09600 Y2.25895
X-0.09600 Y2.25795
X-0.09700 Y2.25795
X-0.09700 Y2.25695
X-0.09800 Y2.25695
X-0.09800 Y2.25595
X-0.09900 Y2.25595
X-0.09900 Y2.25495
X-0.10000 Y2.25495
X-0.10000 Y2.25395
X-0.10100 Y2.25395
X-0.10100 Y2.25295
X-0.10200 Y2.25295
X-0.10200 Y2.25195
X-0.10300 Y2.25195
X-0.10300 Y2.25095
X-0.10400 Y2.25095
X-0.10400 Y2.24995
X-0.10500 Y2.24995
X-0.10500 Y2.24895
X-0.10600 Y2.24895
X-0.10600 Y2.24795
X-0.10700 Y2.24795
X-0.10700 Y2.24695
X-0.10800 Y2.24695
X-0.10800 Y2.24595
X-0.10900 Y2.24595
X-0.10900 Y2.24495
X-0.11000 Y2.24495
X-0.11000 Y2.24395
X-0.11100 Y2.24395
X-0.11100 Y2.24295
X-0.11200 Y2.24295
X-0.11200 Y2.24195
X-0.11300 Y2.24195
X-0.11300 Y2.24095
X-0.11400 Y2.24095
X-0.11400 Y2.23995
X-0.11500 Y2.23995
X-0.11500 Y2.23895
X-0.11600 Y2.23895
X-0.11600 Y2.23795
X-0.11700 Y2.23795
X-0.11700 Y2.23695
X-0.11800 Y2.23695
X-0.11800 Y2.23595
X-0.11900 Y2.23595
X-0.11900 Y2.23495
X-0.12000 Y2.23495
X-0.12000 Y2.23395
X-0.12100 Y2.23395
X-0.12100 Y2.23295
X-0.12200 Y2.23295
X-0.12200 Y2.23195
X-0.12300 Y2.23195
X-0.12300 Y2.23095
X-0.12400 Y2.23095
X-0.12400 Y2.22995
X-0.12500 Y2.22995
X-0.12500 Y2.22895
X-0.12600 Y2.22895
X-0.12600 Y2.22695
X-0.12700 Y2.22695
X-0.12700 Y2.22595
X-0.12800 Y2.22595
X-0.12800 Y2.22295
X-0.12900 Y2.22295
X-0.12900 Y1.26195
X-0.12800 Y1.26195
X-0.12800 Y1.25895
X-0.12700 Y1.25895
X-0.12700 Y1.25795
X-0.12600 Y1.25795
X-0.12600 Y1.25495
X-0.12500 Y1.25495
X-0.12500 Y1.25395
X-0.12400 Y1.25395
X-0.12400 Y1.25195
X-0.12300 Y1.25195
X-0.12300 Y1.25095
X-0.12200 Y1.25095
X-0.12200 Y1.24795
X-0.12100 Y1.24795
X-0.12100 Y1.24495
X-0.12000 Y1.24495
X-0.12000 Y1.24395
X-0.11900 Y1.24395
X-0.11900 Y1.13895
X-0.12000 Y1.13895
X-0.12000 Y1.13795
X-0.12100 Y1.13795
X-0.12100 Y1.13695
X-0.12200 Y1.13695
X-0.12200 Y1.13595
X-0.12300 Y1.13595
X-0.12300 Y1.13495
X-0.12400 Y1.13495
X-0.12400 Y1.13295
X-0.12500 Y1.13295
X-0.12500 Y1.13195
X-0.12600 Y1.13195
X-0.12600 Y1.13095
X-0.12700 Y1.13095
X-0.12700 Y1.12995
X-0.12800 Y1.12995
X-0.12800 Y1.12895
X-0.12900 Y1.12895
X-0.12900 Y1.12795
X-0.13000 Y1.12795
X-0.13000 Y1.12695
X-0.13100 Y1.12695
X-0.13100 Y1.12595
X-0.13200 Y1.12595
X-0.13200 Y1.12495
X-0.13300 Y1.12495
X-0.13300 Y1.12395
X-0.13400 Y1.12395
X-0.13400 Y1.12295
X-0.13500 Y1.12295
X-0.13500 Y1.12195
X-0.13600 Y1.12195
X-0.13600 Y1.12095
X-0.13700 Y1.12095
X-0.13700 Y1.11995
X-0.13800 Y1.11995
X-0.13800 Y1.11895
X-0.13900 Y1.11895
X-0.13900 Y1.11795
X-0.14000 Y1.11795
X-0.14000 Y1.11695
X-0.14100 Y1.11695
X-0.14100 Y1.11595
X-0.14200 Y1.11595
X-0.14200 Y1.11495
X-0.14300 Y1.11495
X-0.14300 Y1.11395
X-0.14400 Y1.11395
X-0.14400 Y1.11295
X-0.14500 Y1.11295
X-0.14500 Y1.11195
X-0.14600 Y1.11195
X-0.14600 Y1.11095
X-0.14700 Y1.11095
X-0.14700 Y1.10995
X-0.14800 Y1.10995
X-0.14800 Y1.10895
X-0.14900 Y1.10895
X-0.14900 Y1.10795
X-0.15000 Y1.10795
X-0.15000 Y1.10695
X-0.15100 Y1.10695
X-0.15100 Y1.10595
X-0.15200 Y1.10595
X-0.15200 Y1.10495
X-0.15300 Y1.10495
X-0.15300 Y1.10395
X-0.15400 Y1.10395
X-0.15400 Y1.10295
X-0.15500 Y1.10295
X-0.15500 Y1.10195
X-0.15600 Y1.10195
X-0.15600 Y1.10095
X-0.15700 Y1.10095
X-0.15700 Y1.09995
X-0.15800 Y1.09995
X-0.15800 Y1.09895
X-0.15900 Y1.09895
X-0.15900 Y1.09795
X-0.16000 Y1.09795
X-0.16000 Y1.09695
X-0.16100 Y1.09695
X-0.16100 Y1.09595
X-0.16200 Y1.09595
X-0.16200 Y1.09495
X-0.16300 Y1.09495
X-0.16300 Y1.09395
X-0.16400 Y1.09395
X-0.16400 Y1.09295
X-0.16500 Y1.09295
X-0.16500 Y1.09195
X-0.16600 Y1.09195
X-0.16600 Y1.09095
X-0.16700 Y1.09095
X-0.16700 Y1.08995
X-0.76500 Y1.08995
X-0.76500 Y1.08895
X-0.76800 Y1.08895
X-0.76800 Y1.08795
X-0.77000 Y1.08795
X-0.77000 Y1.08695
X-0.77200 Y1.08695
X-0.77200 Y1.08595
X-0.77300 Y1.08595
X-0.77300 Y1.08495
X-0.77400 Y1.08495
X-0.77400 Y1.08395
X-0.77500 Y1.08395
X-0.77500 Y1.08295
X-0.77600 Y1.08295
X-0.77600 Y1.08195
X-0.77700 Y1.08195
X-0.77700 Y1.08095
X-0.77800 Y1.08095
X-0.77800 Y1.07995
X-0.77900 Y1.07995
X-0.77900 Y1.07895
X-0.78000 Y1.07895
X-0.78000 Y1.07795
X-0.78100 Y1.07795
X-0.78100 Y1.07695
X-0.78200 Y1.07695
X-0.78200 Y1.07595
X-0.78300 Y1.07595
X-0.78300 Y1.07495
X-0.78400 Y1.07495
X-0.78400 Y1.07395
X-0.78500 Y1.07395
X-0.78500 Y1.07295
X-0.78600 Y1.07295
X-0.78600 Y1.07195
X-0.78700 Y1.07195
X-0.78700 Y1.07095
X-0.78800 Y1.07095
X-0.78800 Y1.06995
X-0.78900 Y1.06995
X-0.78900 Y1.06895
X-0.79000 Y1.06895
X-0.79000 Y1.06795
X-0.79100 Y1.06795
X-0.79100 Y1.06695
X-0.79200 Y1.06695
X-0.79200 Y1.06595
X-0.79300 Y1.06595
X-0.79300 Y1.06495
X-0.79400 Y1.06495
X-0.79400 Y1.06395
X-0.79500 Y1.06395
X-0.79500 Y1.06295
X-0.79600 Y1.06295
X-0.79600 Y1.06195
X-0.79700 Y1.06195
X-0.79700 Y1.06095
X-0.79800 Y1.06095
X-0.79800 Y1.05995
X-0.79900 Y1.05995
X-0.79900 Y1.05895
X-0.80000 Y1.05895
X-0.80000 Y1.05795
X-0.80100 Y1.05795
X-0.80100 Y1.05695
X-0.80200 Y1.05695
X-0.80200 Y1.05595
X-0.80300 Y1.05595
X-0.80300 Y1.05495
X-0.80400 Y1.05495
X-0.80400 Y1.05395
X-0.80500 Y1.05395
X-0.80500 Y1.05295
X-0.80600 Y1.05295
X-0.80600 Y1.05195
X-0.80700 Y1.05195
X-0.80700 Y1.05095
X-0.80800 Y1.05095
X-0.80800 Y1.04995
X-0.80900 Y1.04995
X-0.80900 Y1.04895
X-0.81000 Y1.04895
X-0.81000 Y1.04795
X-0.81100 Y1.04795
X-0.81100 Y1.04695
X-0.81200 Y1.04695
X-0.81200 Y1.04595
X-0.81300 Y1.04595
X-0.81300 Y1.04495
X-0.81400 Y1.04495
X-0.81400 Y1.04395
X-0.81500 Y1.04395
X-0.81500 Y1.04295
X-0.81600 Y1.04295
X-0.81600 Y1.04195
X-0.81700 Y1.04195
X-0.81700 Y1.04095
X-0.81800 Y1.04095
X-0.81800 Y1.03995
X-0.81900 Y1.03995
X-0.81900 Y1.03895
X-0.82000 Y1.03895
X-0.82000 Y1.03795
X-0.82100 Y1.03795
X-0.82100 Y1.03695
X-0.82200 Y1.03695
X-0.82200 Y1.03595
X-0.82300 Y1.03595
X-0.82300 Y1.03495
X-0.82400 Y1.03495
X-0.82400 Y1.03395
X-0.82500 Y1.03395
X-0.82500 Y1.03295
X-0.82600 Y1.03295
X-0.82600 Y1.03195
X-0.82700 Y1.03195
X-0.82700 Y1.03095
X-0.82800 Y1.03095
X-0.82800 Y1.02995
X-0.82900 Y1.02995
X-0.82900 Y1.02895
X-0.83000 Y1.02895
X-0.83000 Y1.02795
X-0.83100 Y1.02795
X-0.83100 Y1.02695
X-0.83200 Y1.02695
X-0.83200 Y1.02595
X-0.83300 Y1.02595
X-0.83300 Y1.02495
X-0.83400 Y1.02495
X-0.83400 Y1.02395
X-0.83500 Y1.02395
X-0.83500 Y1.02295
X-0.83600 Y1.02295
X-0.83600 Y1.02195
X-0.83700 Y1.02195
X-0.83700 Y1.02095
X-0.83800 Y1.02095
X-0.83800 Y1.01995
X-0.83900 Y1.01995
X-0.83900 Y1.01895
X-0.84000 Y1.01895
X-0.84000 Y1.01795
X-0.84100 Y1.01795
X-0.84100 Y1.01695
X-0.84200 Y1.01695
X-0.84200 Y1.01595
X-0.84300 Y1.01595
X-0.84300 Y1.01495
X-0.84400 Y1.01495
X-0.84400 Y1.01395
X-0.84500 Y1.01395
X-0.84500 Y1.01295
X-0.84600 Y1.01295
X-0.84600 Y1.01195
X-0.84700 Y1.01195
X-0.84700 Y1.01095
X-0.84800 Y1.01095
X-0.84800 Y1.00995
X-0.84900 Y1.00995
X-0.84900 Y1.00895
X-0.85000 Y1.00895
X-0.85000 Y1.00795
X-0.85100 Y1.00795
X-0.85100 Y1.00695
X-0.85200 Y1.00695
X-0.85200 Y1.00595
X-0.85300 Y1.00595
X-0.85300 Y1.00495
X-0.85400 Y1.00495
X-0.85400 Y1.00395
X-0.85500 Y1.00395
X-0.85500 Y1.00295
X-0.85600 Y1.00295
X-0.85600 Y1.00195
X-0.85700 Y1.00195
X-0.85700 Y1.00095
X-0.85800 Y1.00095
X-0.85800 Y0.99995
X-0.85900 Y0.99995
X-0.85900 Y0.99895
X-0.86000 Y0.99895
X-0.86000 Y0.99795
X-0.86100 Y0.99795
X-0.86100 Y0.99695
X-0.86200 Y0.99695
X-0.86200 Y0.99595
X-0.86300 Y0.99595
X-0.86300 Y0.99495
X-0.86400 Y0.99495
X-0.86400 Y0.99395
X-0.86500 Y0.99395
X-0.86500 Y0.99295
X-0.86600 Y0.99295
X-0.86600 Y0.99195
X-0.86700 Y0.99195
X-0.86700 Y0.99095
X-0.86800 Y0.99095
X-0.86800 Y0.98795
X-0.86900 Y0.98795
X-0.86900 Y0.98695
X-0.87000 Y0.98695
X-0.87000 Y0.98395
X-0.87100 Y0.98395
X-0.87100 Y0.72195
X-0.87000 Y0.72195
X-0.87000 Y0.71895
X-0.86900 Y0.71895
X-0.86900 Y0.71795
X-0.86800 Y0.71795
X-0.86800 Y0.71595
X-0.86700 Y0.71595
X-0.86700 Y0.71495
X-0.86600 Y0.71495
X-0.86600 Y0.71395
X-0.86500 Y0.71395
X-0.86500 Y0.71295
X-0.86400 Y0.71295
X-0.86400 Y0.71195
X-0.86300 Y0.71195
X-0.86300 Y0.71095
X-0.86200 Y0.71095
X-0.86200 Y0.70995
X-0.86100 Y0.70995
X-0.86100 Y0.68395
X-0.86000 Y0.68395
X-0.86000 Y0.67995
X-0.85900 Y0.67995
X-0.85900 Y0.67795
X-0.85800 Y0.67795
X-0.85800 Y0.67595
X-0.85700 Y0.67595
X-0.85700 Y0.67495
X-0.85600 Y0.67495
X-0.85600 Y0.67295
X-0.85500 Y0.67295
X-0.85500 Y0.67195
X-0.85400 Y0.67195
X-0.85400 Y0.67095
X-0.85300 Y0.67095
X-0.85300 Y0.66895
X-0.85200 Y0.66895
X-0.85200 Y0.66795
X-0.85100 Y0.66795
X-0.85100 Y0.66695
X-0.84900 Y0.66695
X-0.84900 Y0.66595
X-0.84800 Y0.66595
X-0.84800 Y0.66495
X-0.84600 Y0.66495
X-0.84600 Y0.66395
X-0.84400 Y0.66395
X-0.84400 Y0.66295
X-0.84300 Y0.66295
X-0.84300 Y0.66195
X-0.84100 Y0.66195
X-0.84100 Y0.66095
X-0.83500 Y0.66095
X-0.83500 Y0.65995
X-0.80400 Y0.65995
X-0.80400 Y0.66095
X-0.79800 Y0.66095
X-0.79800 Y0.66195
X-0.79600 Y0.66195
X-0.79600 Y0.66295
X-0.79500 Y0.66295
X-0.79500 Y0.66395
X-0.79300 Y0.66395
X-0.79300 Y0.66495
X-0.79100 Y0.66495
X-0.79100 Y0.66595
X-0.79000 Y0.66595
X-0.79000 Y0.66695
X-0.78800 Y0.66695
X-0.78800 Y0.66795
X-0.78700 Y0.66795
X-0.78700 Y0.66895
X-0.78600 Y0.66895
X-0.78600 Y0.67095
X-0.78500 Y0.67095
X-0.78500 Y0.67195
X-0.78400 Y0.67195
X-0.78400 Y0.67295
X-0.78300 Y0.67295
X-0.78300 Y0.67495
X-0.78200 Y0.67495
X-0.78200 Y0.67595
X-0.78100 Y0.67595
X-0.78100 Y0.67695
X-0.78000 Y0.67695
X-0.78000 Y0.67995
X-0.77900 Y0.67995
X-0.77900 Y0.68395
X-0.77800 Y0.68395
X-0.77800 Y0.71995
X-0.77900 Y0.71995
X-0.77900 Y0.72295
X-0.78000 Y0.72295
X-0.78000 Y0.72595
X-0.78100 Y0.72595
X-0.78100 Y0.72695
X-0.78200 Y0.72695
X-0.78200 Y0.72795
X-0.78300 Y0.72795
X-0.78300 Y0.72995
X-0.78400 Y0.72995
X-0.78400 Y0.73095
X-0.78500 Y0.73095
X-0.78500 Y0.73195
X-0.78600 Y0.73195
X-0.78600 Y0.73395
X-0.78700 Y0.73395
X-0.78700 Y0.73495
X-0.78800 Y0.73495
X-0.78800 Y0.73595
X-0.79000 Y0.73595
X-0.79000 Y0.73695
X-0.79100 Y0.73695
X-0.79100 Y0.73795
X-0.79300 Y0.73795
X-0.79300 Y0.73895
X-0.79500 Y0.73895
X-0.79500 Y0.73995
X-0.79600 Y0.73995
X-0.79600 Y0.74095
X-0.79800 Y0.74095
X-0.79800 Y0.74195
X-0.80400 Y0.74195
X-0.80400 Y0.74295
X-0.82800 Y0.74295
X-0.82800 Y0.74395
X-0.82900 Y0.74395
X-0.82900 Y0.74495
X-0.83000 Y0.74495
X-0.83000 Y0.74595
X-0.83100 Y0.74595
X-0.83100 Y0.74695
X-0.83200 Y0.74695
X-0.83200 Y0.96495
X-0.83100 Y0.96495
X-0.83100 Y0.96595
X-0.83000 Y0.96595
X-0.83000 Y0.96695
X-0.82900 Y0.96695
X-0.82900 Y0.96795
X-0.82800 Y0.96795
X-0.82800 Y0.96895
X-0.82700 Y0.96895
X-0.82700 Y0.96995
X-0.82600 Y0.96995
X-0.82600 Y0.97095
X-0.82500 Y0.97095
X-0.82500 Y0.97195
X-0.82400 Y0.97195
X-0.82400 Y0.97295
X-0.82300 Y0.97295
X-0.82300 Y0.97395
X-0.82200 Y0.97395
X-0.82200 Y0.97495
X-0.82100 Y0.97495
X-0.82100 Y0.97595
X-0.82000 Y0.97595
X-0.82000 Y0.97695
X-0.81900 Y0.97695
X-0.81900 Y0.97795
X-0.81800 Y0.97795
X-0.81800 Y0.97895
X-0.81700 Y0.97895
X-0.81700 Y0.97995
X-0.81600 Y0.97995
X-0.81600 Y0.98095
X-0.81500 Y0.98095
X-0.81500 Y0.98195
X-0.81400 Y0.98195
X-0.81400 Y0.98295
X-0.81300 Y0.98295
X-0.81300 Y0.98395
X-0.81200 Y0.98395
X-0.81200 Y0.98495
X-0.81100 Y0.98495
X-0.81100 Y0.98595
X-0.81000 Y0.98595
X-0.81000 Y0.98695
X-0.80900 Y0.98695
X-0.80900 Y0.98795
X-0.80800 Y0.98795
X-0.80800 Y0.98895
X-0.80700 Y0.98895
X-0.80700 Y0.98995
X-0.80600 Y0.98995
X-0.80600 Y0.99095
X-0.80500 Y0.99095
X-0.80500 Y0.99195
X-0.80400 Y0.99195
X-0.80400 Y0.99295
X-0.80300 Y0.99295
X-0.80300 Y0.99395
X-0.80200 Y0.99395
X-0.80200 Y0.99495
X-0.80100 Y0.99495
X-0.80100 Y0.99595
X-0.80000 Y0.99595
X-0.80000 Y0.99695
X-0.79900 Y0.99695
X-0.79900 Y0.99795
X-0.79800 Y0.99795
X-0.79800 Y0.99895
X-0.79700 Y0.99895
X-0.79700 Y0.99995
X-0.79600 Y0.99995
X-0.79600 Y1.00095
X-0.79500 Y1.00095
X-0.79500 Y1.00195
X-0.79400 Y1.00195
X-0.79400 Y1.00295
X-0.79300 Y1.00295
X-0.79300 Y1.00395
X-0.79200 Y1.00395
X-0.79200 Y1.00495
X-0.79100 Y1.00495
X-0.79100 Y1.00595
X-0.79000 Y1.00595
X-0.79000 Y1.00695
X-0.78900 Y1.00695
X-0.78900 Y1.00795
X-0.78800 Y1.00795
X-0.78800 Y1.00895
X-0.78700 Y1.00895
X-0.78700 Y1.00995
X-0.78600 Y1.00995
X-0.78600 Y1.01095
X-0.78500 Y1.01095
X-0.78500 Y1.01195
X-0.78400 Y1.01195
X-0.78400 Y1.01295
X-0.78300 Y1.01295
X-0.78300 Y1.01395
X-0.78200 Y1.01395
X-0.78200 Y1.01495
X-0.78100 Y1.01495
X-0.78100 Y1.01595
X-0.78000 Y1.01595
X-0.78000 Y1.01695
X-0.77900 Y1.01695
X-0.77900 Y1.01795
X-0.77800 Y1.01795
X-0.77800 Y1.01895
X-0.77700 Y1.01895
X-0.77700 Y1.01995
X-0.77600 Y1.01995
X-0.77600 Y1.02095
X-0.77500 Y1.02095
X-0.77500 Y1.02195
X-0.77400 Y1.02195
X-0.77400 Y1.02295
X-0.77300 Y1.02295
X-0.77300 Y1.02395
X-0.77200 Y1.02395
X-0.77200 Y1.02495
X-0.77100 Y1.02495
X-0.77100 Y1.02595
X-0.77000 Y1.02595
X-0.77000 Y1.02695
X-0.76900 Y1.02695
X-0.76900 Y1.02795
X-0.76800 Y1.02795
X-0.76800 Y1.02895
X-0.76700 Y1.02895
X-0.76700 Y1.02995
X-0.76600 Y1.02995
X-0.76600 Y1.03095
X-0.76500 Y1.03095
X-0.76500 Y1.03195
X-0.76400 Y1.03195
X-0.76400 Y1.03295
X-0.76300 Y1.03295
X-0.76300 Y1.03395
X-0.76200 Y1.03395
X-0.76200 Y1.03495
X-0.76100 Y1.03495
X-0.76100 Y1.03595
X-0.76000 Y1.03595
X-0.76000 Y1.03695
X-0.75900 Y1.03695
X-0.75900 Y1.03795
X-0.75800 Y1.03795
X-0.75800 Y1.03895
X-0.75700 Y1.03895
X-0.75700 Y1.03995
X-0.75600 Y1.03995
X-0.75600 Y1.04095
X-0.75500 Y1.04095
X-0.75500 Y1.04195
X-0.75400 Y1.04195
X-0.75400 Y1.04295
X-0.75300 Y1.04295
X-0.75300 Y1.04395
X-0.75200 Y1.04395
X-0.75200 Y1.04495
X-0.75100 Y1.04495
X-0.75100 Y1.04595
X-0.75000 Y1.04595
X-0.75000 Y1.04695
X-0.74900 Y1.04695
X-0.74900 Y1.04795
X-0.74800 Y1.04795
X-0.74800 Y1.04895
X-0.74700 Y1.04895
X-0.74700 Y1.04995
X-0.74600 Y1.04995
X-0.74600 Y1.05095
X-0.14100 Y1.05095
X-0.14100 Y1.05195
X-0.13900 Y1.05195
X-0.13900 Y1.05295
X-0.13700 Y1.05295
X-0.13700 Y1.05395
X-0.13600 Y1.05395
X-0.13600 Y1.05495
X-0.13500 Y1.05495
X-0.13500 Y1.05595
X-0.13400 Y1.05595
X-0.13400 Y1.05695
X-0.13300 Y1.05695
X-0.13300 Y1.05795
X-0.13200 Y1.05795
X-0.13200 Y1.05895
X-0.13100 Y1.05895
X-0.13100 Y1.05995
X-0.13000 Y1.05995
X-0.13000 Y1.06095
X-0.12900 Y1.06095
X-0.12900 Y1.06295
X-0.12800 Y1.06295
X-0.12800 Y1.06395
X-0.12700 Y1.06395
X-0.12700 Y1.06495
X-0.12600 Y1.06495
X-0.12600 Y1.06595
X-0.12500 Y1.06595
X-0.12500 Y1.06695
X-0.12400 Y1.06695
X-0.12400 Y1.06795
X-0.12300 Y1.06795
X-0.12300 Y1.06895
X-0.12200 Y1.06895
X-0.12200 Y1.06995
X-0.12100 Y1.06995
X-0.12100 Y1.07095
X-0.12000 Y1.07095
X-0.12000 Y1.07195
X-0.11900 Y1.07195
X-0.11900 Y1.07295
X-0.11800 Y1.07295
X-0.11800 Y1.07395
X-0.11700 Y1.07395
X-0.11700 Y1.07495
X-0.11600 Y1.07495
X-0.11600 Y1.07595
X-0.11500 Y1.07595
X-0.11500 Y1.07695
X-0.11400 Y1.07695
X-0.11400 Y1.07795
X-0.11300 Y1.07795
X-0.11300 Y1.07895
X-0.11200 Y1.07895
X-0.11200 Y1.07995
X-0.11100 Y1.07995
X-0.11100 Y1.08095
X-0.11000 Y1.08095
X-0.11000 Y1.08195
X-0.10900 Y1.08195
X-0.10900 Y1.08295
X-0.10800 Y1.08295
X-0.10800 Y1.08395
X-0.10700 Y1.08395
X-0.10700 Y1.08495
X-0.10600 Y1.08495
X-0.10600 Y1.08595
X-0.10500 Y1.08595
X-0.10500 Y1.08695
X-0.10400 Y1.08695
X-0.10400 Y1.08795
X-0.10300 Y1.08795
X-0.10300 Y1.08895
X-0.10200 Y1.08895
X-0.10200 Y1.08995
X-0.10100 Y1.08995
X-0.10100 Y1.09095
X-0.10000 Y1.09095
X-0.10000 Y1.09195
X-0.09900 Y1.09195
X-0.09900 Y1.09295
X-0.09800 Y1.09295
X-0.09800 Y1.09395
X-0.09700 Y1.09395
X-0.09700 Y1.09495
X-0.09600 Y1.09495
X-0.09600 Y1.09595
X-0.09500 Y1.09595
X-0.09500 Y1.09695
X-0.09400 Y1.09695
X-0.09400 Y1.09795
X-0.09300 Y1.09795
X-0.09300 Y1.09895
X-0.09200 Y1.09895
X-0.09200 Y1.09995
X-0.09100 Y1.09995
X-0.09100 Y1.10095
X-0.09000 Y1.10095
X-0.09000 Y1.10195
X-0.08900 Y1.10195
X-0.08900 Y1.10295
X-0.08800 Y1.10295
X-0.08800 Y1.10395
X-0.08700 Y1.10395
X-0.08700 Y1.10495
X-0.08600 Y1.10495
X-0.08600 Y1.10595
X-0.08500 Y1.10595
X-0.08500 Y1.10695
X-0.08400 Y1.10695
X-0.08400 Y1.10795
X-0.08300 Y1.10795
X-0.08300 Y1.10995
X-0.08200 Y1.10995
X-0.08200 Y1.11095
X-0.08100 Y1.11095
X-0.08100 Y1.11395
X-0.08000 Y1.11395
X-0.08000 Y1.26895
X-0.08100 Y1.26895
X-0.08100 Y1.27195
X-0.08200 Y1.27195
X-0.08200 Y1.27295
X-0.08300 Y1.27295
X-0.08300 Y1.27495
X-0.08400 Y1.27495
X-0.08400 Y1.27595
X-0.08500 Y1.27595
X-0.08500 Y1.27695
X-0.08600 Y1.27695
X-0.08600 Y1.27795
X-0.08700 Y1.27795
X-0.08700 Y1.27895
X-0.08800 Y1.27895
X-0.08800 Y1.27995
X-0.08900 Y1.27995
X-0.08900 Y1.28095
X-0.09000 Y1.28095
X-0.09000 Y1.88395
X-0.08900 Y1.88395
X-0.08900 Y1.88495
X-0.08800 Y1.88495
X-0.08800 Y1.88595
X-0.06500 Y1.88595
X-0.06500 Y1.88695
X-0.05900 Y1.88695
X-0.05900 Y1.88795
X-0.05800 Y1.88795
X-0.05800 Y1.88895
X-0.05600 Y1.88895
X-0.05600 Y1.88995
X-0.05400 Y1.88995
X-0.05400 Y1.89095
X-0.05300 Y1.89095
X-0.05300 Y1.89195
X-0.05100 Y1.89195
X-0.05100 Y1.89295
X-0.04900 Y1.89295
X-0.04900 Y1.89495
X-0.04800 Y1.89495
X-0.04800 Y1.89595
X-0.04700 Y1.89595
X-0.04700 Y1.89695
X-0.04600 Y1.89695
X-0.04600 Y1.89895
X-0.04500 Y1.89895
X-0.04500 Y1.89995
X-0.04400 Y1.89995
X-0.04400 Y1.90095
X-0.04300 Y1.90095
X-0.04300 Y1.90295
X-0.04200 Y1.90295
X-0.04200 Y1.90495
X-0.04100 Y1.90495
X-0.04100 Y1.90895
X-0.04000 Y1.90895
X-0.04000 Y1.94395
X-0.04100 Y1.94395
X-0.04100 Y1.94795
X-0.04200 Y1.94795
X-0.04200 Y1.94995
X-0.04300 Y1.94995
X-0.04300 Y1.95195
X-0.04400 Y1.95195
X-0.04400 Y1.95295
X-0.04500 Y1.95295
X-0.04500 Y1.95395
X-0.04600 Y1.95395
X-0.04600 Y1.95595
X-0.04700 Y1.95595
X-0.04700 Y1.95695
X-0.04800 Y1.95695
X-0.04800 Y1.95795
X-0.04900 Y1.95795
X-0.04900 Y1.95995
X-0.05100 Y1.95995
X-0.05100 Y1.96095
X-0.05300 Y1.96095
X-0.05300 Y1.96195
X-0.05400 Y1.96195
X-0.05400 Y1.96295
X-0.05600 Y1.96295
X-0.05600 Y1.96395
X-0.05800 Y1.96395
X-0.05800 Y1.96495
X-0.05900 Y1.96495
X-0.05900 Y1.96595
X-0.06500 Y1.96595
X-0.06500 Y1.96695
X-0.09000 Y1.96695
X-0.09000 Y2.19795
X-0.08900 Y2.19795
X-0.08900 Y2.19895
X-0.08800 Y2.19895
X-0.08800 Y2.19995
X-0.08700 Y2.19995
X-0.08700 Y2.20095
X-0.08600 Y2.20095
X-0.08600 Y2.20195
X-0.08500 Y2.20195
X-0.08500 Y2.20295
X-0.08400 Y2.20295
X-0.08400 Y2.20395
X-0.08300 Y2.20395
X-0.08300 Y2.20495
X-0.08200 Y2.20495
X-0.08200 Y2.20595
X-0.08100 Y2.20595
X-0.08100 Y2.20695
X-0.08000 Y2.20695
X-0.08000 Y2.20795
X-0.07900 Y2.20795
X-0.07900 Y2.20895
X-0.07800 Y2.20895
X-0.07800 Y2.20995
X-0.07700 Y2.20995
X-0.07700 Y2.21095
X-0.07600 Y2.21095
X-0.07600 Y2.21195
X-0.07500 Y2.21195
X-0.07500 Y2.21295
X-0.07400 Y2.21295
X-0.07400 Y2.21395
X-0.07300 Y2.21395
X-0.07300 Y2.21495
X-0.07200 Y2.21495
X-0.07200 Y2.21595
X-0.07100 Y2.21595
X-0.07100 Y2.21695
X-0.07000 Y2.21695
X-0.07000 Y2.21795
X-0.06900 Y2.21795
X-0.06900 Y2.21895
X-0.06800 Y2.21895
X-0.06800 Y2.21995
X-0.06700 Y2.21995
X-0.06700 Y2.22095
X-0.06600 Y2.22095
X-0.06600 Y2.22195
X-0.06500 Y2.22195
X-0.06500 Y2.22295
X-0.06400 Y2.22295
X-0.06400 Y2.22395
X-0.06300 Y2.22395
X-0.06300 Y2.22495
X-0.06200 Y2.22495
X-0.06200 Y2.22595
X-0.06100 Y2.22595
X-0.06100 Y2.22695
X-0.06000 Y2.22695
X-0.06000 Y2.22795
X-0.05900 Y2.22795
X-0.05900 Y2.22895
X-0.05800 Y2.22895
X-0.05800 Y2.22995
X-0.05700 Y2.22995
X-0.05700 Y2.23095
X-0.05600 Y2.23095
X-0.05600 Y2.23195
X-0.05500 Y2.23195
X-0.05500 Y2.23295
X-0.05400 Y2.23295
X-0.05400 Y2.23395
X-0.05300 Y2.23395
X-0.05300 Y2.23495
X-0.05200 Y2.23495
X-0.05200 Y2.23595
X-0.05100 Y2.23595
X-0.05100 Y2.23695
X-0.05000 Y2.23695
X-0.05000 Y2.23795
X-0.04900 Y2.23795
X-0.04900 Y2.23895
X-0.04800 Y2.23895
X-0.04800 Y2.23995
X-0.04700 Y2.23995
X-0.04700 Y2.24195
X-0.04600 Y2.24195
X-0.04600 Y2.24295
X-0.04500 Y2.24295
X-0.04500 Y2.24595
X-0.04400 Y2.24595
X-0.04400 Y2.46495
X-0.04300 Y2.46495
X-0.04300 Y2.46595
X-0.04200 Y2.46595
X-0.04200 Y2.46695
X-0.04100 Y2.46695
X-0.04100 Y2.46795
X-0.04000 Y2.46795
X-0.04000 Y2.46895
X-0.03900 Y2.46895
X-0.03900 Y2.46995
X-0.03800 Y2.46995
X-0.03800 Y2.47095
X-0.03700 Y2.47095
X-0.03700 Y2.47195
X-0.03600 Y2.47195
X-0.03600 Y2.47295
X-0.03500 Y2.47295
X-0.03500 Y2.47395
X-0.03400 Y2.47395
X-0.03400 Y2.47495
X-0.03300 Y2.47495
X-0.03300 Y2.47595
X-0.03200 Y2.47595
X-0.03200 Y2.47695
X-0.03100 Y2.47695
X-0.03100 Y2.47795
X-0.03000 Y2.47795
X-0.03000 Y2.47895
X-0.02900 Y2.47895
X-0.02900 Y2.47995
X-0.02800 Y2.47995
X-0.02800 Y2.48195
X-0.02700 Y2.48195
X-0.02700 Y2.48295
X-0.02600 Y2.48295
X-0.02600 Y2.48595
X-0.02500 Y2.48595
X-0.02500 Y2.61695
X-0.02600 Y2.61695
X-0.02600 Y2.61995
X-0.02700 Y2.61995
X-0.02700 Y2.62095
X-0.02800 Y2.62095
X-0.02800 Y2.62295
X-0.02900 Y2.62295
X-0.02900 Y2.62395
X-0.03000 Y2.62395
X-0.03000 Y2.62495
X-0.03100 Y2.62495
X-0.03100 Y2.62595
X-0.03200 Y2.62595
X-0.03200 Y2.62695
X-0.03300 Y2.62695
X-0.03300 Y2.62795
X-0.03400 Y2.62795
X-0.03400 Y2.62895
X-0.03500 Y2.62895
X-0.03500 Y2.62995
X-0.03600 Y2.62995
X-0.03600 Y2.63095
X-0.03700 Y2.63095
X-0.03700 Y2.63195
X-0.03800 Y2.63195
X-0.03800 Y2.63295
X-0.03900 Y2.63295
X-0.03900 Y2.63395
X-0.04000 Y2.63395
X-0.04000 Y2.63495
X-0.04100 Y2.63495
X-0.04100 Y2.63595
X-0.04200 Y2.63595
X-0.04200 Y2.63695
X-0.04300 Y2.63695
X-0.04300 Y2.63795
X-0.04400 Y2.63795
X-0.04400 Y2.63895
X-0.04500 Y2.63895
X-0.04500 Y2.63995
X-0.04600 Y2.63995
X-0.04600 Y2.64095
X-0.04700 Y2.64095
X-0.04700 Y2.64195
X-0.04800 Y2.64195
X-0.04800 Y2.64295
X-0.04900 Y2.64295
X-0.04900 Y2.64395
X-0.05000 Y2.64395
X-0.05000 Y2.64495
X-0.05100 Y2.64495
X-0.05100 Y2.64595
X-0.05200 Y2.64595
X-0.05200 Y2.64695
X-0.05300 Y2.64695
X-0.05300 Y2.64795
X-0.05400 Y2.64795
X-0.05400 Y2.64895
X-0.05500 Y2.64895
X-0.05500 Y2.64995
X-0.05600 Y2.64995
X-0.05600 Y2.65095
X-0.05700 Y2.65095
X-0.05700 Y2.65195
X-0.05800 Y2.65195
X-0.05800 Y2.65295
X-0.05900 Y2.65295
X-0.05900 Y2.65395
X-0.06000 Y2.65395
X-0.06000 Y2.65495
X-0.06100 Y2.65495
X-0.06100 Y2.65595
X-0.06200 Y2.65595
X-0.06200 Y2.65695
X-0.06300 Y2.65695
X-0.06300 Y2.65795
X-0.06400 Y2.65795
X-0.06400 Y2.65895
X-0.06500 Y2.65895
X-0.06500 Y2.65995
X-0.06600 Y2.65995
X-0.06600 Y2.66095
X-0.06700 Y2.66095
X-0.06700 Y2.66195
X-0.06800 Y2.66195
X-0.06800 Y2.66295
X-0.06900 Y2.66295
X-0.06900 Y2.66395
X-0.07000 Y2.66395
X-0.07000 Y2.66495
X-0.07100 Y2.66495
X-0.07100 Y2.66595
X-0.07200 Y2.66595
X-0.07200 Y2.66695
X-0.07300 Y2.66695
X-0.07300 Y2.66795
X-0.07400 Y2.66795
X-0.07400 Y2.66895
X-0.07500 Y2.66895
X-0.07500 Y2.66995
X-0.07600 Y2.66995
X-0.07600 Y2.67095
X-0.07700 Y2.67095
X-0.07700 Y2.67195
X-0.07800 Y2.67195
X-0.07800 Y2.67295
X-0.07900 Y2.67295
X-0.07900 Y2.67395
X-0.08000 Y2.67395
X-0.08000 Y2.67495
X-0.08100 Y2.67495
X-0.08100 Y2.67595
X-0.08200 Y2.67595
X-0.08200 Y2.67695
X-0.08300 Y2.67695
X-0.08300 Y2.67795
X-0.08400 Y2.67795
X-0.08400 Y2.67895
X-0.08500 Y2.67895
X-0.08500 Y2.67995
X-0.08600 Y2.67995
X-0.08600 Y2.68095
X-0.08700 Y2.68095
X-0.08700 Y2.68195
X-0.08800 Y2.68195
X-0.08800 Y2.68295
X-0.08900 Y2.68295
X-0.08900 Y2.68395
X-0.09000 Y2.68395
X-0.09000 Y2.68495
X-0.09100 Y2.68495
X-0.09100 Y2.68595
X-0.09200 Y2.68595
X-0.09200 Y2.68695
X-0.09400 Y2.68695
X-0.09400 Y2.68795
X-0.09600 Y2.68795
X-0.09600 Y2.68895
X-0.14600 Y2.68895
X-0.14600 Y2.68995
X-0.14700 Y2.68995
X-0.14700 Y2.69095
X-0.14800 Y2.69095
X-0.14800 Y2.69195
X-0.14900 Y2.69195
X-0.14900 Y2.69295
X-0.15000 Y2.69295
X-0.15000 Y2.69395
X-0.15100 Y2.69395
X-0.15100 Y2.69495
X-0.15200 Y2.69495
X-0.15200 Y2.69595
X-0.15300 Y2.69595
X-0.15300 Y2.69695
X-0.15400 Y2.69695
X-0.15400 Y2.69795
X-0.15500 Y2.69795
X-0.15500 Y2.69895
X-0.15600 Y2.69895
X-0.15600 Y2.69995
X-0.15700 Y2.69995
X-0.15700 Y2.70095
X-0.15800 Y2.70095
X-0.15800 Y2.70195
X-0.15900 Y2.70195
X-0.15900 Y2.70295
X-0.16000 Y2.70295
X-0.16000 Y2.70395
X-0.16100 Y2.70395
X-0.16100 Y2.70495
X-0.16200 Y2.70495
X-0.16200 Y2.70595
X-0.16300 Y2.70595
X-0.16300 Y2.70695
X-0.16400 Y2.70695
X-0.16400 Y2.70795
X-0.16500 Y2.70795
X-0.16500 Y2.70895
X-0.16600 Y2.70895
X-0.16600 Y2.70995
X-0.16700 Y2.70995
X-0.16700 Y2.71095
X-0.16800 Y2.71095
X-0.16800 Y2.71195
X-0.16900 Y2.71195
X-0.16900 Y2.71295
X-0.17000 Y2.71295
X-0.17000 Y2.71395
X-0.17100 Y2.71395
X-0.17100 Y2.71495
X-0.17200 Y2.71495
X-0.17200 Y2.71595
X-0.17300 Y2.71595
X-0.17300 Y2.71695
X-0.17400 Y2.71695
X-0.17400 Y2.71795
X-0.17500 Y2.71795
X-0.17500 Y2.71895
X-0.17600 Y2.71895
X-0.17600 Y2.71995
X-0.17700 Y2.71995
X-0.17700 Y2.72095
X-0.17800 Y2.72095
X-0.17800 Y2.72195
X-0.17900 Y2.72195
X-0.17900 Y2.72295
X-0.18000 Y2.72295
X-0.18000 Y2.72395
X-0.18100 Y2.72395
X-0.18100 Y2.72495
X-0.18200 Y2.72495
X-0.18200 Y2.72595
X-0.18300 Y2.72595
X-0.18300 Y2.72695
X-0.18400 Y2.72695
X-0.18400 Y2.72795
X-0.18500 Y2.72795
X-0.18500 Y2.72895
X-0.18600 Y2.72895
X-0.18600 Y2.72995
X-0.18700 Y2.72995
X-0.18700 Y2.73095
X-0.18800 Y2.73095
X-0.18800 Y2.73195
X-0.18900 Y2.73195
X-0.18900 Y2.73295
X-0.19000 Y2.73295
X-0.19000 Y2.73395
X-0.19100 Y2.73395
X-0.19100 Y2.73495
X-0.19200 Y2.73495
X-0.19200 Y2.73595
X-0.19300 Y2.73595
X-0.19300 Y2.73695
X-0.19400 Y2.73695
X-0.19400 Y2.73795
X-0.19500 Y2.73795
X-0.19500 Y2.73895
X-0.19600 Y2.73895
X-0.19600 Y2.73995
X-0.19700 Y2.73995
X-0.19700 Y2.74095
X-0.19800 Y2.74095
X-0.19800 Y2.74195
X-0.19900 Y2.74195
X-0.19900 Y2.74295
X-0.20000 Y2.74295
X-0.20000 Y2.74395
X-0.20200 Y2.74395
X-0.20200 Y2.74495
X-1.94700 Y2.74495
X-1.94700 Y2.74395
X-1.94900 Y2.74395
X-1.94900 Y2.74295
X-1.95000 Y2.74295
X-1.95000 Y2.74195
X-1.95100 Y2.74195
X-1.95100 Y2.74095
X-1.95200 Y2.74095
X-1.95200 Y2.73995
X-1.95300 Y2.73995
X-1.95300 Y2.73895
X-1.95400 Y2.73895
X-1.95400 Y2.73795
X-1.95500 Y2.73795
X-1.95500 Y2.73695
X-1.95600 Y2.73695
X-1.95600 Y2.73595
G04 P0 ( dwell for no time -- G64 should not smooth over this point )
G00 Z0.03937 ( retract )

G00 X-1.81200 Y2.67295 ( rapid move to begin. )
G01 Z-0.00394 F3.93701 ( plunge. )
G04 P0 ( dwell for no time -- G64 should not smooth over this point )
X-1.81200 Y2.67295
X-1.81300 Y2.67295
X-1.81300 Y2.67195
X-1.81400 Y2.67195
X-1.81400 Y2.67095
X-1.81500 Y2.67095
X-1.81500 Y2.66995
X-1.81600 Y2.66995
X-1.81600 Y2.66895
X-1.81700 Y2.66895
X-1.81700 Y2.66795
X-1.81800 Y2.66795
X-1.81800 Y2.66695
X-1.81900 Y2.66695
X-1.81900 Y2.66595
X-1.82000 Y2.66595
X-1.82000 Y2.66495
X-1.82100 Y2.66495
X-1.82100 Y2.66395
X-1.82200 Y2.66395
X-1.82200 Y2.66295
X-1.82300 Y2.66295
X-1.82300 Y2.66195
X-1.82400 Y2.66195
X-1.82400 Y2.66095
X-1.82500 Y2.66095
X-1.82500 Y2.65995
X-1.82600 Y2.65995
X-1.82600 Y2.65895
X-1.82700 Y2.65895
X-1.82700 Y2.65795
X-1.82800 Y2.65795
X-1.82800 Y2.65695
X-1.82900 Y2.65695
X-1.82900 Y2.65595
X-1.83000 Y2.65595
X-1.83000 Y2.65495
X-1.83100 Y2.65495
X-1.83100 Y2.65395
X-1.83200 Y2.65395
X-1.83200 Y2.65295
X-1.83300 Y2.65295
X-1.83300 Y2.65195
X-1.83400 Y2.65195
X-1.83400 Y2.65095
X-1.83500 Y2.65095
X-1.83500 Y2.64995
X-1.83600 Y2.64995
X-1.83600 Y2.64895
X-1.83700 Y2.64895
X-1.83700 Y2.64795
X-1.83800 Y2.64795
X-1.83800 Y2.64695
X-1.83900 Y2.64695
X-1.83900 Y2.64595
X-1.84000 Y2.64595
X-1.84000 Y2.64495
X-1.84100 Y2.64495
X-1.84100 Y2.64395
X-1.84200 Y2.64395
X-1.84200 Y2.64295
X-1.84300 Y2.64295
X-1.84300 Y2.64195
X-1.84400 Y2.64195
X-1.84400 Y2.64095
X-1.84500 Y2.64095
X-1.84500 Y2.63995
X-1.84600 Y2.63995
X-1.84600 Y2.63895
X-1.84700 Y2.63895
X-1.84700 Y2.63795
X-1.84800 Y2.63795
X-1.84800 Y2.63695
X-1.84900 Y2.63695
X-1.84900 Y2.63595
X-1.85000 Y2.63595
X-1.85000 Y2.63495
X-1.85100 Y2.63495
X-1.85100 Y2.63395
X-1.85200 Y2.63395
X-1.85200 Y2.63295
X-1.85300 Y2.63295
X-1.85300 Y2.63195
X-1.85400 Y2.63195
X-1.85400 Y2.63095
X-1.85500 Y2.63095
X-1.85500 Y2.62995
X-1.85600 Y2.62995
X-1.85600 Y2.62895
X-1.85700 Y2.62895
X-1.85700 Y2.62795
X-1.85800 Y2.62795
X-1.85800 Y2.62695
X-1.85900 Y2.62695
X-1.85900 Y2.62595
X-1.86000 Y2.62595
X-1.86000 Y2.62495
X-1.86100 Y2.62495
X-1.86100 Y2.62395
X-1.86200 Y2.62395
X-1.86200 Y2.62295
X-1.86300 Y2.62295
X-1.86300 Y2.62195
X-1.86400 Y2.62195
X-1.86400 Y2.62095
X-1.86500 Y2.62095
X-1.86500 Y2.61995
X-1.86600 Y2.61995
X-1.86600 Y2.61895
X-1.86700 Y2.61895
X-1.86700 Y2.61795
X-1.86800 Y2.61795
X-1.86800 Y2.61695
X-1.86900 Y2.61695
X-1.86900 Y2.61595
X-1.87000 Y2.61595
X-1.87000 Y2.61495
X-1.87100 Y2.61495
X-1.87100 Y2.61395
X-1.87200 Y2.61395
X-1.87200 Y2.61295
X-1.87300 Y2.61295
X-1.87300 Y2.61195
X-1.87400 Y2.61195
X-1.87400 Y2.61095
X-1.87500 Y2.61095
X-1.87500 Y2.60995
X-1.87600 Y2.60995
X-1.87600 Y2.60895
X-1.87700 Y2.60895
X-1.87700 Y2.60795
X-1.87800 Y2.60795
X-1.87800 Y2.60895
X-1.88200 Y2.60895
X-1.88200 Y2.60995
X-1.91900 Y2.60995
X-1.91900 Y2.60895
X-1.92300 Y2.60895
X-1.92300 Y2.60795
X-1.92700 Y2.60795
X-1.92700 Y2.60695
X-1.92900 Y2.60695
X-1.92900 Y2.60595
X-1.93200 Y2.60595
X-1.93200 Y2.60495
X-1.93400 Y2.60495
X-1.93400 Y2.60395
X-1.93600 Y2.60395
X-1.93600 Y2.60295
X-1.93700 Y2.60295
X-1.93700 Y2.60195
X-1.93900 Y2.60195
X-1.93900 Y2.60095
X-1.94000 Y2.60095
X-1.94000 Y2.59995
X-1.94200 Y2.59995
X-1.94200 Y2.59895
X-1.94300 Y2.59895
X-1.94300 Y2.59795
X-1.94400 Y2.59795
X-1.94400 Y2.59695
X-1.94500 Y2.59695
X-1.94500 Y2.59595
X-1.94600 Y2.59595
X-1.94600 Y2.59495
X-1.94700 Y2.59495
X-1.94700 Y2.59395
X-1.94800 Y2.59395
X-1.94800 Y2.59295
X-1.94900 Y2.59295
X-1.94900 Y2.59195
X-1.95000 Y2.59195
X-1.95000 Y2.58995
X-1.95100 Y2.58995
X-1.95100 Y2.58895
X-1.95200 Y2.58895
X-1.95200 Y2.58695
X-1.95300 Y2.58695
X-1.95300 Y2.58495
X-1.95400 Y2.58495
X-1.95400 Y2.58295
X-1.95500 Y2.58295
X-1.95500 Y2.58095
X-1.95600 Y2.58095
X-1.95600 Y2.57795
X-1.95700 Y2.57795
X-1.95700 Y2.57395
X-1.95800 Y2.57395
X-1.95800 Y2.56795
X-1.95900 Y2.56795
X-1.95900 Y2.53495
X-1.95800 Y2.53495
X-1.95800 Y2.52895
X-1.95700 Y2.52895
X-1.95700 Y2.52495
X-1.95600 Y2.52495
X-1.95600 Y2.52195
X-1.95500 Y2.52195
X-1.95500 Y2.51995
X-1.95400 Y2.51995
X-1.95400 Y2.51795
X-1.95300 Y2.51795
X-1.95300 Y2.51595
X-1.95200 Y2.51595
X-1.95200 Y2.51395
X-1.95100 Y2.51395
X-1.95100 Y2.51295
X-1.95000 Y2.51295
X-1.95000 Y2.51095
X-1.94900 Y2.51095
X-1.94900 Y2.50995
X-1.94800 Y2.50995
X-1.94800 Y2.50895
X-1.94700 Y2.50895
X-1.94700 Y2.50795
X-1.94600 Y2.50795
X-1.94600 Y2.50695
X-1.94500 Y2.50695
X-1.94500 Y2.50595
X-1.94400 Y2.50595
X-1.94400 Y2.50495
X-1.94300 Y2.50495
X-1.94300 Y2.50395
X-1.94200 Y2.50395
X-1.94200 Y2.50295
X-1.94000 Y2.50295
X-1.94000 Y2.50195
X-1.93900 Y2.50195
X-1.93900 Y2.50095
X-1.93700 Y2.50095
X-1.93700 Y2.49995
X-1.93600 Y2.49995
X-1.93600 Y2.49895
X-1.93400 Y2.49895
X-1.93400 Y2.49795
X-1.93200 Y2.49795
X-1.93200 Y2.49695
X-1.92900 Y2.49695
X-1.92900 Y2.49595
X-1.92700 Y2.49595
X-1.92700 Y2.49495
X-1.92300 Y2.49495
X-1.92300 Y2.49395
X-1.92000 Y2.49395
X-1.92000 Y1.34595
X-1.91900 Y1.34595
X-1.91900 Y1.34295
X-1.91800 Y1.34295
X-1.91800 Y1.34195
X-1.91700 Y1.34195
X-1.91700 Y1.33995
X-1.91600 Y1.33995
X-1.91600 Y1.33895
X-1.91500 Y1.33895
X-1.91500 Y1.33795
X-1.91400 Y1.33795
X-1.91400 Y1.33695
X-1.91300 Y1.33695
X-1.91300 Y1.33595
X-1.91200 Y1.33595
X-1.91200 Y1.33495
X-1.91100 Y1.33495
X-1.91100 Y1.31795
X-1.91200 Y1.31795
X-1.91200 Y1.31695
X-1.91300 Y1.31695
X-1.91300 Y1.31595
X-1.91400 Y1.31595
X-1.91400 Y1.31495
X-1.91500 Y1.31495
X-1.91500 Y1.31395
X-1.91600 Y1.31395
X-1.91600 Y1.31295
X-1.91700 Y1.31295
X-1.91700 Y1.31195
X-1.91800 Y1.31195
X-1.91800 Y1.31095
X-1.91900 Y1.31095
X-1.91900 Y1.30995
X-1.92000 Y1.30995
X-1.92000 Y1.30895
X-1.92100 Y1.30895
X-1.92100 Y1.30795
X-1.92200 Y1.30795
X-1.92200 Y1.30695
X-1.92300 Y1.30695
X-1.92300 Y1.30595
X-1.92400 Y1.30595
X-1.92400 Y1.30495
X-1.92500 Y1.30495
X-1.92500 Y1.30395
X-1.92600 Y1.30395
X-1.92600 Y1.30295
X-1.92700 Y1.30295
X-1.92700 Y1.30195
X-1.92800 Y1.30195
X-1.92800 Y1.30095
X-1.92900 Y1.30095
X-1.92900 Y1.29995
X-1.93000 Y1.29995
X-1.93000 Y1.29895
X-1.93100 Y1.29895
X-1.93100 Y1.29795
X-1.93200 Y1.29795
X-1.93200 Y1.29695
X-1.93300 Y1.29695
X-1.93300 Y1.29595
X-1.93400 Y1.29595
X-1.93400 Y1.29495
X-1.93500 Y1.29495
X-1.93500 Y1.29395
X-1.93600 Y1.29395
X-1.93600 Y1.29295
X-1.93700 Y1.29295
X-1.93700 Y1.29195
X-1.93800 Y1.29195
X-1.93800 Y1.29095
X-1.93900 Y1.29095
X-1.93900 Y1.28995
X-1.94000 Y1.28995
X-1.94000 Y1.28895
X-1.94100 Y1.28895
X-1.94100 Y1.28795
X-1.94200 Y1.28795
X-1.94200 Y1.28695
X-1.94300 Y1.28695
X-1.94300 Y1.28595
X-1.94400 Y1.28595
X-1.94400 Y1.28495
X-1.94500 Y1.28495
X-1.94500 Y1.28395
X-1.94600 Y1.28395
X-1.94600 Y1.28295
X-1.94700 Y1.28295
X-1.94700 Y1.28195
X-1.94800 Y1.28195
X-1.94800 Y1.28095
X-1.94900 Y1.28095
X-1.94900 Y1.27995
X-1.95000 Y1.27995
X-1.95000 Y1.27895
X-1.95100 Y1.27895
X-1.95100 Y1.27795
X-1.95200 Y1.27795
X-1.95200 Y1.27695
X-1.95300 Y1.27695
X-1.95300 Y1.27595
X-1.95400 Y1.27595
X-1.95400 Y1.27495
X-1.95500 Y1.27495
X-1.95500 Y1.27395
X-1.95600 Y1.27395
X-1.95600 Y1.27295
X-1.95700 Y1.27295
X-1.95700 Y1.27195
X-1.95800 Y1.27195
X-1.95800 Y1.27095
X-1.95900 Y1.27095
X-1.95900 Y1.26995
X-1.96000 Y1.26995
X-1.96000 Y1.26895
X-1.96100 Y1.26895
X-1.96100 Y1.26795
X-1.96200 Y1.26795
X-1.96200 Y1.26695
X-1.96300 Y1.26695
X-1.96300 Y1.26595
X-1.96400 Y1.26595
X-1.96400 Y1.26495
X-1.96500 Y1.26495
X-1.96500 Y1.26395
X-1.96600 Y1.26395
X-1.96600 Y1.26295
X-1.96700 Y1.26295
X-1.96700 Y1.26195
X-1.96800 Y1.26195
X-1.96800 Y1.26095
X-1.96900 Y1.26095
X-1.96900 Y1.25995
X-1.97000 Y1.25995
X-1.97000 Y1.25895
X-1.97100 Y1.25895
X-1.97100 Y1.25795
X-1.97200 Y1.25795
X-1.97200 Y1.25695
X-1.97300 Y1.25695
X-1.97300 Y1.25595
X-1.97400 Y1.25595
X-1.97400 Y1.25495
X-1.97500 Y1.25495
X-1.97500 Y1.25395
X-1.97600 Y1.25395
X-1.97600 Y1.25295
X-1.97700 Y1.25295
X-1.97700 Y1.25195
X-1.97800 Y1.25195
X-1.97800 Y1.25095
X-1.97900 Y1.25095
X-1.97900 Y1.24995
X-1.98000 Y1.24995
X-1.98000 Y1.24895
X-1.98100 Y1.24895
X-1.98100 Y1.24795
X-1.98200 Y1.24795
X-1.98200 Y1.24695
X-1.98300 Y1.24695
X-1.98300 Y1.24595
X-1.98400 Y1.24595
X-1.98400 Y1.24495
X-1.98500 Y1.24495
X-1.98500 Y1.24395
X-1.98600 Y1.24395
X-1.98600 Y1.24195
X-1.98700 Y1.24195
X-1.98700 Y1.24095
X-1.98800 Y1.24095
X-1.98800 Y1.23795
X-1.98900 Y1.23795
X-1.98900 Y1.11495
X-1.98800 Y1.11495
X-1.98800 Y1.11195
X-1.98700 Y1.11195
X-1.98700 Y1.11095
X-1.98600 Y1.11095
X-1.98600 Y1.10895
X-1.98500 Y1.10895
X-1.98500 Y1.10795
X-1.98400 Y1.10795
X-1.98400 Y1.10695
X-1.98300 Y1.10695
X-1.98300 Y1.10595
X-1.98200 Y1.10595
X-1.98200 Y1.10495
X-1.98100 Y1.10495
X-1.98100 Y1.10395
X-1.98000 Y1.10395
X-1.98000 Y1.10295
X-1.97900 Y1.10295
X-1.97900 Y1.10195
X-1.97800 Y1.10195
X-1.97800 Y1.10095
X-1.97700 Y1.10095
X-1.97700 Y1.09995
X-1.97600 Y1.09995
X-1.97600 Y1.09895
X-1.97500 Y1.09895
X-1.97500 Y1.09795
X-1.97400 Y1.09795
X-1.97400 Y1.09695
X-1.97300 Y1.09695
X-1.97300 Y1.09595
X-1.97200 Y1.09595
X-1.97200 Y1.09495
X-1.97100 Y1.09495
X-1.97100 Y1.09395
X-1.97000 Y1.09395
X-1.97000 Y1.09295
X-1.96900 Y1.09295
X-1.96900 Y1.09195
X-1.96800 Y1.09195
X-1.96800 Y1.09095
X-1.96700 Y1.09095
X-1.96700 Y1.08995
X-1.96600 Y1.08995
X-1.96600 Y1.08895
X-1.96500 Y1.08895
X-1.96500 Y1.08795
X-1.96400 Y1.08795
X-1.96400 Y1.08695
X-1.96300 Y1.08695
X-1.96300 Y1.08595
X-1.96200 Y1.08595
X-1.96200 Y1.08495
X-1.96100 Y1.08495
X-1.96100 Y1.08395
X-1.96000 Y1.08395
X-1.96000 Y1.08295
X-1.95900 Y1.08295
X-1.95900 Y1.08195
X-1.95800 Y1.08195
X-1.95800 Y1.08095
X-1.95700 Y1.08095
X-1.95700 Y1.07995
X-1.95600 Y1.07995
X-1.95600 Y1.07895
X-1.95500 Y1.07895
X-1.95500 Y1.07795
X-1.95400 Y1.07795
X-1.95400 Y1.07695
X-1.95300 Y1.07695
X-1.95300 Y1.07595
X-1.95200 Y1.07595
X-1.95200 Y1.07495
X-1.95100 Y1.07495
X-1.95100 Y1.07395
X-1.95000 Y1.07395
X-1.95000 Y1.07295
X-1.94900 Y1.07295
X-1.94900 Y1.07195
X-1.94800 Y1.07195
X-1.94800 Y1.07095
X-1.94700 Y1.07095
X-1.94700 Y1.06995
X-1.94600 Y1.06995
X-1.94600 Y1.06895
X-1.94500 Y1.06895
X-1.94500 Y1.06795
X-1.94400 Y1.06795
X-1.94400 Y1.06695
X-1.94300 Y1.06695
X-1.94300 Y1.06595
X-1.94200 Y1.06595
X-1.94200 Y1.06495
X-1.94100 Y1.06495
X-1.94100 Y1.06395
X-1.94000 Y1.06395
X-1.94000 Y1.06295
X-1.93900 Y1.06295
X-1.93900 Y1.06195
X-1.93800 Y1.06195
X-1.93800 Y1.06095
X-1.93700 Y1.06095
X-1.93700 Y1.05995
X-1.93600 Y1.05995
X-1.93600 Y1.05895
X-1.93500 Y1.05895
X-1.93500 Y1.05795
X-1.93400 Y1.05795
X-1.93400 Y1.05695
X-1.93300 Y1.05695
X-1.93300 Y1.05595
X-1.93200 Y1.05595
X-1.93200 Y1.05495
X-1.93100 Y1.05495
X-1.93100 Y1.05395
X-1.93000 Y1.05395
X-1.93000 Y1.05295
X-1.92900 Y1.05295
X-1.92900 Y1.05195
X-1.92800 Y1.05195
X-1.92800 Y1.05095
X-1.92700 Y1.05095
X-1.92700 Y1.04995
X-1.92600 Y1.04995
X-1.92600 Y1.04895
X-1.92500 Y1.04895
X-1.92500 Y1.04795
X-1.92400 Y1.04795
X-1.92400 Y1.04695
X-1.92300 Y1.04695
X-1.92300 Y1.04595
X-2.02900 Y1.04595
X-2.02900 Y1.04795
X-2.03000 Y1.04795
X-2.03000 Y1.05095
X-2.03100 Y1.05095
X-2.03100 Y1.05195
X-2.03200 Y1.05195
X-2.03200 Y1.05295
X-2.03300 Y1.05295
X-2.03300 Y1.05495
X-2.03400 Y1.05495
X-2.03400 Y1.05595
X-2.03500 Y1.05595
X-2.03500 Y1.05695
X-2.03600 Y1.05695
X-2.03600 Y1.05895
X-2.03700 Y1.05895
X-2.03700 Y1.05995
X-2.03800 Y1.05995
X-2.03800 Y1.06095
X-2.04000 Y1.06095
X-2.04000 Y1.06195
X-2.04100 Y1.06195
X-2.04100 Y1.06295
X-2.04300 Y1.06295
X-2.04300 Y1.06395
X-2.04500 Y1.06395
X-2.04500 Y1.06495
X-2.04600 Y1.06495
X-2.04600 Y1.06595
X-2.04800 Y1.06595
X-2.04800 Y1.06695
X-2.05400 Y1.06695
X-2.05400 Y1.06795
X-2.07800 Y1.06795
X-2.07800 Y1.06895
X-2.07900 Y1.06895
X-2.07900 Y1.06995
X-2.08000 Y1.06995
X-2.08000 Y1.07095
X-2.08100 Y1.07095
X-2.08100 Y1.07195
X-2.08200 Y1.07195
X-2.08200 Y1.07295
X-2.08300 Y1.07295
X-2.08300 Y1.07395
X-2.08400 Y1.07395
X-2.08400 Y1.07495
X-2.08500 Y1.07495
X-2.08500 Y1.07595
X-2.08600 Y1.07595
X-2.08600 Y1.07695
X-2.08700 Y1.07695
X-2.08700 Y1.07795
X-2.08800 Y1.07795
X-2.08800 Y1.07895
X-2.08900 Y1.07895
X-2.08900 Y1.07995
X-2.09000 Y1.07995
X-2.09000 Y1.08095
X-2.09100 Y1.08095
X-2.09100 Y1.08195
X-2.09200 Y1.08195
X-2.09200 Y1.08295
X-2.09300 Y1.08295
X-2.09300 Y1.08395
X-2.09400 Y1.08395
X-2.09400 Y1.08495
X-2.09500 Y1.08495
X-2.09500 Y1.08595
X-2.09600 Y1.08595
X-2.09600 Y1.08695
X-2.09700 Y1.08695
X-2.09700 Y1.08795
X-2.09800 Y1.08795
X-2.09800 Y1.08895
X-2.09900 Y1.08895
X-2.09900 Y1.08995
X-2.10000 Y1.08995
X-2.10000 Y1.09095
X-2.10100 Y1.09095
X-2.10100 Y1.09195
X-2.10200 Y1.09195
