( Made using CamBam - http://www.cambam.co.uk )
( z-module-pcb 11/14/2015 9:33:46 PM )
( T1 : 0.7 )
( T3 : 1.0 )
G21 G90 G91.1 G64 G40
G0 Z3.0
( T1 : 0.7 )
T1 M6
( Drill1 )
G17
M3 S1000
G0 X-2.062 Y48.895
G98
G81 X-2.062 Y48.895 Z-2.0 R3.0 F300.0
G81 X-8.128 Z-2.0
G81 X-20.828 Y48.26 Z-2.0
G81 Y45.72 Z-2.0
G81 X-29.513 Z-2.0
G81 X-31.078 Y48.17 Z-2.0
G81 X-29.718 Y37.084 Z-2.0
G81 X-31.242 Y35.306 Z-2.0
G81 X-29.702 Y29.718 Z-2.0
G81 X-25.687 Y24.605 Z-2.0
G81 X-27.542 Y21.92 Z-2.0
G81 X-31.242 Y21.59 Z-2.0
G81 X-39.878 Y18.542 Z-2.0
G81 Y12.7 Z-2.0
G81 X-53.34 Y11.176 Z-2.0
G81 Y16.002 Z-2.0
G81 X-55.753 Y26.035 Z-2.0
G81 Y31.75 Z-2.0
G81 X-54.61 Y36.83 Z-2.0
G81 X-45.974 Z-2.0
G81 X-42.418 Y38.1 Z-2.0
G81 Y29.718 Z-2.0
G81 X-19.304 Y24.558 Z-2.0
G81 Y22.098 Z-2.0
G81 X-33.274 Y61.468 Z-2.0
G81 X-38.939 Y60.52 Z-2.0
G81 X-44.704 Y61.722 Z-2.0
G81 X-44.779 Y59.33 Z-2.0
G81 X-44.704 Y57.15 Z-2.0
G81 X-53.34 Z-2.0
G81 X-53.213 Y59.436 Z-2.0
G81 X-53.086 Y61.722 Z-2.0
G80
( Drill2 )
S1000
G0 Z3.0
G0 X-5.588 Y54.61
G98
G81 X-5.588 Y54.61 Z-2.0 R3.0 F300.0
G81 X-8.128 Z-2.0
G81 X-10.668 Z-2.0
G81 X-13.208 Z-2.0
G81 X-15.748 Z-2.0
G81 X-18.288 Z-2.0
G81 X-20.828 Z-2.0
G81 X-23.368 Z-2.0
G81 Y41.91 Z-2.0
G81 X-20.828 Z-2.0
G81 X-18.288 Z-2.0
G81 X-15.748 Z-2.0
G81 X-13.208 Z-2.0
G81 X-10.668 Z-2.0
G81 X-8.128 Z-2.0
G81 X-5.588 Z-2.0
G81 Y30.48 Z-2.0
G81 X-8.128 Z-2.0
G81 X-10.668 Z-2.0
G81 X-13.208 Z-2.0
G81 X-15.748 Z-2.0
G81 X-18.288 Z-2.0
G81 X-20.828 Z-2.0
G81 X-23.368 Z-2.0
G81 X-33.528 Z-2.0
G81 Y33.02 Z-2.0
G81 Y35.56 Z-2.0
G81 X-38.608 Z-2.0
G81 Y33.02 Z-2.0
G81 Y30.48 Z-2.0
G81 Y25.4 Z-2.0
G81 X-33.528 Z-2.0
G81 X-23.368 Y17.78 Z-2.0
G81 X-20.828 Z-2.0
G81 X-18.288 Z-2.0
G81 X-15.748 Z-2.0
G81 X-13.208 Z-2.0
G81 X-10.668 Z-2.0
G81 X-8.128 Z-2.0
G81 X-5.588 Z-2.0
G81 X-47.498 Y23.495 Z-2.0
G81 Y26.035 Z-2.0
G81 Y28.575 Z-2.0
G81 Y33.655 Z-2.0
G81 X-52.578 Z-2.0
G81 Y28.575 Z-2.0
G81 Y26.035 Z-2.0
G81 Y23.495 Z-2.0
G81 X-58.928 Z-2.0
G81 Y26.035 Z-2.0
G81 Y28.575 Z-2.0
G81 X-64.008 Z-2.0
G81 Y26.035 Z-2.0
G81 Y23.495 Z-2.0
G81 X-69.85 Y23.622 Z-2.0
G81 Y26.162 Z-2.0
G81 Y28.702 Z-2.0
G81 Y33.782 Z-2.0
G81 X-74.93 Z-2.0
G81 Y28.702 Z-2.0
G81 Y26.162 Z-2.0
G81 Y23.622 Z-2.0
G81 X-64.008 Y33.655 Z-2.0
G81 X-58.928 Z-2.0
G81 X-57.023 Y41.91 Z-2.0
G81 Y44.45 Z-2.0
G81 Y46.99 Z-2.0
G81 X-53.213 Z-2.0
G81 Y44.45 Z-2.0
G81 Y41.91 Z-2.0
G81 X-45.593 Z-2.0
G81 Y44.45 Z-2.0
G81 Y46.99 Z-2.0
G81 X-64.643 Z-2.0
G81 Y44.45 Z-2.0
G81 Y41.91 Z-2.0
G81 X-68.834 Z-2.0
G81 Y44.45 Z-2.0
G81 Y46.99 Z-2.0
G81 X-76.454 Z-2.0
G81 Y44.45 Z-2.0
G81 Y41.91 Z-2.0
G80
( Drill3 )
G0 Z3.0
( T3 : 1.0 )
T3 M6
M3 S1000
G0 X-31.242 Y41.656
G98
G81 X-31.242 Y41.656 Z-2.0 R3.0 F300.0
G81 X-34.798 Y47.752 Z-2.0
G81 Y50.292 Z-2.0
G81 X-39.116 Y55.118 Z-2.0
G81 X-43.688 Y52.07 Z-2.0
G81 X-39.116 Y44.958 Z-2.0
G81 X-41.402 Y41.656 Z-2.0
G81 X-53.848 Y52.07 Z-2.0
G81 X-57.023 Z-2.0
G81 X-61.468 Y56.388 Z-2.0
G81 X-67.183 Y52.07 Z-2.0
G81 X-71.628 Y56.388 Z-2.0
G81 X-56.388 Y23.495 Z-2.0
G81 X-60.198 Y15.875 Z-2.0
G81 Y13.335 Z-2.0
G81 X-56.388 Z-2.0
G81 X-48.768 Z-2.0
G81 Y15.875 Z-2.0
G81 X-43.434 Y13.208 Z-2.0
G81 Y23.368 Z-2.0
G80
( Drill4 )
S1000
G0 Z3.0
G0 X-4.148 Y64.77
G0 Z3.0
G0 X-3.898 Y64.77
G0 Z1.0
G1 F300.0 Z0.0
G2 F800.0 X-4.273 Y64.5535 Z-0.1333 I-0.25 J0.0
G2 Y64.9865 Z-0.2667 I0.125 J0.2165
G2 X-3.898 Y64.77 Z-0.4 I0.125 J-0.2165
G2 X-4.273 Y64.5535 Z-0.5333 I-0.25 J0.0
G2 Y64.9865 Z-0.6667 I0.125 J0.2165
G2 X-3.898 Y64.77 Z-0.8 I0.125 J-0.2165
G2 X-4.273 Y64.5535 Z-0.9333 I-0.25 J0.0
G2 Y64.9865 Z-1.0667 I0.125 J0.2165
G2 X-3.898 Y64.77 Z-1.2 I0.125 J-0.2165
G2 X-4.273 Y64.5535 Z-1.3333 I-0.25 J0.0
G2 Y64.9865 Z-1.4667 I0.125 J0.2165
G2 X-3.898 Y64.77 Z-1.6 I0.125 J-0.2165
G2 X-4.273 Y64.5535 Z-1.7333 I-0.25 J0.0
G2 Y64.9865 Z-1.8667 I0.125 J0.2165
G2 X-3.898 Y64.77 Z-2.0 I0.125 J-0.2165
G2 X-4.273 Y64.5535 I-0.25 J0.0
G2 Y64.9865 I0.125 J0.2165
G2 X-3.898 Y64.77 I0.125 J-0.2165
G0 Z3.0
G0 X-7.398
G0 Z1.0
G1 F300.0 Z0.0
G2 F800.0 X-7.773 Y64.5535 Z-0.1333 I-0.25 J0.0
G2 Y64.9865 Z-0.2667 I0.125 J0.2165
G2 X-7.398 Y64.77 Z-0.4 I0.125 J-0.2165
G2 X-7.773 Y64.5535 Z-0.5333 I-0.25 J0.0
G2 Y64.9865 Z-0.6667 I0.125 J0.2165
G2 X-7.398 Y64.77 Z-0.8 I0.125 J-0.2165
G2 X-7.773 Y64.5535 Z-0.9333 I-0.25 J0.0
G2 Y64.9865 Z-1.0667 I0.125 J0.2165
G2 X-7.398 Y64.77 Z-1.2 I0.125 J-0.2165
G2 X-7.773 Y64.5535 Z-1.3333 I-0.25 J0.0
G2 Y64.9865 Z-1.4667 I0.125 J0.2165
G2 X-7.398 Y64.77 Z-1.6 I0.125 J-0.2165
G2 X-7.773 Y64.5535 Z-1.7333 I-0.25 J0.0
G2 Y64.9865 Z-1.8667 I0.125 J0.2165
G2 X-7.398 Y64.77 Z-2.0 I0.125 J-0.2165
G2 X-7.773 Y64.5535 I-0.25 J0.0
G2 Y64.9865 I0.125 J0.2165
G2 X-7.398 Y64.77 I0.125 J-0.2165
G0 Z3.0
G0 X-10.898
G0 Z1.0
G1 F300.0 Z0.0
G2 F800.0 X-11.273 Y64.5535 Z-0.1333 I-0.25 J0.0
G2 Y64.9865 Z-0.2667 I0.125 J0.2165
G2 X-10.898 Y64.77 Z-0.4 I0.125 J-0.2165
G2 X-11.273 Y64.5535 Z-0.5333 I-0.25 J0.0
G2 Y64.9865 Z-0.6667 I0.125 J0.2165
G2 X-10.898 Y64.77 Z-0.8 I0.125 J-0.2165
G2 X-11.273 Y64.5535 Z-0.9333 I-0.25 J0.0
G2 Y64.9865 Z-1.0667 I0.125 J0.2165
G2 X-10.898 Y64.77 Z-1.2 I0.125 J-0.2165
G2 X-11.273 Y64.5535 Z-1.3333 I-0.25 J0.0
G2 Y64.9865 Z-1.4667 I0.125 J0.2165
G2 X-10.898 Y64.77 Z-1.6 I0.125 J-0.2165
G2 X-11.273 Y64.5535 Z-1.7333 I-0.25 J0.0
G2 Y64.9865 Z-1.8667 I0.125 J0.2165
G2 X-10.898 Y64.77 Z-2.0 I0.125 J-0.2165
G2 X-11.273 Y64.5535 I-0.25 J0.0
G2 Y64.9865 I0.125 J0.2165
G2 X-10.898 Y64.77 I0.125 J-0.2165
G0 Z3.0
G0 X-14.398
G0 Z1.0
G1 F300.0 Z0.0
G2 F800.0 X-14.773 Y64.5535 Z-0.1333 I-0.25 J0.0
G2 Y64.9865 Z-0.2667 I0.125 J0.2165
G2 X-14.398 Y64.77 Z-0.4 I0.125 J-0.2165
G2 X-14.773 Y64.5535 Z-0.5333 I-0.25 J0.0
G2 Y64.9865 Z-0.6667 I0.125 J0.2165
G2 X-14.398 Y64.77 Z-0.8 I0.125 J-0.2165
G2 X-14.773 Y64.5535 Z-0.9333 I-0.25 J0.0
G2 Y64.9865 Z-1.0667 I0.125 J0.2165
G2 X-14.398 Y64.77 Z-1.2 I0.125 J-0.2165
G2 X-14.773 Y64.5535 Z-1.3333 I-0.25 J0.0
G2 Y64.9865 Z-1.4667 I0.125 J0.2165
G2 X-14.398 Y64.77 Z-1.6 I0.125 J-0.2165
G2 X-14.773 Y64.5535 Z-1.7333 I-0.25 J0.0
G2 Y64.9865 Z-1.8667 I0.125 J0.2165
G2 X-14.398 Y64.77 Z-2.0 I0.125 J-0.2165
G2 X-14.773 Y64.5535 I-0.25 J0.0
G2 Y64.9865 I0.125 J0.2165
G2 X-14.398 Y64.77 I0.125 J-0.2165
G0 Z3.0
G0 X-22.158
G0 Z1.0
G1 F300.0 Z0.0
G2 F800.0 X-22.533 Y64.5535 Z-0.1333 I-0.25 J0.0
G2 Y64.9865 Z-0.2667 I0.125 J0.2165
G2 X-22.158 Y64.77 Z-0.4 I0.125 J-0.2165
G2 X-22.533 Y64.5535 Z-0.5333 I-0.25 J0.0
G2 Y64.9865 Z-0.6667 I0.125 J0.2165
G2 X-22.158 Y64.77 Z-0.8 I0.125 J-0.2165
G2 X-22.533 Y64.5535 Z-0.9333 I-0.25 J0.0
G2 Y64.9865 Z-1.0667 I0.125 J0.2165
G2 X-22.158 Y64.77 Z-1.2 I0.125 J-0.2165
G2 X-22.533 Y64.5535 Z-1.3333 I-0.25 J0.0
G2 Y64.9865 Z-1.4667 I0.125 J0.2165
G2 X-22.158 Y64.77 Z-1.6 I0.125 J-0.2165
G2 X-22.533 Y64.5535 Z-1.7333 I-0.25 J0.0
G2 Y64.9865 Z-1.8667 I0.125 J0.2165
G2 X-22.158 Y64.77 Z-2.0 I0.125 J-0.2165
G2 X-22.533 Y64.5535 I-0.25 J0.0
G2 Y64.9865 I0.125 J0.2165
G2 X-22.158 Y64.77 I0.125 J-0.2165
G0 Z3.0
G0 X-25.658
G0 Z1.0
G1 F300.0 Z0.0
G2 F800.0 X-26.033 Y64.5535 Z-0.1333 I-0.25 J0.0
G2 Y64.9865 Z-0.2667 I0.125 J0.2165
G2 X-25.658 Y64.77 Z-0.4 I0.125 J-0.2165
G2 X-26.033 Y64.5535 Z-0.5333 I-0.25 J0.0
G2 Y64.9865 Z-0.6667 I0.125 J0.2165
G2 X-25.658 Y64.77 Z-0.8 I0.125 J-0.2165
G2 X-26.033 Y64.5535 Z-0.9333 I-0.25 J0.0
G2 Y64.9865 Z-1.0667 I0.125 J0.2165
G2 X-25.658 Y64.77 Z-1.2 I0.125 J-0.2165
G2 X-26.033 Y64.5535 Z-1.3333 I-0.25 J0.0
G2 Y64.9865 Z-1.4667 I0.125 J0.2165
G2 X-25.658 Y64.77 Z-1.6 I0.125 J-0.2165
G2 X-26.033 Y64.5535 Z-1.7333 I-0.25 J0.0
G2 Y64.9865 Z-1.8667 I0.125 J0.2165
G2 X-25.658 Y64.77 Z-2.0 I0.125 J-0.2165
G2 X-26.033 Y64.5535 I-0.25 J0.0
G2 Y64.9865 I0.125 J0.2165
G2 X-25.658 Y64.77 I0.125 J-0.2165
G0 Z3.0
G0 X-29.158
G0 Z1.0
G1 F300.0 Z0.0
G2 F800.0 X-29.533 Y64.5535 Z-0.1333 I-0.25 J0.0
G2 Y64.9865 Z-0.2667 I0.125 J0.2165
G2 X-29.158 Y64.77 Z-0.4 I0.125 J-0.2165
G2 X-29.533 Y64.5535 Z-0.5333 I-0.25 J0.0
G2 Y64.9865 Z-0.6667 I0.125 J0.2165
G2 X-29.158 Y64.77 Z-0.8 I0.125 J-0.2165
G2 X-29.533 Y64.5535 Z-0.9333 I-0.25 J0.0
G2 Y64.9865 Z-1.0667 I0.125 J0.2165
G2 X-29.158 Y64.77 Z-1.2 I0.125 J-0.2165
G2 X-29.533 Y64.5535 Z-1.3333 I-0.25 J0.0
G2 Y64.9865 Z-1.4667 I0.125 J0.2165
G2 X-29.158 Y64.77 Z-1.6 I0.125 J-0.2165
G2 X-29.533 Y64.5535 Z-1.7333 I-0.25 J0.0
G2 Y64.9865 Z-1.8667 I0.125 J0.2165
G2 X-29.158 Y64.77 Z-2.0 I0.125 J-0.2165
G2 X-29.533 Y64.5535 I-0.25 J0.0
G2 Y64.9865 I0.125 J0.2165
G2 X-29.158 Y64.77 I0.125 J-0.2165
G0 Z3.0
G0 X-34.858
G0 Z1.0
G1 F300.0 Z0.0
G2 F800.0 X-35.233 Y64.5535 Z-0.1333 I-0.25 J0.0
G2 Y64.9865 Z-0.2667 I0.125 J0.2165
G2 X-34.858 Y64.77 Z-0.4 I0.125 J-0.2165
G2 X-35.233 Y64.5535 Z-0.5333 I-0.25 J0.0
G2 Y64.9865 Z-0.6667 I0.125 J0.2165
G2 X-34.858 Y64.77 Z-0.8 I0.125 J-0.2165
G2 X-35.233 Y64.5535 Z-0.9333 I-0.25 J0.0
G2 Y64.9865 Z-1.0667 I0.125 J0.2165
G2 X-34.858 Y64.77 Z-1.2 I0.125 J-0.2165
G2 X-35.233 Y64.5535 Z-1.3333 I-0.25 J0.0
G2 Y64.9865 Z-1.4667 I0.125 J0.2165
G2 X-34.858 Y64.77 Z-1.6 I0.125 J-0.2165
G2 X-35.233 Y64.5535 Z-1.7333 I-0.25 J0.0
G2 Y64.9865 Z-1.8667 I0.125 J0.2165
G2 X-34.858 Y64.77 Z-2.0 I0.125 J-0.2165
G2 X-35.233 Y64.5535 I-0.25 J0.0
G2 Y64.9865 I0.125 J0.2165
G2 X-34.858 Y64.77 I0.125 J-0.2165
G0 Z3.0
G0 X-38.358
G0 Z1.0
G1 F300.0 Z0.0
G2 F800.0 X-38.733 Y64.5535 Z-0.1333 I-0.25 J0.0
G2 Y64.9865 Z-0.2667 I0.125 J0.2165
G2 X-38.358 Y64.77 Z-0.4 I0.125 J-0.2165
G2 X-38.733 Y64.5535 Z-0.5333 I-0.25 J0.0
G2 Y64.9865 Z-0.6667 I0.125 J0.2165
G2 X-38.358 Y64.77 Z-0.8 I0.125 J-0.2165
G2 X-38.733 Y64.5535 Z-0.9333 I-0.25 J0.0
G2 Y64.9865 Z-1.0667 I0.125 J0.2165
G2 X-38.358 Y64.77 Z-1.2 I0.125 J-0.2165
G2 X-38.733 Y64.5535 Z-1.3333 I-0.25 J0.0
G2 Y64.9865 Z-1.4667 I0.125 J0.2165
G2 X-38.358 Y64.77 Z-1.6 I0.125 J-0.2165
G2 X-38.733 Y64.5535 Z-1.7333 I-0.25 J0.0
G2 Y64.9865 Z-1.8667 I0.125 J0.2165
G2 X-38.358 Y64.77 Z-2.0 I0.125 J-0.2165
G2 X-38.733 Y64.5535 I-0.25 J0.0
G2 Y64.9865 I0.125 J0.2165
G2 X-38.358 Y64.77 I0.125 J-0.2165
G0 Z3.0
G0 X-41.858
G0 Z1.0
G1 F300.0 Z0.0
G2 F800.0 X-42.233 Y64.5535 Z-0.1333 I-0.25 J0.0
G2 Y64.9865 Z-0.2667 I0.125 J0.2165
G2 X-41.858 Y64.77 Z-0.4 I0.125 J-0.2165
G2 X-42.233 Y64.5535 Z-0.5333 I-0.25 J0.0
G2 Y64.9865 Z-0.6667 I0.125 J0.2165
G2 X-41.858 Y64.77 Z-0.8 I0.125 J-0.2165
G2 X-42.233 Y64.5535 Z-0.9333 I-0.25 J0.0
G2 Y64.9865 Z-1.0667 I0.125 J0.2165
G2 X-41.858 Y64.77 Z-1.2 I0.125 J-0.2165
G2 X-42.233 Y64.5535 Z-1.3333 I-0.25 J0.0
G2 Y64.9865 Z-1.4667 I0.125 J0.2165
G2 X-41.858 Y64.77 Z-1.6 I0.125 J-0.2165
G2 X-42.233 Y64.5535 Z-1.7333 I-0.25 J0.0
G2 Y64.9865 Z-1.8667 I0.125 J0.2165
G2 X-41.858 Y64.77 Z-2.0 I0.125 J-0.2165
G2 X-42.233 Y64.5535 I-0.25 J0.0
G2 Y64.9865 I0.125 J0.2165
G2 X-41.858 Y64.77 I0.125 J-0.2165
G0 Z3.0
G0 X-48.038
G0 Z1.0
G1 F300.0 Z0.0
G2 F800.0 X-48.413 Y64.5535 Z-0.1333 I-0.25 J0.0
G2 Y64.9865 Z-0.2667 I0.125 J0.2165
G2 X-48.038 Y64.77 Z-0.4 I0.125 J-0.2165
G2 X-48.413 Y64.5535 Z-0.5333 I-0.25 J0.0
G2 Y64.9865 Z-0.6667 I0.125 J0.2165
G2 X-48.038 Y64.77 Z-0.8 I0.125 J-0.2165
G2 X-48.413 Y64.5535 Z-0.9333 I-0.25 J0.0
G2 Y64.9865 Z-1.0667 I0.125 J0.2165
G2 X-48.038 Y64.77 Z-1.2 I0.125 J-0.2165
G2 X-48.413 Y64.5535 Z-1.3333 I-0.25 J0.0
G2 Y64.9865 Z-1.4667 I0.125 J0.2165
G2 X-48.038 Y64.77 Z-1.6 I0.125 J-0.2165
G2 X-48.413 Y64.5535 Z-1.7333 I-0.25 J0.0
G2 Y64.9865 Z-1.8667 I0.125 J0.2165
G2 X-48.038 Y64.77 Z-2.0 I0.125 J-0.2165
G2 X-48.413 Y64.5535 I-0.25 J0.0
G2 Y64.9865 I0.125 J0.2165
G2 X-48.038 Y64.77 I0.125 J-0.2165
G0 Z3.0
G0 X-51.538
G0 Z1.0
G1 F300.0 Z0.0
G2 F800.0 X-51.913 Y64.5535 Z-0.1333 I-0.25 J0.0
G2 Y64.9865 Z-0.2667 I0.125 J0.2165
G2 X-51.538 Y64.77 Z-0.4 I0.125 J-0.2165
G2 X-51.913 Y64.5535 Z-0.5333 I-0.25 J0.0
G2 Y64.9865 Z-0.6667 I0.125 J0.2165
G2 X-51.538 Y64.77 Z-0.8 I0.125 J-0.2165
G2 X-51.913 Y64.5535 Z-0.9333 I-0.25 J0.0
G2 Y64.9865 Z-1.0667 I0.125 J0.2165
G2 X-51.538 Y64.77 Z-1.2 I0.125 J-0.2165
G2 X-51.913 Y64.5535 Z-1.3333 I-0.25 J0.0
G2 Y64.9865 Z-1.4667 I0.125 J0.2165
G2 X-51.538 Y64.77 Z-1.6 I0.125 J-0.2165
G2 X-51.913 Y64.5535 Z-1.7333 I-0.25 J0.0
G2 Y64.9865 Z-1.8667 I0.125 J0.2165
G2 X-51.538 Y64.77 Z-2.0 I0.125 J-0.2165
G2 X-51.913 Y64.5535 I-0.25 J0.0
G2 Y64.9865 I0.125 J0.2165
G2 X-51.538 Y64.77 I0.125 J-0.2165
G0 Z3.0
G0 X-58.818
G0 Z1.0
G1 F300.0 Z0.0
G2 F800.0 X-59.193 Y64.5535 Z-0.1333 I-0.25 J0.0
G2 Y64.9865 Z-0.2667 I0.125 J0.2165
G2 X-58.818 Y64.77 Z-0.4 I0.125 J-0.2165
G2 X-59.193 Y64.5535 Z-0.5333 I-0.25 J0.0
G2 Y64.9865 Z-0.6667 I0.125 J0.2165
G2 X-58.818 Y64.77 Z-0.8 I0.125 J-0.2165
G2 X-59.193 Y64.5535 Z-0.9333 I-0.25 J0.0
G2 Y64.9865 Z-1.0667 I0.125 J0.2165
G2 X-58.818 Y64.77 Z-1.2 I0.125 J-0.2165
G2 X-59.193 Y64.5535 Z-1.3333 I-0.25 J0.0
G2 Y64.9865 Z-1.4667 I0.125 J0.2165
G2 X-58.818 Y64.77 Z-1.6 I0.125 J-0.2165
G2 X-59.193 Y64.5535 Z-1.7333 I-0.25 J0.0
G2 Y64.9865 Z-1.8667 I0.125 J0.2165
G2 X-58.818 Y64.77 Z-2.0 I0.125 J-0.2165
G2 X-59.193 Y64.5535 I-0.25 J0.0
G2 Y64.9865 I0.125 J0.2165
G2 X-58.818 Y64.77 I0.125 J-0.2165
G0 Z3.0
G0 X-62.318
G0 Z1.0
G1 F300.0 Z0.0
G2 F800.0 X-62.693 Y64.5535 Z-0.1333 I-0.25 J0.0
G2 Y64.9865 Z-0.2667 I0.125 J0.2165
G2 X-62.318 Y64.77 Z-0.4 I0.125 J-0.2165
G2 X-62.693 Y64.5535 Z-0.5333 I-0.25 J0.0
G2 Y64.9865 Z-0.6667 I0.125 J0.2165
G2 X-62.318 Y64.77 Z-0.8 I0.125 J-0.2165
G2 X-62.693 Y64.5535 Z-0.9333 I-0.25 J0.0
G2 Y64.9865 Z-1.0667 I0.125 J0.2165
G2 X-62.318 Y64.77 Z-1.2 I0.125 J-0.2165
G2 X-62.693 Y64.5535 Z-1.3333 I-0.25 J0.0
G2 Y64.9865 Z-1.4667 I0.125 J0.2165
G2 X-62.318 Y64.77 Z-1.6 I0.125 J-0.2165
G2 X-62.693 Y64.5535 Z-1.7333 I-0.25 J0.0
G2 Y64.9865 Z-1.8667 I0.125 J0.2165
G2 X-62.318 Y64.77 Z-2.0 I0.125 J-0.2165
G2 X-62.693 Y64.5535 I-0.25 J0.0
G2 Y64.9865 I0.125 J0.2165
G2 X-62.318 Y64.77 I0.125 J-0.2165
G0 Z3.0
G0 X-65.818
G0 Z1.0
G1 F300.0 Z0.0
G2 F800.0 X-66.193 Y64.5535 Z-0.1333 I-0.25 J0.0
G2 Y64.9865 Z-0.2667 I0.125 J0.2165
G2 X-65.818 Y64.77 Z-0.4 I0.125 J-0.2165
G2 X-66.193 Y64.5535 Z-0.5333 I-0.25 J0.0
G2 Y64.9865 Z-0.6667 I0.125 J0.2165
G2 X-65.818 Y64.77 Z-0.8 I0.125 J-0.2165
G2 X-66.193 Y64.5535 Z-0.9333 I-0.25 J0.0
G2 Y64.9865 Z-1.0667 I0.125 J0.2165
G2 X-65.818 Y64.77 Z-1.2 I0.125 J-0.2165
G2 X-66.193 Y64.5535 Z-1.3333 I-0.25 J0.0
G2 Y64.9865 Z-1.4667 I0.125 J0.2165
G2 X-65.818 Y64.77 Z-1.6 I0.125 J-0.2165
G2 X-66.193 Y64.5535 Z-1.7333 I-0.25 J0.0
G2 Y64.9865 Z-1.8667 I0.125 J0.2165
G2 X-65.818 Y64.77 Z-2.0 I0.125 J-0.2165
G2 X-66.193 Y64.5535 I-0.25 J0.0
G2 Y64.9865 I0.125 J0.2165
G2 X-65.818 Y64.77 I0.125 J-0.2165
G0 Z3.0
G0 X-69.318
G0 Z1.0
G1 F300.0 Z0.0
G2 F800.0 X-69.693 Y64.5535 Z-0.1333 I-0.25 J0.0
G2 Y64.9865 Z-0.2667 I0.125 J0.2165
G2 X-69.318 Y64.77 Z-0.4 I0.125 J-0.2165
G2 X-69.693 Y64.5535 Z-0.5333 I-0.25 J0.0
G2 Y64.9865 Z-0.6667 I0.125 J0.2165
G2 X-69.318 Y64.77 Z-0.8 I0.125 J-0.2165
G2 X-69.693 Y64.5535 Z-0.9333 I-0.25 J0.0
G2 Y64.9865 Z-1.0667 I0.125 J0.2165
G2 X-69.318 Y64.77 Z-1.2 I0.125 J-0.2165
G2 X-69.693 Y64.5535 Z-1.3333 I-0.25 J0.0
G2 Y64.9865 Z-1.4667 I0.125 J0.2165
G2 X-69.318 Y64.77 Z-1.6 I0.125 J-0.2165
G2 X-69.693 Y64.5535 Z-1.7333 I-0.25 J0.0
G2 Y64.9865 Z-1.8667 I0.125 J0.2165
G2 X-69.318 Y64.77 Z-2.0 I0.125 J-0.2165
G2 X-69.693 Y64.5535 I-0.25 J0.0
G2 Y64.9865 I0.125 J0.2165
G2 X-69.318 Y64.77 I0.125 J-0.2165
G0 Z3.0
G0 X-72.818
G0 Z1.0
G1 F300.0 Z0.0
G2 F800.0 X-73.193 Y64.5535 Z-0.1333 I-0.25 J0.0
G2 Y64.9865 Z-0.2667 I0.125 J0.2165
G2 X-72.818 Y64.77 Z-0.4 I0.125 J-0.2165
G2 X-73.193 Y64.5535 Z-0.5333 I-0.25 J0.0
G2 Y64.9865 Z-0.6667 I0.125 J0.2165
G2 X-72.818 Y64.77 Z-0.8 I0.125 J-0.2165
G2 X-73.193 Y64.5535 Z-0.9333 I-0.25 J0.0
G2 Y64.9865 Z-1.0667 I0.125 J0.2165
G2 X-72.818 Y64.77 Z-1.2 I0.125 J-0.2165
G2 X-73.193 Y64.5535 Z-1.3333 I-0.25 J0.0
G2 Y64.9865 Z-1.4667 I0.125 J0.2165
G2 X-72.818 Y64.77 Z-1.6 I0.125 J-0.2165
G2 X-73.193 Y64.5535 Z-1.7333 I-0.25 J0.0
G2 Y64.9865 Z-1.8667 I0.125 J0.2165
G2 X-72.818 Y64.77 Z-2.0 I0.125 J-0.2165
G2 X-73.193 Y64.5535 I-0.25 J0.0
G2 Y64.9865 I0.125 J0.2165
G2 X-72.818 Y64.77 I0.125 J-0.2165
G0 Z3.0
G0 X-76.318
G0 Z1.0
G1 F300.0 Z0.0
G2 F800.0 X-76.693 Y64.5535 Z-0.1333 I-0.25 J0.0
G2 Y64.9865 Z-0.2667 I0.125 J0.2165
G2 X-76.318 Y64.77 Z-0.4 I0.125 J-0.2165
G2 X-76.693 Y64.5535 Z-0.5333 I-0.25 J0.0
G2 Y64.9865 Z-0.6667 I0.125 J0.2165
G2 X-76.318 Y64.77 Z-0.8 I0.125 J-0.2165
G2 X-76.693 Y64.5535 Z-0.9333 I-0.25 J0.0
G2 Y64.9865 Z-1.0667 I0.125 J0.2165
G2 X-76.318 Y64.77 Z-1.2 I0.125 J-0.2165
G2 X-76.693 Y64.5535 Z-1.3333 I-0.25 J0.0
G2 Y64.9865 Z-1.4667 I0.125 J0.2165
G2 X-76.318 Y64.77 Z-1.6 I0.125 J-0.2165
G2 X-76.693 Y64.5535 Z-1.7333 I-0.25 J0.0
G2 Y64.9865 Z-1.8667 I0.125 J0.2165
G2 X-76.318 Y64.77 Z-2.0 I0.125 J-0.2165
G2 X-76.693 Y64.5535 I-0.25 J0.0
G2 Y64.9865 I0.125 J0.2165
G2 X-76.318 Y64.77 I0.125 J-0.2165
G0 Z3.0
G0 X-75.668 Y6.35
G0 Z1.0
G1 F300.0 Z0.0
G2 F800.0 X-76.043 Y6.1335 Z-0.1333 I-0.25 J0.0
G2 Y6.5665 Z-0.2667 I0.125 J0.2165
G2 X-75.668 Y6.35 Z-0.4 I0.125 J-0.2165
G2 X-76.043 Y6.1335 Z-0.5333 I-0.25 J0.0
G2 Y6.5665 Z-0.6667 I0.125 J0.2165
G2 X-75.668 Y6.35 Z-0.8 I0.125 J-0.2165
G2 X-76.043 Y6.1335 Z-0.9333 I-0.25 J0.0
G2 Y6.5665 Z-1.0667 I0.125 J0.2165
G2 X-75.668 Y6.35 Z-1.2 I0.125 J-0.2165
G2 X-76.043 Y6.1335 Z-1.3333 I-0.25 J0.0
G2 Y6.5665 Z-1.4667 I0.125 J0.2165
G2 X-75.668 Y6.35 Z-1.6 I0.125 J-0.2165
G2 X-76.043 Y6.1335 Z-1.7333 I-0.25 J0.0
G2 Y6.5665 Z-1.8667 I0.125 J0.2165
G2 X-75.668 Y6.35 Z-2.0 I0.125 J-0.2165
G2 X-76.043 Y6.1335 I-0.25 J0.0
G2 Y6.5665 I0.125 J0.2165
G2 X-75.668 Y6.35 I0.125 J-0.2165
G0 Z3.0
G0 X-72.168
G0 Z1.0
G1 F300.0 Z0.0
G2 F800.0 X-72.543 Y6.1335 Z-0.1333 I-0.25 J0.0
G2 Y6.5665 Z-0.2667 I0.125 J0.2165
G2 X-72.168 Y6.35 Z-0.4 I0.125 J-0.2165
G2 X-72.543 Y6.1335 Z-0.5333 I-0.25 J0.0
G2 Y6.5665 Z-0.6667 I0.125 J0.2165
G2 X-72.168 Y6.35 Z-0.8 I0.125 J-0.2165
G2 X-72.543 Y6.1335 Z-0.9333 I-0.25 J0.0
G2 Y6.5665 Z-1.0667 I0.125 J0.2165
G2 X-72.168 Y6.35 Z-1.2 I0.125 J-0.2165
G2 X-72.543 Y6.1335 Z-1.3333 I-0.25 J0.0
G2 Y6.5665 Z-1.4667 I0.125 J0.2165
G2 X-72.168 Y6.35 Z-1.6 I0.125 J-0.2165
G2 X-72.543 Y6.1335 Z-1.7333 I-0.25 J0.0
G2 Y6.5665 Z-1.8667 I0.125 J0.2165
G2 X-72.168 Y6.35 Z-2.0 I0.125 J-0.2165
G2 X-72.543 Y6.1335 I-0.25 J0.0
G2 Y6.5665 I0.125 J0.2165
G2 X-72.168 Y6.35 I0.125 J-0.2165
G0 Z3.0
G0 X-65.678
G0 Z1.0
G1 F300.0 Z0.0
G2 F800.0 X-66.053 Y6.1335 Z-0.1333 I-0.25 J0.0
G2 Y6.5665 Z-0.2667 I0.125 J0.2165
G2 X-65.678 Y6.35 Z-0.4 I0.125 J-0.2165
G2 X-66.053 Y6.1335 Z-0.5333 I-0.25 J0.0
G2 Y6.5665 Z-0.6667 I0.125 J0.2165
G2 X-65.678 Y6.35 Z-0.8 I0.125 J-0.2165
G2 X-66.053 Y6.1335 Z-0.9333 I-0.25 J0.0
G2 Y6.5665 Z-1.0667 I0.125 J0.2165
G2 X-65.678 Y6.35 Z-1.2 I0.125 J-0.2165
G2 X-66.053 Y6.1335 Z-1.3333 I-0.25 J0.0
G2 Y6.5665 Z-1.4667 I0.125 J0.2165
G2 X-65.678 Y6.35 Z-1.6 I0.125 J-0.2165
G2 X-66.053 Y6.1335 Z-1.7333 I-0.25 J0.0
G2 Y6.5665 Z-1.8667 I0.125 J0.2165
G2 X-65.678 Y6.35 Z-2.0 I0.125 J-0.2165
G2 X-66.053 Y6.1335 I-0.25 J0.0
G2 Y6.5665 I0.125 J0.2165
G2 X-65.678 Y6.35 I0.125 J-0.2165
G0 Z3.0
G0 X-62.178
G0 Z1.0
G1 F300.0 Z0.0
G2 F800.0 X-62.553 Y6.1335 Z-0.1333 I-0.25 J0.0
G2 Y6.5665 Z-0.2667 I0.125 J0.2165
G2 X-62.178 Y6.35 Z-0.4 I0.125 J-0.2165
G2 X-62.553 Y6.1335 Z-0.5333 I-0.25 J0.0
G2 Y6.5665 Z-0.6667 I0.125 J0.2165
G2 X-62.178 Y6.35 Z-0.8 I0.125 J-0.2165
G2 X-62.553 Y6.1335 Z-0.9333 I-0.25 J0.0
G2 Y6.5665 Z-1.0667 I0.125 J0.2165
G2 X-62.178 Y6.35 Z-1.2 I0.125 J-0.2165
G2 X-62.553 Y6.1335 Z-1.3333 I-0.25 J0.0
G2 Y6.5665 Z-1.4667 I0.125 J0.2165
G2 X-62.178 Y6.35 Z-1.6 I0.125 J-0.2165
G2 X-62.553 Y6.1335 Z-1.7333 I-0.25 J0.0
G2 Y6.5665 Z-1.8667 I0.125 J0.2165
G2 X-62.178 Y6.35 Z-2.0 I0.125 J-0.2165
G2 X-62.553 Y6.1335 I-0.25 J0.0
G2 Y6.5665 I0.125 J0.2165
G2 X-62.178 Y6.35 I0.125 J-0.2165
G0 Z3.0
G0 X-58.678
G0 Z1.0
G1 F300.0 Z0.0
G2 F800.0 X-59.053 Y6.1335 Z-0.1333 I-0.25 J0.0
G2 Y6.5665 Z-0.2667 I0.125 J0.2165
G2 X-58.678 Y6.35 Z-0.4 I0.125 J-0.2165
G2 X-59.053 Y6.1335 Z-0.5333 I-0.25 J0.0
G2 Y6.5665 Z-0.6667 I0.125 J0.2165
G2 X-58.678 Y6.35 Z-0.8 I0.125 J-0.2165
G2 X-59.053 Y6.1335 Z-0.9333 I-0.25 J0.0
G2 Y6.5665 Z-1.0667 I0.125 J0.2165
G2 X-58.678 Y6.35 Z-1.2 I0.125 J-0.2165
G2 X-59.053 Y6.1335 Z-1.3333 I-0.25 J0.0
G2 Y6.5665 Z-1.4667 I0.125 J0.2165
G2 X-58.678 Y6.35 Z-1.6 I0.125 J-0.2165
G2 X-59.053 Y6.1335 Z-1.7333 I-0.25 J0.0
G2 Y6.5665 Z-1.8667 I0.125 J0.2165
G2 X-58.678 Y6.35 Z-2.0 I0.125 J-0.2165
G2 X-59.053 Y6.1335 I-0.25 J0.0
G2 Y6.5665 I0.125 J0.2165
G2 X-58.678 Y6.35 I0.125 J-0.2165
G0 Z3.0
G0 X-55.178
G0 Z1.0
G1 F300.0 Z0.0
G2 F800.0 X-55.553 Y6.1335 Z-0.1333 I-0.25 J0.0
G2 Y6.5665 Z-0.2667 I0.125 J0.2165
G2 X-55.178 Y6.35 Z-0.4 I0.125 J-0.2165
G2 X-55.553 Y6.1335 Z-0.5333 I-0.25 J0.0
G2 Y6.5665 Z-0.6667 I0.125 J0.2165
G2 X-55.178 Y6.35 Z-0.8 I0.125 J-0.2165
G2 X-55.553 Y6.1335 Z-0.9333 I-0.25 J0.0
G2 Y6.5665 Z-1.0667 I0.125 J0.2165
G2 X-55.178 Y6.35 Z-1.2 I0.125 J-0.2165
G2 X-55.553 Y6.1335 Z-1.3333 I-0.25 J0.0
G2 Y6.5665 Z-1.4667 I0.125 J0.2165
G2 X-55.178 Y6.35 Z-1.6 I0.125 J-0.2165
G2 X-55.553 Y6.1335 Z-1.7333 I-0.25 J0.0
G2 Y6.5665 Z-1.8667 I0.125 J0.2165
G2 X-55.178 Y6.35 Z-2.0 I0.125 J-0.2165
G2 X-55.553 Y6.1335 I-0.25 J0.0
G2 Y6.5665 I0.125 J0.2165
G2 X-55.178 Y6.35 I0.125 J-0.2165
G0 Z3.0
G0 X-51.678
G0 Z1.0
G1 F300.0 Z0.0
G2 F800.0 X-52.053 Y6.1335 Z-0.1333 I-0.25 J0.0
G2 Y6.5665 Z-0.2667 I0.125 J0.2165
G2 X-51.678 Y6.35 Z-0.4 I0.125 J-0.2165
G2 X-52.053 Y6.1335 Z-0.5333 I-0.25 J0.0
G2 Y6.5665 Z-0.6667 I0.125 J0.2165
G2 X-51.678 Y6.35 Z-0.8 I0.125 J-0.2165
G2 X-52.053 Y6.1335 Z-0.9333 I-0.25 J0.0
G2 Y6.5665 Z-1.0667 I0.125 J0.2165
G2 X-51.678 Y6.35 Z-1.2 I0.125 J-0.2165
G2 X-52.053 Y6.1335 Z-1.3333 I-0.25 J0.0
G2 Y6.5665 Z-1.4667 I0.125 J0.2165
G2 X-51.678 Y6.35 Z-1.6 I0.125 J-0.2165
G2 X-52.053 Y6.1335 Z-1.7333 I-0.25 J0.0
G2 Y6.5665 Z-1.8667 I0.125 J0.2165
G2 X-51.678 Y6.35 Z-2.0 I0.125 J-0.2165
G2 X-52.053 Y6.1335 I-0.25 J0.0
G2 Y6.5665 I0.125 J0.2165
G2 X-51.678 Y6.35 I0.125 J-0.2165
G0 Z3.0
G0 X-36.468
G0 Z1.0
G1 F300.0 Z0.0
G2 F800.0 X-36.843 Y6.1335 Z-0.1333 I-0.25 J0.0
G2 Y6.5665 Z-0.2667 I0.125 J0.2165
G2 X-36.468 Y6.35 Z-0.4 I0.125 J-0.2165
G2 X-36.843 Y6.1335 Z-0.5333 I-0.25 J0.0
G2 Y6.5665 Z-0.6667 I0.125 J0.2165
G2 X-36.468 Y6.35 Z-0.8 I0.125 J-0.2165
G2 X-36.843 Y6.1335 Z-0.9333 I-0.25 J0.0
G2 Y6.5665 Z-1.0667 I0.125 J0.2165
G2 X-36.468 Y6.35 Z-1.2 I0.125 J-0.2165
G2 X-36.843 Y6.1335 Z-1.3333 I-0.25 J0.0
G2 Y6.5665 Z-1.4667 I0.125 J0.2165
G2 X-36.468 Y6.35 Z-1.6 I0.125 J-0.2165
G2 X-36.843 Y6.1335 Z-1.7333 I-0.25 J0.0
G2 Y6.5665 Z-1.8667 I0.125 J0.2165
G2 X-36.468 Y6.35 Z-2.0 I0.125 J-0.2165
G2 X-36.843 Y6.1335 I-0.25 J0.0
G2 Y6.5665 I0.125 J0.2165
G2 X-36.468 Y6.35 I0.125 J-0.2165
G0 Z3.0
G0 X-32.968
G0 Z1.0
G1 F300.0 Z0.0
G2 F800.0 X-33.343 Y6.1335 Z-0.1333 I-0.25 J0.0
G2 Y6.5665 Z-0.2667 I0.125 J0.2165
G2 X-32.968 Y6.35 Z-0.4 I0.125 J-0.2165
G2 X-33.343 Y6.1335 Z-0.5333 I-0.25 J0.0
G2 Y6.5665 Z-0.6667 I0.125 J0.2165
G2 X-32.968 Y6.35 Z-0.8 I0.125 J-0.2165
G2 X-33.343 Y6.1335 Z-0.9333 I-0.25 J0.0
G2 Y6.5665 Z-1.0667 I0.125 J0.2165
G2 X-32.968 Y6.35 Z-1.2 I0.125 J-0.2165
G2 X-33.343 Y6.1335 Z-1.3333 I-0.25 J0.0
G2 Y6.5665 Z-1.4667 I0.125 J0.2165
G2 X-32.968 Y6.35 Z-1.6 I0.125 J-0.2165
G2 X-33.343 Y6.1335 Z-1.7333 I-0.25 J0.0
G2 Y6.5665 Z-1.8667 I0.125 J0.2165
G2 X-32.968 Y6.35 Z-2.0 I0.125 J-0.2165
G2 X-33.343 Y6.1335 I-0.25 J0.0
G2 Y6.5665 I0.125 J0.2165
G2 X-32.968 Y6.35 I0.125 J-0.2165
G0 Z3.0
G0 X-29.468
G0 Z1.0
G1 F300.0 Z0.0
G2 F800.0 X-29.843 Y6.1335 Z-0.1333 I-0.25 J0.0
G2 Y6.5665 Z-0.2667 I0.125 J0.2165
G2 X-29.468 Y6.35 Z-0.4 I0.125 J-0.2165
G2 X-29.843 Y6.1335 Z-0.5333 I-0.25 J0.0
G2 Y6.5665 Z-0.6667 I0.125 J0.2165
G2 X-29.468 Y6.35 Z-0.8 I0.125 J-0.2165
G2 X-29.843 Y6.1335 Z-0.9333 I-0.25 J0.0
G2 Y6.5665 Z-1.0667 I0.125 J0.2165
G2 X-29.468 Y6.35 Z-1.2 I0.125 J-0.2165
G2 X-29.843 Y6.1335 Z-1.3333 I-0.25 J0.0
G2 Y6.5665 Z-1.4667 I0.125 J0.2165
G2 X-29.468 Y6.35 Z-1.6 I0.125 J-0.2165
G2 X-29.843 Y6.1335 Z-1.7333 I-0.25 J0.0
G2 Y6.5665 Z-1.8667 I0.125 J0.2165
G2 X-29.468 Y6.35 Z-2.0 I0.125 J-0.2165
G2 X-29.843 Y6.1335 I-0.25 J0.0
G2 Y6.5665 I0.125 J0.2165
G2 X-29.468 Y6.35 I0.125 J-0.2165
G0 Z3.0
G0 X-25.968
G0 Z1.0
G1 F300.0 Z0.0
G2 F800.0 X-26.343 Y6.1335 Z-0.1333 I-0.25 J0.0
G2 Y6.5665 Z-0.2667 I0.125 J0.2165
G2 X-25.968 Y6.35 Z-0.4 I0.125 J-0.2165
G2 X-26.343 Y6.1335 Z-0.5333 I-0.25 J0.0
G2 Y6.5665 Z-0.6667 I0.125 J0.2165
G2 X-25.968 Y6.35 Z-0.8 I0.125 J-0.2165
G2 X-26.343 Y6.1335 Z-0.9333 I-0.25 J0.0
G2 Y6.5665 Z-1.0667 I0.125 J0.2165
G2 X-25.968 Y6.35 Z-1.2 I0.125 J-0.2165
G2 X-26.343 Y6.1335 Z-1.3333 I-0.25 J0.0
G2 Y6.5665 Z-1.4667 I0.125 J0.2165
G2 X-25.968 Y6.35 Z-1.6 I0.125 J-0.2165
G2 X-26.343 Y6.1335 Z-1.7333 I-0.25 J0.0
G2 Y6.5665 Z-1.8667 I0.125 J0.2165
G2 X-25.968 Y6.35 Z-2.0 I0.125 J-0.2165
G2 X-26.343 Y6.1335 I-0.25 J0.0
G2 Y6.5665 I0.125 J0.2165
G2 X-25.968 Y6.35 I0.125 J-0.2165
G0 Z3.0
G0 X-22.468
G0 Z1.0
G1 F300.0 Z0.0
G2 F800.0 X-22.843 Y6.1335 Z-0.1333 I-0.25 J0.0
G2 Y6.5665 Z-0.2667 I0.125 J0.2165
G2 X-22.468 Y6.35 Z-0.4 I0.125 J-0.2165
G2 X-22.843 Y6.1335 Z-0.5333 I-0.25 J0.0
G2 Y6.5665 Z-0.6667 I0.125 J0.2165
G2 X-22.468 Y6.35 Z-0.8 I0.125 J-0.2165
G2 X-22.843 Y6.1335 Z-0.9333 I-0.25 J0.0
G2 Y6.5665 Z-1.0667 I0.125 J0.2165
G2 X-22.468 Y6.35 Z-1.2 I0.125 J-0.2165
G2 X-22.843 Y6.1335 Z-1.3333 I-0.25 J0.0
G2 Y6.5665 Z-1.4667 I0.125 J0.2165
G2 X-22.468 Y6.35 Z-1.6 I0.125 J-0.2165
G2 X-22.843 Y6.1335 Z-1.7333 I-0.25 J0.0
G2 Y6.5665 Z-1.8667 I0.125 J0.2165
G2 X-22.468 Y6.35 Z-2.0 I0.125 J-0.2165
G2 X-22.843 Y6.1335 I-0.25 J0.0
G2 Y6.5665 I0.125 J0.2165
G2 X-22.468 Y6.35 I0.125 J-0.2165
G0 Z3.0
G0 X-14.398
G0 Z1.0
G1 F300.0 Z0.0
G2 F800.0 X-14.773 Y6.1335 Z-0.1333 I-0.25 J0.0
G2 Y6.5665 Z-0.2667 I0.125 J0.2165
G2 X-14.398 Y6.35 Z-0.4 I0.125 J-0.2165
G2 X-14.773 Y6.1335 Z-0.5333 I-0.25 J0.0
G2 Y6.5665 Z-0.6667 I0.125 J0.2165
G2 X-14.398 Y6.35 Z-0.8 I0.125 J-0.2165
G2 X-14.773 Y6.1335 Z-0.9333 I-0.25 J0.0
G2 Y6.5665 Z-1.0667 I0.125 J0.2165
G2 X-14.398 Y6.35 Z-1.2 I0.125 J-0.2165
G2 X-14.773 Y6.1335 Z-1.3333 I-0.25 J0.0
G2 Y6.5665 Z-1.4667 I0.125 J0.2165
G2 X-14.398 Y6.35 Z-1.6 I0.125 J-0.2165
G2 X-14.773 Y6.1335 Z-1.7333 I-0.25 J0.0
G2 Y6.5665 Z-1.8667 I0.125 J0.2165
G2 X-14.398 Y6.35 Z-2.0 I0.125 J-0.2165
G2 X-14.773 Y6.1335 I-0.25 J0.0
G2 Y6.5665 I0.125 J0.2165
G2 X-14.398 Y6.35 I0.125 J-0.2165
G0 Z3.0
G0 X-10.898
G0 Z1.0
G1 F300.0 Z0.0
G2 F800.0 X-11.273 Y6.1335 Z-0.1333 I-0.25 J0.0
G2 Y6.5665 Z-0.2667 I0.125 J0.2165
G2 X-10.898 Y6.35 Z-0.4 I0.125 J-0.2165
G2 X-11.273 Y6.1335 Z-0.5333 I-0.25 J0.0
G2 Y6.5665 Z-0.6667 I0.125 J0.2165
G2 X-10.898 Y6.35 Z-0.8 I0.125 J-0.2165
G2 X-11.273 Y6.1335 Z-0.9333 I-0.25 J0.0
G2 Y6.5665 Z-1.0667 I0.125 J0.2165
G2 X-10.898 Y6.35 Z-1.2 I0.125 J-0.2165
G2 X-11.273 Y6.1335 Z-1.3333 I-0.25 J0.0
G2 Y6.5665 Z-1.4667 I0.125 J0.2165
G2 X-10.898 Y6.35 Z-1.6 I0.125 J-0.2165
G2 X-11.273 Y6.1335 Z-1.7333 I-0.25 J0.0
G2 Y6.5665 Z-1.8667 I0.125 J0.2165
G2 X-10.898 Y6.35 Z-2.0 I0.125 J-0.2165
G2 X-11.273 Y6.1335 I-0.25 J0.0
G2 Y6.5665 I0.125 J0.2165
G2 X-10.898 Y6.35 I0.125 J-0.2165
G0 Z3.0
G0 X-7.398
G0 Z1.0
G1 F300.0 Z0.0
G2 F800.0 X-7.773 Y6.1335 Z-0.1333 I-0.25 J0.0
G2 Y6.5665 Z-0.2667 I0.125 J0.2165
G2 X-7.398 Y6.35 Z-0.4 I0.125 J-0.2165
G2 X-7.773 Y6.1335 Z-0.5333 I-0.25 J0.0
G2 Y6.5665 Z-0.6667 I0.125 J0.2165
G2 X-7.398 Y6.35 Z-0.8 I0.125 J-0.2165
G2 X-7.773 Y6.1335 Z-0.9333 I-0.25 J0.0
G2 Y6.5665 Z-1.0667 I0.125 J0.2165
G2 X-7.398 Y6.35 Z-1.2 I0.125 J-0.2165
G2 X-7.773 Y6.1335 Z-1.3333 I-0.25 J0.0
G2 Y6.5665 Z-1.4667 I0.125 J0.2165
G2 X-7.398 Y6.35 Z-1.6 I0.125 J-0.2165
G2 X-7.773 Y6.1335 Z-1.7333 I-0.25 J0.0
G2 Y6.5665 Z-1.8667 I0.125 J0.2165
G2 X-7.398 Y6.35 Z-2.0 I0.125 J-0.2165
G2 X-7.773 Y6.1335 I-0.25 J0.0
G2 Y6.5665 I0.125 J0.2165
G2 X-7.398 Y6.35 I0.125 J-0.2165
G0 Z3.0
G0 X-3.898
G0 Z1.0
G1 F300.0 Z0.0
G2 F800.0 X-4.273 Y6.1335 Z-0.1333 I-0.25 J0.0
G2 Y6.5665 Z-0.2667 I0.125 J0.2165
G2 X-3.898 Y6.35 Z-0.4 I0.125 J-0.2165
G2 X-4.273 Y6.1335 Z-0.5333 I-0.25 J0.0
G2 Y6.5665 Z-0.6667 I0.125 J0.2165
G2 X-3.898 Y6.35 Z-0.8 I0.125 J-0.2165
G2 X-4.273 Y6.1335 Z-0.9333 I-0.25 J0.0
G2 Y6.5665 Z-1.0667 I0.125 J0.2165
G2 X-3.898 Y6.35 Z-1.2 I0.125 J-0.2165
G2 X-4.273 Y6.1335 Z-1.3333 I-0.25 J0.0
G2 Y6.5665 Z-1.4667 I0.125 J0.2165
G2 X-3.898 Y6.35 Z-1.6 I0.125 J-0.2165
G2 X-4.273 Y6.1335 Z-1.7333 I-0.25 J0.0
G2 Y6.5665 Z-1.8667 I0.125 J0.2165
G2 X-3.898 Y6.35 Z-2.0 I0.125 J-0.2165
G2 X-4.273 Y6.1335 I-0.25 J0.0
G2 Y6.5665 I0.125 J0.2165
G2 X-3.898 Y6.35 I0.125 J-0.2165
( Drill5 )
S1000
G0 Z3.0
G0 X-4.318 Y59.055
G0 Z3.0
G0 X-3.318 Y59.055
G0 Z1.0
G1 F300.0 Z0.0
G2 F800.0 X-4.818 Y58.189 Z-0.1333 I-1.0 J0.0
G2 Y59.921 Z-0.2667 I0.5 J0.866
G2 X-3.318 Y59.055 Z-0.4 I0.5 J-0.866
G2 X-4.818 Y58.189 Z-0.5333 I-1.0 J0.0
G2 Y59.921 Z-0.6667 I0.5 J0.866
G2 X-3.318 Y59.055 Z-0.8 I0.5 J-0.866
G2 X-4.818 Y58.189 Z-0.9333 I-1.0 J0.0
G2 Y59.921 Z-1.0667 I0.5 J0.866
G2 X-3.318 Y59.055 Z-1.2 I0.5 J-0.866
G2 X-4.818 Y58.189 Z-1.3333 I-1.0 J0.0
G2 Y59.921 Z-1.4667 I0.5 J0.866
G2 X-3.318 Y59.055 Z-1.6 I0.5 J-0.866
G2 X-4.818 Y58.189 Z-1.7333 I-1.0 J0.0
G2 Y59.921 Z-1.8667 I0.5 J0.866
G2 X-3.318 Y59.055 Z-2.0 I0.5 J-0.866
G2 X-4.818 Y58.189 I-1.0 J0.0
G2 Y59.921 I0.5 J0.866
G2 X-3.318 Y59.055 I0.5 J-0.866
G0 Z3.0
G0 Y12.065
G0 Z1.0
G1 F300.0 Z0.0
G2 F800.0 X-4.818 Y11.199 Z-0.1333 I-1.0 J0.0
G2 Y12.931 Z-0.2667 I0.5 J0.866
G2 X-3.318 Y12.065 Z-0.4 I0.5 J-0.866
G2 X-4.818 Y11.199 Z-0.5333 I-1.0 J0.0
G2 Y12.931 Z-0.6667 I0.5 J0.866
G2 X-3.318 Y12.065 Z-0.8 I0.5 J-0.866
G2 X-4.818 Y11.199 Z-0.9333 I-1.0 J0.0
G2 Y12.931 Z-1.0667 I0.5 J0.866
G2 X-3.318 Y12.065 Z-1.2 I0.5 J-0.866
G2 X-4.818 Y11.199 Z-1.3333 I-1.0 J0.0
G2 Y12.931 Z-1.4667 I0.5 J0.866
G2 X-3.318 Y12.065 Z-1.6 I0.5 J-0.866
G2 X-4.818 Y11.199 Z-1.7333 I-1.0 J0.0
G2 Y12.931 Z-1.8667 I0.5 J0.866
G2 X-3.318 Y12.065 Z-2.0 I0.5 J-0.866
G2 X-4.818 Y11.199 I-1.0 J0.0
G2 Y12.931 I0.5 J0.866
G2 X-3.318 Y12.065 I0.5 J-0.866
G0 Z3.0
G0 X-75.073
G0 Z1.0
G1 F300.0 Z0.0
G2 F800.0 X-76.573 Y11.199 Z-0.1333 I-1.0 J0.0
G2 Y12.931 Z-0.2667 I0.5 J0.866
G2 X-75.073 Y12.065 Z-0.4 I0.5 J-0.866
G2 X-76.573 Y11.199 Z-0.5333 I-1.0 J0.0
G2 Y12.931 Z-0.6667 I0.5 J0.866
G2 X-75.073 Y12.065 Z-0.8 I0.5 J-0.866
G2 X-76.573 Y11.199 Z-0.9333 I-1.0 J0.0
G2 Y12.931 Z-1.0667 I0.5 J0.866
G2 X-75.073 Y12.065 Z-1.2 I0.5 J-0.866
G2 X-76.573 Y11.199 Z-1.3333 I-1.0 J0.0
G2 Y12.931 Z-1.4667 I0.5 J0.866
G2 X-75.073 Y12.065 Z-1.6 I0.5 J-0.866
G2 X-76.573 Y11.199 Z-1.7333 I-1.0 J0.0
G2 Y12.931 Z-1.8667 I0.5 J0.866
G2 X-75.073 Y12.065 Z-2.0 I0.5 J-0.866
G2 X-76.573 Y11.199 I-1.0 J0.0
G2 Y12.931 I0.5 J0.866
G2 X-75.073 Y12.065 I0.5 J-0.866
G0 Z3.0
G0 Y59.055
G0 Z1.0
G1 F300.0 Z0.0
G2 F800.0 X-76.573 Y58.189 Z-0.1333 I-1.0 J0.0
G2 Y59.921 Z-0.2667 I0.5 J0.866
G2 X-75.073 Y59.055 Z-0.4 I0.5 J-0.866
G2 X-76.573 Y58.189 Z-0.5333 I-1.0 J0.0
G2 Y59.921 Z-0.6667 I0.5 J0.866
G2 X-75.073 Y59.055 Z-0.8 I0.5 J-0.866
G2 X-76.573 Y58.189 Z-0.9333 I-1.0 J0.0
G2 Y59.921 Z-1.0667 I0.5 J0.866
G2 X-75.073 Y59.055 Z-1.2 I0.5 J-0.866
G2 X-76.573 Y58.189 Z-1.3333 I-1.0 J0.0
G2 Y59.921 Z-1.4667 I0.5 J0.866
G2 X-75.073 Y59.055 Z-1.6 I0.5 J-0.866
G2 X-76.573 Y58.189 Z-1.7333 I-1.0 J0.0
G2 Y59.921 Z-1.8667 I0.5 J0.866
G2 X-75.073 Y59.055 Z-2.0 I0.5 J-0.866
G2 X-76.573 Y58.189 I-1.0 J0.0
G2 Y59.921 I0.5 J0.866
G2 X-75.073 Y59.055 I0.5 J-0.866
( Profile1 )
S1000
G0 Z3.0
G0 X-80.5 Y1.0
G0 Z1.0
G1 F300.0 Z-0.53
G3 F800.0 X-79.0 Y-0.5 I1.5 J0.0
G1 X-1.0
G3 X0.5 Y1.0 I0.0 J1.5
G1 Y71.0
G3 X-1.0 Y72.5 I-1.5 J0.0
G1 X-79.0
G3 X-80.5 Y71.0 I0.0 J-1.5
G1 Y1.0
G1 F300.0 Z-1.06
G3 F800.0 X-79.0 Y-0.5 I1.5 J0.0
G1 X-1.0
G3 X0.5 Y1.0 I0.0 J1.5
G1 Y71.0
G3 X-1.0 Y72.5 I-1.5 J0.0
G1 X-79.0
G3 X-80.5 Y71.0 I0.0 J-1.5
G1 Y1.0
G1 F300.0 Z-1.55
G3 F800.0 X-79.0 Y-0.5 I1.5 J0.0
G1 X-1.0
G3 X0.5 Y1.0 I0.0 J1.5
G1 Y71.0
G3 X-1.0 Y72.5 I-1.5 J0.0
G1 X-79.0
G3 X-80.5 Y71.0 I0.0 J-1.5
G1 Y1.0
G0 Z3.0
M5
M30
